( Made using CamBam - http://www.cambam.co.uk )
( spring_reverb_panel 1/16/2015 9:46:41 PM )
( T1 : 3.175 )
( T10 : 0.0 )
G21 G90 G61 G40
G0 Z3.0
( T10 : 0.0 )
T10 M6
( lettering )
G17
M3 S1000
G0 X4.6395 Y114.7146
G0 Z0.649
G1 F1000.0 Z-0.001
G3 F2000.0 X5.223 Y114.7867 I0.0214 J2.2234
G3 X5.7528 Y115.0417 I-0.3942 J1.4967
G3 X6.0972 Y115.522 I-0.6267 J0.813
G3 X6.1873 Y116.1062 I-1.6443 J0.5528
G3 X6.1278 Y116.5199 I-1.3734 J0.0135
G3 X5.9286 Y116.8874 I-1.0303 J-0.3209
G3 X5.2791 Y117.4392 I-1.8957 J-1.5732
G3 X4.4246 Y117.864 I-3.2425 J-5.4504
G2 X3.575 Y118.279 I2.806 J6.8212
G2 X2.9256 Y118.7966 I1.326 J2.3299
G2 X2.6668 Y119.5339 I0.8269 J0.7043
G2 X2.7205 Y119.9587 I1.8336 J-0.016
G2 X2.9256 Y120.3786 I1.1609 J-0.3069
G2 X3.3455 Y120.7058 I0.9155 J-0.7421
G2 X3.6948 Y120.8106 I0.54 J-1.1646
G2 X4.0584 Y120.8376 I0.349 J-2.239
G1 X5.909
G1 X4.0584
G3 X3.6948 Y120.8106 I-0.0145 J-2.269
G3 X3.3455 Y120.7058 I0.1908 J-1.2697
G3 X2.9256 Y120.3786 I0.4957 J-1.0693
G3 X2.7205 Y119.9587 I0.9558 J-0.7268
G3 X2.6668 Y119.5339 I1.7804 J-0.4409
G3 X2.9256 Y118.7966 I1.0857 J-0.033
G3 X3.575 Y118.279 I1.9753 J1.8122
G3 X4.4246 Y117.864 I3.6548 J6.4045
G2 X5.2791 Y117.4392 I-2.3865 J-5.8722
G2 X5.9286 Y116.8874 I-1.2463 J-2.125
G2 X6.1873 Y116.1062 I-0.928 J-0.7409
G2 X6.0972 Y115.522 I-1.7345 J-0.0313
G2 X5.7528 Y115.0417 I-0.971 J0.3326
G2 X5.223 Y114.7867 I-0.9239 J1.2414
G2 X4.6395 Y114.7146 I-0.5622 J2.152
G1 X2.5887
G1 X4.6395
G0 Z3.0
G0 X7.7498 Y116.4577
G0 Z0.649
G1 F1000.0 Z-0.001
G2 F2000.0 X7.8914 Y117.4392 I3.1473 J0.0469
G2 X8.2967 Y118.157 I1.9545 J-0.6303
G2 X8.9217 Y118.6062 I1.295 J-1.1424
G2 X9.7274 Y118.7624 I0.7823 J-1.8783
G2 X10.5282 Y118.6208 I0.0187 J-2.2292
G2 X11.1727 Y118.2058 I-0.6384 J-1.6994
G2 X11.6073 Y117.532 I-1.4223 J-1.3943
G2 X11.7684 Y116.6189 I-2.2776 J-0.8727
G2 X11.6121 Y115.7839 I-2.1596 J-0.028
G2 X11.1922 Y115.1491 I-1.7609 J0.7086
G2 X10.5721 Y114.7439 I-1.3373 J1.3692
G2 X9.8299 Y114.6023 I-0.7377 J1.8509
G2 X8.9754 Y114.7488 I-0.041 J2.3261
G3 X9.8299 Y114.6023 I0.8135 J2.1798
G3 X10.5721 Y114.7439 I0.0045 J1.9922
G3 X11.1922 Y115.1491 I-0.7171 J1.7743
G3 X11.6121 Y115.7839 I-1.341 J1.3434
G3 X11.7684 Y116.6189 I-2.0035 J0.807
G3 X11.6073 Y117.532 I-2.4389 J0.0404
G3 X11.1727 Y118.2058 I-1.857 J-0.7206
G3 X10.5282 Y118.6208 I-1.2829 J-1.2844
G3 X9.7274 Y118.7624 I-0.782 J-2.0875
G3 X8.9217 Y118.6062 I-0.0234 J-2.0345
G3 X8.2967 Y118.157 I0.6701 J-1.5917
G3 X7.8914 Y117.4392 I1.5492 J-1.348
G3 X7.7498 Y116.4577 I3.0056 J-0.9346
G1 Y112.5222
G1 Y116.4577
G0 Z3.0
G0 X13.3504 Y118.6355
G0 Z0.649
G1 F1000.0 Z-0.001
G1 F2000.0 Y114.7195
G1 Y118.6355
G0 Z3.0
G0 Y116.5945
G0 Z0.649
G1 F1000.0 Z-0.001
G2 F2000.0 X13.4627 Y117.5417 I3.5371 J0.0609
G2 X13.7801 Y118.1911 I1.8665 J-0.5099
G2 X14.2489 Y118.572 I1.0357 J-0.7958
G2 X14.8299 Y118.7478 I0.838 J-1.7219
G3 X14.2489 Y118.572 I0.257 J-1.8977
G3 X13.7801 Y118.1911 I0.5669 J-1.1766
G3 X13.4627 Y117.5417 I1.5489 J-1.1593
G3 X13.3504 Y116.5945 I3.4242 J-0.8862
G1 Y114.7146
G1 Y116.5945
G0 Z3.0
G0 X16.6366 Y114.7195
G0 Z0.649
G1 F1000.0 Z-0.001
G1 F2000.0 Y118.6355
G1 Y114.7195
G0 Z3.0
G0 X18.9168
G0 Z0.649
G1 F1000.0 Z-0.001
G1 F2000.0 Y117.0779
G2 X19.0145 Y117.6833 I1.9628 J-0.006
G2 X19.3221 Y118.2302 I1.5366 J-0.5044
G2 X19.825 Y118.6208 I1.2267 J-1.0602
G2 X20.5282 Y118.7722 I0.6708 J-1.4071
G2 X21.2215 Y118.6208 I0.0322 J-1.5163
G2 X21.7245 Y118.2302 I-0.6789 J-1.3931
G2 X22.0272 Y117.6833 I-1.2777 J-1.0645
G2 X22.1346 Y117.0779 I-1.6937 J-0.6128
G1 Y114.7195
G1 Y117.0779
G3 X22.0272 Y117.6833 I-1.8011 J-0.0073
G3 X21.7245 Y118.2302 I-1.5803 J-0.5176
G3 X21.2215 Y118.6208 I-1.1818 J-1.0024
G3 X20.5282 Y118.7722 I-0.6612 J-1.3649
G3 X19.825 Y118.6208 I-0.0324 J-1.5584
G3 X19.3221 Y118.2302 I0.7236 J-1.4508
G3 X19.0145 Y117.6833 I1.2291 J-1.0513
G3 X18.9168 Y117.0779 I1.8656 J-0.6115
G1 Y114.7195
G0 Z3.0
G0 X23.854 Y116.0433
G0 Z0.649
G1 F1000.0 Z-0.001
G2 F2000.0 X23.785 Y116.5993 I1.9585 J0.5252
G2 X23.9412 Y117.5124 I2.53 J0.037
G2 X24.3661 Y118.1911 I1.8421 J-0.6807
G2 X25.0057 Y118.6159 I1.2876 J-1.2449
G2 X25.8065 Y118.7624 I0.7826 J-2.0164
G2 X26.5975 Y118.5964 I0.0281 J-1.8335
G2 X27.203 Y118.1472 I-0.7565 J-1.6523
G2 X27.5936 Y117.4929 I-1.4434 J-1.3055
G2 X27.745 Y116.697 I-2.2487 J-0.84
G1 Y114.5095
G2 X27.6229 Y113.6989 I-2.6418 J-0.0166
G2 X27.2518 Y113.0349 I-1.6802 J0.5032
G2 X26.6024 Y112.5857 I-1.2712 J1.1437
G2 X25.6551 Y112.4196 I-0.8903 J2.2947
G2 X24.6248 Y112.5564 I0.0606 J4.4067
G3 X25.6551 Y112.4196 I1.0908 J4.2694
G3 X26.6024 Y112.5857 I0.0569 J2.461
G3 X27.2518 Y113.0349 I-0.6218 J1.593
G3 X27.6229 Y113.6989 I-1.309 J1.1672
G3 X27.745 Y114.5095 I-2.5197 J0.7939
G1 Y116.697
G3 X27.5936 Y117.4929 I-2.3999 J-0.0441
G3 X27.203 Y118.1472 I-1.8341 J-0.6512
G3 X26.5975 Y118.5964 I-1.3621 J-1.2032
G3 X25.8065 Y118.7624 I-0.7629 J-1.6675
G3 X25.0057 Y118.6159 I-0.0182 J-2.1628
G3 X24.3661 Y118.1911 I0.648 J-1.6697
G3 X23.9412 Y117.5124 I1.4172 J-1.3593
G3 X23.785 Y116.5993 I2.3735 J-0.8761
G3 X23.951 Y115.7644 I2.0277 J-0.0308
G3 X24.3905 Y115.1345 I1.8531 J0.8246
G3 X25.0399 Y114.7341 I1.3095 J1.3972
G3 X25.8358 Y114.5974 I0.7833 J2.1748
G3 X26.5145 Y114.7146 I0.0045 J1.9977
G2 X25.8358 Y114.5974 I-0.6741 J1.8803
G2 X25.0399 Y114.7341 I-0.0127 J2.3113
G2 X24.3905 Y115.1345 I0.66 J1.7974
G2 X23.951 Y115.7644 I1.4136 J1.4545
G2 X23.854 Y116.0433 I1.8615 J0.8041
G0 Z3.0
G0 X16.7173 Y120.1075
G0 Z0.649
G1 F1000.0 Z-0.001
G3 F2000.0 X16.7293 Y120.1491 I-0.0805 J0.0459
G3 X16.6366 Y120.2419 I-0.0812 J0.0116
G3 X16.5487 Y120.1491 I-0.009 J-0.0795
G3 X16.5682 Y120.0905 I0.1054 J0.0026
G3 X16.6366 Y120.0613 I0.0609 J0.0478
G3 X16.7049 Y120.0905 I0.0074 J0.0771
G3 X16.7173 Y120.1075 I-0.0682 J0.0628
G3 X16.7293 Y120.1491 I-0.0805 J0.0459
G3 X16.6366 Y120.2419 I-0.0812 J0.0116
G3 X16.5487 Y120.1491 I-0.009 J-0.0795
G3 X16.5682 Y120.0905 I0.1054 J0.0026
G3 X16.6366 Y120.0613 I0.0609 J0.0478
G3 X16.7049 Y120.0905 I0.0074 J0.0771
G3 X16.7173 Y120.1075 I-0.0682 J0.0628
G2 X16.7049 Y120.0905 I-0.0805 J0.0459
G2 X16.6366 Y120.0613 I-0.0609 J0.0478
G2 X16.5682 Y120.0905 I-0.0074 J0.0771
G2 X16.5487 Y120.1491 I0.086 J0.0612
G2 X16.6366 Y120.2419 I0.0789 J0.0133
G2 X16.7293 Y120.1491 I0.0116 J-0.0812
G2 X16.7173 Y120.1075 I-0.0926 J0.0042
G2 X16.7049 Y120.0905 I-0.0805 J0.0459
G2 X16.6366 Y120.0613 I-0.0609 J0.0478
G2 X16.5682 Y120.0905 I-0.0074 J0.0771
G2 X16.5487 Y120.1491 I0.086 J0.0612
G2 X16.6366 Y120.2419 I0.0789 J0.0133
G2 X16.7293 Y120.1491 I0.0116 J-0.0812
G2 X16.7173 Y120.1075 I-0.0926 J0.0042
G0 Z3.0
G0 X5.628 Y71.153
G0 Z0.649
G1 F1000.0 Z-0.001
G2 F2000.0 X5.679 Y71.0788 I-0.0147 J-0.0648
G2 X5.6593 Y71.0313 I-0.075 J0.0034
G2 X5.6039 Y71.0076 I-0.0493 J0.0387
G2 X5.5485 Y71.0313 I-0.006 J0.0624
G2 X5.5327 Y71.0788 I0.0696 J0.0496
G2 X5.6039 Y71.1539 I0.0639 J0.0108
G2 X5.628 Y71.153 I0.0094 J-0.0658
G3 X5.6039 Y71.1539 I-0.0147 J-0.0648
G3 X5.5327 Y71.0788 I-0.0073 J-0.0644
G3 X5.5485 Y71.0313 I0.0854 J0.0021
G3 X5.6039 Y71.0076 I0.0493 J0.0387
G3 X5.6593 Y71.0313 I0.006 J0.0624
G3 X5.679 Y71.0788 I-0.0552 J0.0509
G3 X5.628 Y71.153 I-0.0658 J0.0094
G3 X5.6039 Y71.1539 I-0.0147 J-0.0648
G3 X5.5327 Y71.0788 I-0.0073 J-0.0644
G3 X5.5485 Y71.0313 I0.0854 J0.0021
G3 X5.6039 Y71.0076 I0.0493 J0.0387
G3 X5.6593 Y71.0313 I0.006 J0.0624
G3 X5.679 Y71.0788 I-0.0552 J0.0509
G3 X5.628 Y71.153 I-0.0658 J0.0094
G2 X5.679 Y71.0788 I-0.0147 J-0.0648
G2 X5.6593 Y71.0313 I-0.075 J0.0034
G2 X5.6039 Y71.0076 I-0.0493 J0.0387
G2 X5.5485 Y71.0313 I-0.006 J0.0624
G2 X5.5327 Y71.0788 I0.0696 J0.0496
G2 X5.6039 Y71.1539 I0.0639 J0.0108
G2 X5.628 Y71.153 I0.0094 J-0.0658
G0 Z3.0
G0 X5.6039 Y69.8527
G0 Z0.649
G1 F1000.0 Z-0.001
G1 F2000.0 Y66.6807
G1 Y69.8527
G0 Z3.0
G0 X7.4509 Y68.591
G0 Z0.649
G1 F1000.0 Z-0.001
G2 F2000.0 X7.53 Y69.0815 I1.5898 J-0.0048
G2 X7.7792 Y69.5244 I1.2447 J-0.4086
G2 X8.1866 Y69.8408 I0.9936 J-0.8588
G2 X8.7561 Y69.9635 I0.5433 J-1.1398
G2 X9.3177 Y69.8408 I0.0261 J-1.2282
G2 X9.7251 Y69.5244 I-0.5499 J-1.1284
G2 X9.9703 Y69.0815 I-1.0349 J-0.8623
G2 X10.0573 Y68.591 I-1.3719 J-0.4963
G1 Y66.6807
G1 Y68.591
G3 X9.9703 Y69.0815 I-1.4589 J-0.0059
G3 X9.7251 Y69.5244 I-1.28 J-0.4192
G3 X9.3177 Y69.8408 I-0.9572 J-0.812
G3 X8.7561 Y69.9635 I-0.5356 J-1.1056
G3 X8.1866 Y69.8408 I-0.0262 J-1.2623
G3 X7.7792 Y69.5244 I0.5862 J-1.1751
G3 X7.53 Y69.0815 I0.9956 J-0.8516
G3 X7.4509 Y68.591 I1.5111 J-0.4953
G1 Y66.6807
G1 Y68.591
G0 Z3.0
G0 X6.6174 Y56.4515
G0 Z0.649
G1 F1000.0 Z-0.001
G3 F2000.0 X6.4811 Y56.4555 I-0.1201 J-1.7494
G3 X5.8206 Y56.3329 I-0.0161 J-1.7536
G3 X5.2985 Y55.9849 I0.5457 J-1.3841
G3 X4.9584 Y55.451 I1.1277 J-1.0937
G3 X4.8358 Y54.7707 I1.7067 J-0.6588
G3 X4.9584 Y54.0825 I1.8716 J-0.0216
G3 X5.2985 Y53.5486 I1.5128 J0.5884
G3 X5.8206 Y53.2045 I1.077 J1.0659
G3 X6.4811 Y53.0858 I0.6439 J1.6866
G3 X7.1416 Y53.2045 I0.0166 J1.8055
G3 X7.6637 Y53.5486 I-0.5548 J1.4099
G3 X8.0038 Y54.0825 I-1.1726 J1.1223
G3 X8.1264 Y54.7707 I-1.7488 J0.6666
G3 X8.0038 Y55.451 I-1.8293 J0.0215
G3 X7.6637 Y55.9849 I-1.4679 J-0.5598
G3 X7.1416 Y56.3329 I-1.0678 J-1.0361
G3 X6.6174 Y56.4515 I-0.6444 J-1.6309
G3 X6.4811 Y56.4555 I-0.1201 J-1.7494
G3 X5.8206 Y56.3329 I-0.0161 J-1.7536
G3 X5.2985 Y55.9849 I0.5457 J-1.3841
G3 X4.9584 Y55.451 I1.1277 J-1.0937
G3 X4.8358 Y54.7707 I1.7067 J-0.6588
G3 X4.9584 Y54.0825 I1.8716 J-0.0216
G3 X5.2985 Y53.5486 I1.5128 J0.5884
G3 X5.8206 Y53.2045 I1.077 J1.0659
G3 X6.4811 Y53.0858 I0.6439 J1.6866
G3 X7.1416 Y53.2045 I0.0166 J1.8055
G3 X7.6637 Y53.5486 I-0.5548 J1.4099
G3 X8.0038 Y54.0825 I-1.1726 J1.1223
G3 X8.1264 Y54.7707 I-1.7488 J0.6666
G3 X8.0038 Y55.451 I-1.8293 J0.0215
G3 X7.6637 Y55.9849 I-1.4679 J-0.5598
G3 X7.1416 Y56.3329 I-1.0678 J-1.0361
G3 X6.6174 Y56.4515 I-0.6444 J-1.6309
G2 X7.1416 Y56.3329 I-0.1202 J-1.7496
G2 X7.6637 Y55.9849 I-0.5457 J-1.3841
G2 X8.0038 Y55.451 I-1.1277 J-1.0937
G2 X8.1264 Y54.7707 I-1.7067 J-0.6588
G2 X8.0038 Y54.0825 I-1.8716 J-0.0216
G2 X7.6637 Y53.5486 I-1.5128 J0.5884
G2 X7.1416 Y53.2045 I-1.077 J1.0659
G2 X6.4811 Y53.0858 I-0.6439 J1.6866
G2 X5.8206 Y53.2045 I-0.0166 J1.8055
G2 X5.2985 Y53.5486 I0.5548 J1.4099
G2 X4.9584 Y54.0825 I1.1726 J1.1223
G2 X4.8358 Y54.7707 I1.7488 J0.6666
G2 X4.9584 Y55.451 I1.8293 J0.0215
G2 X5.2985 Y55.9849 I1.4679 J-0.5598
G2 X5.8206 Y56.3329 I1.0678 J-1.0361
G2 X6.4811 Y56.4555 I0.6444 J-1.6309
G2 X6.6174 Y56.4515 I0.0161 J-1.7536
G2 X7.1416 Y56.3329 I-0.1202 J-1.7496
G2 X7.6637 Y55.9849 I-0.5457 J-1.3841
G2 X8.0038 Y55.451 I-1.1277 J-1.0937
G2 X8.1264 Y54.7707 I-1.7067 J-0.6588
G2 X8.0038 Y54.0825 I-1.8716 J-0.0216
G2 X7.6637 Y53.5486 I-1.5128 J0.5884
G2 X7.1416 Y53.2045 I-1.077 J1.0659
G2 X6.4811 Y53.0858 I-0.6439 J1.6866
G2 X5.8206 Y53.2045 I-0.0166 J1.8055
G2 X5.2985 Y53.5486 I0.5548 J1.4099
G2 X4.9584 Y54.0825 I1.1726 J1.1223
G2 X4.8358 Y54.7707 I1.7488 J0.6666
G2 X4.9584 Y55.451 I1.8293 J0.0215
G2 X5.2985 Y55.9849 I1.4679 J-0.5598
G2 X5.8206 Y56.3329 I1.0678 J-1.0361
G2 X6.4811 Y56.4555 I0.6444 J-1.6309
G2 X6.6174 Y56.4515 I0.0161 J-1.7536
G0 Z3.0
G0 X9.4553 Y56.3567
G0 Z0.649
G1 F1000.0 Z-0.001
G1 F2000.0 Y54.4424
G3 X9.5344 Y53.9559 I1.5786 J0.007
G3 X9.7796 Y53.5209 I1.208 J0.3942
G3 X10.187 Y53.2045 I0.9936 J0.8588
G3 X10.7565 Y53.0819 I0.5433 J1.1398
G3 X11.3221 Y53.2045 I0.0277 J1.2382
G3 X11.7295 Y53.5209 I-0.5499 J1.1284
G3 X11.9747 Y53.9559 I-1.0455 J0.8759
G3 X12.0617 Y54.4424 I-1.3616 J0.4946
G1 Y56.3567
G1 Y54.4424
G2 X11.9747 Y53.9559 I-1.4484 J0.008
G2 X11.7295 Y53.5209 I-1.2906 J0.4408
G2 X11.3221 Y53.2045 I-0.9572 J0.812
G2 X10.7565 Y53.0819 I-0.5379 J1.1155
G2 X10.187 Y53.2045 I-0.0262 J1.2623
G2 X9.7796 Y53.5209 I0.5862 J1.1751
G2 X9.5344 Y53.9559 I0.9628 J0.8293
G2 X9.4553 Y54.4424 I1.4993 J0.4935
G1 Y56.3567
G0 Z3.0
G0 X14.4585 Y53.1807
G0 Z0.649
G1 F1000.0 Z-0.001
G2 F2000.0 X14.1327 Y53.2225 I-0.0135 J1.1864
G2 X13.8415 Y53.3745 I0.2056 J0.7487
G2 X13.6584 Y53.6829 I0.4126 J0.4535
G2 X13.6161 Y54.039 I1.3022 J0.3356
G1 Y57.3296
G1 Y54.039
G3 X13.6584 Y53.6829 I1.3443 J-0.0206
G3 X13.8415 Y53.3745 I0.5957 J0.1451
G3 X14.1327 Y53.2225 I0.4968 J0.5966
G3 X14.4585 Y53.1807 I0.3124 J1.1447
G1 X15.0122
G1 X14.4585
G0 Z3.0
G0 X15.0122 Y56.3725
G0 Z0.649
G1 F1000.0 Z-0.001
G1 F2000.0 X13.6161
G1 X15.0122
G0 Z3.0
G0 X9.0 Y15.2672
G0 Z0.649
G1 F1000.0 Z-0.001
G1 F2000.0 Y8.0
G0 Z3.0
G0 X10.8792 Y9.8792
G0 Z0.649
G1 F1000.0 Z-0.001
G1 F2000.0 X9.0 Y8.0
G1 X7.1208 Y9.8792
G0 Z3.0
G0 X19.6208 Y13.3708
G0 Z0.649
G1 F1000.0 Z-0.001
G1 F2000.0 X21.5 Y15.25
G1 X23.3792 Y13.3708
G0 Z3.0
G0 X21.5 Y15.25
G0 Z0.249
G1 F1000.0 Z-0.001
G1 F2000.0 Y7.9828
( Drill1 )
G0 Z3.0
( T1 : 3.175 )
T1 M6
M3 S1000
G0 X7.5 Y125.5
G0 Z3.0
G0 X7.5125 Y125.5
G0 Z0.25
G1 F1000.0 Z0.0
G2 F2000.0 X7.4938 Y125.4892 Z-0.0333 I-0.0125 J0.0
G2 Y125.5108 Z-0.0667 I0.0062 J0.0108
G2 X7.5125 Y125.5 Z-0.1 I0.0063 J-0.0108
G2 X7.4938 Y125.4892 Z-0.1333 I-0.0125 J0.0
G2 Y125.5108 Z-0.1667 I0.0062 J0.0108
G2 X7.5125 Y125.5 Z-0.2 I0.0063 J-0.0108
G2 X7.4938 Y125.4892 Z-0.2333 I-0.0125 J0.0
G2 Y125.5108 Z-0.2667 I0.0062 J0.0108
G2 X7.5125 Y125.5 Z-0.3 I0.0063 J-0.0108
G2 X7.4938 Y125.4892 Z-0.3333 I-0.0125 J0.0
G2 Y125.5108 Z-0.3667 I0.0062 J0.0108
G2 X7.5125 Y125.5 Z-0.4 I0.0063 J-0.0108
G2 X7.4938 Y125.4892 Z-0.4333 I-0.0125 J0.0
G2 Y125.5108 Z-0.4667 I0.0062 J0.0108
G2 X7.5125 Y125.5 Z-0.5 I0.0063 J-0.0108
G2 X7.4938 Y125.4892 Z-0.5333 I-0.0125 J0.0
G2 Y125.5108 Z-0.5667 I0.0062 J0.0108
G2 X7.5125 Y125.5 Z-0.6 I0.0063 J-0.0108
G2 X7.4938 Y125.4892 Z-0.6333 I-0.0125 J0.0
G2 Y125.5108 Z-0.6667 I0.0062 J0.0108
G2 X7.5125 Y125.5 Z-0.7 I0.0063 J-0.0108
G2 X7.4938 Y125.4892 Z-0.7333 I-0.0125 J0.0
G2 Y125.5108 Z-0.7667 I0.0062 J0.0108
G2 X7.5125 Y125.5 Z-0.8 I0.0063 J-0.0108
G2 X7.4938 Y125.4892 Z-0.8333 I-0.0125 J0.0
G2 Y125.5108 Z-0.8667 I0.0062 J0.0108
G2 X7.5125 Y125.5 Z-0.9 I0.0063 J-0.0108
G2 X7.4938 Y125.4892 Z-0.9333 I-0.0125 J0.0
G2 Y125.5108 Z-0.9667 I0.0062 J0.0108
G2 X7.5125 Y125.5 Z-1.0 I0.0063 J-0.0108
G2 X7.4938 Y125.4892 Z-1.0333 I-0.0125 J0.0
G2 Y125.5108 Z-1.0667 I0.0062 J0.0108
G2 X7.5125 Y125.5 Z-1.1 I0.0063 J-0.0108
G2 X7.4938 Y125.4892 Z-1.1333 I-0.0125 J0.0
G2 Y125.5108 Z-1.1667 I0.0062 J0.0108
G2 X7.5125 Y125.5 Z-1.2 I0.0063 J-0.0108
G2 X7.4938 Y125.4892 Z-1.2333 I-0.0125 J0.0
G2 Y125.5108 Z-1.2667 I0.0062 J0.0108
G2 X7.5125 Y125.5 Z-1.3 I0.0063 J-0.0108
G2 X7.4938 Y125.4892 Z-1.3333 I-0.0125 J0.0
G2 Y125.5108 Z-1.3667 I0.0062 J0.0108
G2 X7.5125 Y125.5 Z-1.4 I0.0063 J-0.0108
G2 X7.4938 Y125.4892 Z-1.4333 I-0.0125 J0.0
G2 Y125.5108 Z-1.4667 I0.0062 J0.0108
G2 X7.5125 Y125.5 Z-1.5 I0.0063 J-0.0108
G2 X7.4938 Y125.4892 Z-1.5333 I-0.0125 J0.0
G2 Y125.5108 Z-1.5667 I0.0062 J0.0108
G2 X7.5125 Y125.5 Z-1.6 I0.0063 J-0.0108
G2 X7.4938 Y125.4892 Z-1.6333 I-0.0125 J0.0
G2 Y125.5108 Z-1.6667 I0.0062 J0.0108
G2 X7.5125 Y125.5 Z-1.7 I0.0063 J-0.0108
G2 X7.4938 Y125.4892 Z-1.7333 I-0.0125 J0.0
G2 Y125.5108 Z-1.7667 I0.0062 J0.0108
G2 X7.5125 Y125.5 Z-1.8 I0.0063 J-0.0108
G2 X7.4938 Y125.4892 Z-1.8333 I-0.0125 J0.0
G2 Y125.5108 Z-1.8667 I0.0062 J0.0108
G2 X7.5125 Y125.5 Z-1.9 I0.0063 J-0.0108
G2 X7.4938 Y125.4892 Z-1.9333 I-0.0125 J0.0
G2 Y125.5108 Z-1.9667 I0.0062 J0.0108
G2 X7.5125 Y125.5 Z-2.0 I0.0063 J-0.0108
G2 X7.4938 Y125.4892 Z-2.0333 I-0.0125 J0.0
G2 Y125.5108 Z-2.0667 I0.0062 J0.0108
G2 X7.5125 Y125.5 Z-2.1 I0.0063 J-0.0108
G2 X7.4938 Y125.4892 Z-2.1333 I-0.0125 J0.0
G2 Y125.5108 Z-2.1667 I0.0062 J0.0108
G2 X7.5125 Y125.5 Z-2.2 I0.0063 J-0.0108
G2 X7.4938 Y125.4892 Z-2.2333 I-0.0125 J0.0
G2 Y125.5108 Z-2.2667 I0.0062 J0.0108
G2 X7.5125 Y125.5 Z-2.3 I0.0063 J-0.0108
G2 X7.4938 Y125.4892 Z-2.3333 I-0.0125 J0.0
G2 Y125.5108 Z-2.3667 I0.0062 J0.0108
G2 X7.5125 Y125.5 Z-2.4 I0.0063 J-0.0108
G2 X7.4938 Y125.4892 Z-2.4333 I-0.0125 J0.0
G2 Y125.5108 Z-2.4667 I0.0062 J0.0108
G2 X7.5125 Y125.5 Z-2.5 I0.0063 J-0.0108
G2 X7.4938 Y125.4892 Z-2.5333 I-0.0125 J0.0
G2 Y125.5108 Z-2.5667 I0.0062 J0.0108
G2 X7.5125 Y125.5 Z-2.6 I0.0063 J-0.0108
G2 X7.4938 Y125.4892 Z-2.6333 I-0.0125 J0.0
G2 Y125.5108 Z-2.6667 I0.0062 J0.0108
G2 X7.5125 Y125.5 Z-2.7 I0.0063 J-0.0108
G2 X7.4938 Y125.4892 Z-2.7333 I-0.0125 J0.0
G2 Y125.5108 Z-2.7667 I0.0062 J0.0108
G2 X7.5125 Y125.5 Z-2.8 I0.0063 J-0.0108
G2 X7.4938 Y125.4892 Z-2.8333 I-0.0125 J0.0
G2 Y125.5108 Z-2.8667 I0.0062 J0.0108
G2 X7.5125 Y125.5 Z-2.9 I0.0063 J-0.0108
G2 X7.4938 Y125.4892 Z-2.9333 I-0.0125 J0.0
G2 Y125.5108 Z-2.9667 I0.0062 J0.0108
G2 X7.5125 Y125.5 Z-3.0 I0.0063 J-0.0108
G2 X7.4938 Y125.4892 Z-3.0333 I-0.0125 J0.0
G2 Y125.5108 Z-3.0667 I0.0062 J0.0108
G2 X7.5125 Y125.5 Z-3.1 I0.0062 J-0.0108
G2 X7.4938 Y125.4892 Z-3.1333 I-0.0125 J0.0
G2 Y125.5108 Z-3.1667 I0.0063 J0.0108
G2 X7.5125 Y125.5 Z-3.2 I0.0062 J-0.0108
G2 X7.4938 Y125.4892 I-0.0125 J0.0
G2 Y125.5108 I0.0063 J0.0108
G2 X7.5125 Y125.5 I0.0062 J-0.0108
G0 Z3.0
G0 X22.7525
G0 Z0.25
G1 F1000.0 Z0.0
G2 F2000.0 X22.7337 Y125.4892 Z-0.0333 I-0.0125 J0.0
G2 Y125.5108 Z-0.0667 I0.0062 J0.0108
G2 X22.7525 Y125.5 Z-0.1 I0.0063 J-0.0108
G2 X22.7337 Y125.4892 Z-0.1333 I-0.0125 J0.0
G2 Y125.5108 Z-0.1667 I0.0062 J0.0108
G2 X22.7525 Y125.5 Z-0.2 I0.0063 J-0.0108
G2 X22.7337 Y125.4892 Z-0.2333 I-0.0125 J0.0
G2 Y125.5108 Z-0.2667 I0.0062 J0.0108
G2 X22.7525 Y125.5 Z-0.3 I0.0063 J-0.0108
G2 X22.7337 Y125.4892 Z-0.3333 I-0.0125 J0.0
G2 Y125.5108 Z-0.3667 I0.0062 J0.0108
G2 X22.7525 Y125.5 Z-0.4 I0.0063 J-0.0108
G2 X22.7337 Y125.4892 Z-0.4333 I-0.0125 J0.0
G2 Y125.5108 Z-0.4667 I0.0062 J0.0108
G2 X22.7525 Y125.5 Z-0.5 I0.0063 J-0.0108
G2 X22.7337 Y125.4892 Z-0.5333 I-0.0125 J0.0
G2 Y125.5108 Z-0.5667 I0.0062 J0.0108
G2 X22.7525 Y125.5 Z-0.6 I0.0063 J-0.0108
G2 X22.7337 Y125.4892 Z-0.6333 I-0.0125 J0.0
G2 Y125.5108 Z-0.6667 I0.0062 J0.0108
G2 X22.7525 Y125.5 Z-0.7 I0.0063 J-0.0108
G2 X22.7337 Y125.4892 Z-0.7333 I-0.0125 J0.0
G2 Y125.5108 Z-0.7667 I0.0062 J0.0108
G2 X22.7525 Y125.5 Z-0.8 I0.0063 J-0.0108
G2 X22.7337 Y125.4892 Z-0.8333 I-0.0125 J0.0
G2 Y125.5108 Z-0.8667 I0.0062 J0.0108
G2 X22.7525 Y125.5 Z-0.9 I0.0063 J-0.0108
G2 X22.7337 Y125.4892 Z-0.9333 I-0.0125 J0.0
G2 Y125.5108 Z-0.9667 I0.0062 J0.0108
G2 X22.7525 Y125.5 Z-1.0 I0.0063 J-0.0108
G2 X22.7337 Y125.4892 Z-1.0333 I-0.0125 J0.0
G2 Y125.5108 Z-1.0667 I0.0062 J0.0108
G2 X22.7525 Y125.5 Z-1.1 I0.0063 J-0.0108
G2 X22.7337 Y125.4892 Z-1.1333 I-0.0125 J0.0
G2 Y125.5108 Z-1.1667 I0.0062 J0.0108
G2 X22.7525 Y125.5 Z-1.2 I0.0063 J-0.0108
G2 X22.7337 Y125.4892 Z-1.2333 I-0.0125 J0.0
G2 Y125.5108 Z-1.2667 I0.0062 J0.0108
G2 X22.7525 Y125.5 Z-1.3 I0.0063 J-0.0108
G2 X22.7337 Y125.4892 Z-1.3333 I-0.0125 J0.0
G2 Y125.5108 Z-1.3667 I0.0062 J0.0108
G2 X22.7525 Y125.5 Z-1.4 I0.0063 J-0.0108
G2 X22.7337 Y125.4892 Z-1.4333 I-0.0125 J0.0
G2 Y125.5108 Z-1.4667 I0.0062 J0.0108
G2 X22.7525 Y125.5 Z-1.5 I0.0063 J-0.0108
G2 X22.7337 Y125.4892 Z-1.5333 I-0.0125 J0.0
G2 Y125.5108 Z-1.5667 I0.0062 J0.0108
G2 X22.7525 Y125.5 Z-1.6 I0.0063 J-0.0108
G2 X22.7337 Y125.4892 Z-1.6333 I-0.0125 J0.0
G2 Y125.5108 Z-1.6667 I0.0062 J0.0108
G2 X22.7525 Y125.5 Z-1.7 I0.0063 J-0.0108
G2 X22.7337 Y125.4892 Z-1.7333 I-0.0125 J0.0
G2 Y125.5108 Z-1.7667 I0.0062 J0.0108
G2 X22.7525 Y125.5 Z-1.8 I0.0063 J-0.0108
G2 X22.7337 Y125.4892 Z-1.8333 I-0.0125 J0.0
G2 Y125.5108 Z-1.8667 I0.0062 J0.0108
G2 X22.7525 Y125.5 Z-1.9 I0.0063 J-0.0108
G2 X22.7337 Y125.4892 Z-1.9333 I-0.0125 J0.0
G2 Y125.5108 Z-1.9667 I0.0062 J0.0108
G2 X22.7525 Y125.5 Z-2.0 I0.0063 J-0.0108
G2 X22.7337 Y125.4892 Z-2.0333 I-0.0125 J0.0
G2 Y125.5108 Z-2.0667 I0.0062 J0.0108
G2 X22.7525 Y125.5 Z-2.1 I0.0063 J-0.0108
G2 X22.7337 Y125.4892 Z-2.1333 I-0.0125 J0.0
G2 Y125.5108 Z-2.1667 I0.0062 J0.0108
G2 X22.7525 Y125.5 Z-2.2 I0.0063 J-0.0108
G2 X22.7337 Y125.4892 Z-2.2333 I-0.0125 J0.0
G2 Y125.5108 Z-2.2667 I0.0062 J0.0108
G2 X22.7525 Y125.5 Z-2.3 I0.0063 J-0.0108
G2 X22.7337 Y125.4892 Z-2.3333 I-0.0125 J0.0
G2 Y125.5108 Z-2.3667 I0.0062 J0.0108
G2 X22.7525 Y125.5 Z-2.4 I0.0063 J-0.0108
G2 X22.7337 Y125.4892 Z-2.4333 I-0.0125 J0.0
G2 Y125.5108 Z-2.4667 I0.0062 J0.0108
G2 X22.7525 Y125.5 Z-2.5 I0.0063 J-0.0108
G2 X22.7337 Y125.4892 Z-2.5333 I-0.0125 J0.0
G2 Y125.5108 Z-2.5667 I0.0062 J0.0108
G2 X22.7525 Y125.5 Z-2.6 I0.0063 J-0.0108
G2 X22.7337 Y125.4892 Z-2.6333 I-0.0125 J0.0
G2 Y125.5108 Z-2.6667 I0.0062 J0.0108
G2 X22.7525 Y125.5 Z-2.7 I0.0063 J-0.0108
G2 X22.7337 Y125.4892 Z-2.7333 I-0.0125 J0.0
G2 Y125.5108 Z-2.7667 I0.0062 J0.0108
G2 X22.7525 Y125.5 Z-2.8 I0.0063 J-0.0108
G2 X22.7337 Y125.4892 Z-2.8333 I-0.0125 J0.0
G2 Y125.5108 Z-2.8667 I0.0062 J0.0108
G2 X22.7525 Y125.5 Z-2.9 I0.0063 J-0.0108
G2 X22.7337 Y125.4892 Z-2.9333 I-0.0125 J0.0
G2 Y125.5108 Z-2.9667 I0.0062 J0.0108
G2 X22.7525 Y125.5 Z-3.0 I0.0063 J-0.0108
G2 X22.7337 Y125.4892 Z-3.0333 I-0.0125 J0.0
G2 Y125.5108 Z-3.0667 I0.0062 J0.0108
G2 X22.7525 Y125.5 Z-3.1 I0.0063 J-0.0108
G2 X22.7337 Y125.4892 Z-3.1333 I-0.0125 J0.0
G2 Y125.5108 Z-3.1667 I0.0062 J0.0108
G2 X22.7525 Y125.5 Z-3.2 I0.0063 J-0.0108
G2 X22.7337 Y125.4892 I-0.0125 J0.0
G2 Y125.5108 I0.0063 J0.0108
G2 X22.7525 Y125.5 I0.0062 J-0.0108
G0 Z0.0
G2 X22.7337 Y125.4892 Z-0.0333 I-0.0125 J0.0
G2 Y125.5108 Z-0.0667 I0.0062 J0.0108
G2 X22.7525 Y125.5 Z-0.1 I0.0063 J-0.0108
G2 X22.7337 Y125.4892 Z-0.1333 I-0.0125 J0.0
G2 Y125.5108 Z-0.1667 I0.0062 J0.0108
G2 X22.7525 Y125.5 Z-0.2 I0.0063 J-0.0108
G2 X22.7337 Y125.4892 Z-0.2333 I-0.0125 J0.0
G2 Y125.5108 Z-0.2667 I0.0062 J0.0108
G2 X22.7525 Y125.5 Z-0.3 I0.0063 J-0.0108
G2 X22.7337 Y125.4892 Z-0.3333 I-0.0125 J0.0
G2 Y125.5108 Z-0.3667 I0.0062 J0.0108
G2 X22.7525 Y125.5 Z-0.4 I0.0063 J-0.0108
G2 X22.7337 Y125.4892 Z-0.4333 I-0.0125 J0.0
G2 Y125.5108 Z-0.4667 I0.0062 J0.0108
G2 X22.7525 Y125.5 Z-0.5 I0.0063 J-0.0108
G2 X22.7337 Y125.4892 Z-0.5333 I-0.0125 J0.0
G2 Y125.5108 Z-0.5667 I0.0062 J0.0108
G2 X22.7525 Y125.5 Z-0.6 I0.0063 J-0.0108
G2 X22.7337 Y125.4892 Z-0.6333 I-0.0125 J0.0
G2 Y125.5108 Z-0.6667 I0.0062 J0.0108
G2 X22.7525 Y125.5 Z-0.7 I0.0063 J-0.0108
G2 X22.7337 Y125.4892 Z-0.7333 I-0.0125 J0.0
G2 Y125.5108 Z-0.7667 I0.0062 J0.0108
G2 X22.7525 Y125.5 Z-0.8 I0.0063 J-0.0108
G2 X22.7337 Y125.4892 Z-0.8333 I-0.0125 J0.0
G2 Y125.5108 Z-0.8667 I0.0062 J0.0108
G2 X22.7525 Y125.5 Z-0.9 I0.0063 J-0.0108
G2 X22.7337 Y125.4892 Z-0.9333 I-0.0125 J0.0
G2 Y125.5108 Z-0.9667 I0.0062 J0.0108
G2 X22.7525 Y125.5 Z-1.0 I0.0063 J-0.0108
G2 X22.7337 Y125.4892 Z-1.0333 I-0.0125 J0.0
G2 Y125.5108 Z-1.0667 I0.0062 J0.0108
G2 X22.7525 Y125.5 Z-1.1 I0.0063 J-0.0108
G2 X22.7337 Y125.4892 Z-1.1333 I-0.0125 J0.0
G2 Y125.5108 Z-1.1667 I0.0062 J0.0108
G2 X22.7525 Y125.5 Z-1.2 I0.0063 J-0.0108
G2 X22.7337 Y125.4892 Z-1.2333 I-0.0125 J0.0
G2 Y125.5108 Z-1.2667 I0.0062 J0.0108
G2 X22.7525 Y125.5 Z-1.3 I0.0063 J-0.0108
G2 X22.7337 Y125.4892 Z-1.3333 I-0.0125 J0.0
G2 Y125.5108 Z-1.3667 I0.0062 J0.0108
G2 X22.7525 Y125.5 Z-1.4 I0.0063 J-0.0108
G2 X22.7337 Y125.4892 Z-1.4333 I-0.0125 J0.0
G2 Y125.5108 Z-1.4667 I0.0062 J0.0108
G2 X22.7525 Y125.5 Z-1.5 I0.0063 J-0.0108
G2 X22.7337 Y125.4892 Z-1.5333 I-0.0125 J0.0
G2 Y125.5108 Z-1.5667 I0.0062 J0.0108
G2 X22.7525 Y125.5 Z-1.6 I0.0063 J-0.0108
G2 X22.7337 Y125.4892 Z-1.6333 I-0.0125 J0.0
G2 Y125.5108 Z-1.6667 I0.0062 J0.0108
G2 X22.7525 Y125.5 Z-1.7 I0.0063 J-0.0108
G2 X22.7337 Y125.4892 Z-1.7333 I-0.0125 J0.0
G2 Y125.5108 Z-1.7667 I0.0062 J0.0108
G2 X22.7525 Y125.5 Z-1.8 I0.0063 J-0.0108
G2 X22.7337 Y125.4892 Z-1.8333 I-0.0125 J0.0
G2 Y125.5108 Z-1.8667 I0.0062 J0.0108
G2 X22.7525 Y125.5 Z-1.9 I0.0063 J-0.0108
G2 X22.7337 Y125.4892 Z-1.9333 I-0.0125 J0.0
G2 Y125.5108 Z-1.9667 I0.0062 J0.0108
G2 X22.7525 Y125.5 Z-2.0 I0.0063 J-0.0108
G2 X22.7337 Y125.4892 Z-2.0333 I-0.0125 J0.0
G2 Y125.5108 Z-2.0667 I0.0062 J0.0108
G2 X22.7525 Y125.5 Z-2.1 I0.0063 J-0.0108
G2 X22.7337 Y125.4892 Z-2.1333 I-0.0125 J0.0
G2 Y125.5108 Z-2.1667 I0.0062 J0.0108
G2 X22.7525 Y125.5 Z-2.2 I0.0063 J-0.0108
G2 X22.7337 Y125.4892 Z-2.2333 I-0.0125 J0.0
G2 Y125.5108 Z-2.2667 I0.0062 J0.0108
G2 X22.7525 Y125.5 Z-2.3 I0.0063 J-0.0108
G2 X22.7337 Y125.4892 Z-2.3333 I-0.0125 J0.0
G2 Y125.5108 Z-2.3667 I0.0062 J0.0108
G2 X22.7525 Y125.5 Z-2.4 I0.0063 J-0.0108
G2 X22.7337 Y125.4892 Z-2.4333 I-0.0125 J0.0
G2 Y125.5108 Z-2.4667 I0.0062 J0.0108
G2 X22.7525 Y125.5 Z-2.5 I0.0063 J-0.0108
G2 X22.7337 Y125.4892 Z-2.5333 I-0.0125 J0.0
G2 Y125.5108 Z-2.5667 I0.0062 J0.0108
G2 X22.7525 Y125.5 Z-2.6 I0.0063 J-0.0108
G2 X22.7337 Y125.4892 Z-2.6333 I-0.0125 J0.0
G2 Y125.5108 Z-2.6667 I0.0062 J0.0108
G2 X22.7525 Y125.5 Z-2.7 I0.0063 J-0.0108
G2 X22.7337 Y125.4892 Z-2.7333 I-0.0125 J0.0
G2 Y125.5108 Z-2.7667 I0.0062 J0.0108
G2 X22.7525 Y125.5 Z-2.8 I0.0063 J-0.0108
G2 X22.7337 Y125.4892 Z-2.8333 I-0.0125 J0.0
G2 Y125.5108 Z-2.8667 I0.0062 J0.0108
G2 X22.7525 Y125.5 Z-2.9 I0.0063 J-0.0108
G2 X22.7337 Y125.4892 Z-2.9333 I-0.0125 J0.0
G2 Y125.5108 Z-2.9667 I0.0062 J0.0108
G2 X22.7525 Y125.5 Z-3.0 I0.0063 J-0.0108
G2 X22.7337 Y125.4892 Z-3.0333 I-0.0125 J0.0
G2 Y125.5108 Z-3.0667 I0.0062 J0.0108
G2 X22.7525 Y125.5 Z-3.1 I0.0063 J-0.0108
G2 X22.7337 Y125.4892 Z-3.1333 I-0.0125 J0.0
G2 Y125.5108 Z-3.1667 I0.0062 J0.0108
G2 X22.7525 Y125.5 Z-3.2 I0.0063 J-0.0108
G2 X22.7337 Y125.4892 I-0.0125 J0.0
G2 Y125.5108 I0.0063 J0.0108
G2 X22.7525 Y125.5 I0.0062 J-0.0108
G0 Z3.0
G0 X15.0125 Y103.25
G0 Z0.25
G1 F1000.0 Z0.0
G2 F2000.0 X14.9938 Y103.2392 Z-0.0333 I-0.0125 J0.0
G2 Y103.2608 Z-0.0667 I0.0062 J0.0108
G2 X15.0125 Y103.25 Z-0.1 I0.0063 J-0.0108
G2 X14.9938 Y103.2392 Z-0.1333 I-0.0125 J0.0
G2 Y103.2608 Z-0.1667 I0.0062 J0.0108
G2 X15.0125 Y103.25 Z-0.2 I0.0063 J-0.0108
G2 X14.9938 Y103.2392 Z-0.2333 I-0.0125 J0.0
G2 Y103.2608 Z-0.2667 I0.0062 J0.0108
G2 X15.0125 Y103.25 Z-0.3 I0.0063 J-0.0108
G2 X14.9938 Y103.2392 Z-0.3333 I-0.0125 J0.0
G2 Y103.2608 Z-0.3667 I0.0062 J0.0108
G2 X15.0125 Y103.25 Z-0.4 I0.0063 J-0.0108
G2 X14.9938 Y103.2392 Z-0.4333 I-0.0125 J0.0
G2 Y103.2608 Z-0.4667 I0.0062 J0.0108
G2 X15.0125 Y103.25 Z-0.5 I0.0063 J-0.0108
G2 X14.9938 Y103.2392 Z-0.5333 I-0.0125 J0.0
G2 Y103.2608 Z-0.5667 I0.0062 J0.0108
G2 X15.0125 Y103.25 Z-0.6 I0.0063 J-0.0108
G2 X14.9938 Y103.2392 Z-0.6333 I-0.0125 J0.0
G2 Y103.2608 Z-0.6667 I0.0062 J0.0108
G2 X15.0125 Y103.25 Z-0.7 I0.0063 J-0.0108
G2 X14.9938 Y103.2392 Z-0.7333 I-0.0125 J0.0
G2 Y103.2608 Z-0.7667 I0.0062 J0.0108
G2 X15.0125 Y103.25 Z-0.8 I0.0063 J-0.0108
G2 X14.9938 Y103.2392 Z-0.8333 I-0.0125 J0.0
G2 Y103.2608 Z-0.8667 I0.0062 J0.0108
G2 X15.0125 Y103.25 Z-0.9 I0.0063 J-0.0108
G2 X14.9938 Y103.2392 Z-0.9333 I-0.0125 J0.0
G2 Y103.2608 Z-0.9667 I0.0062 J0.0108
G2 X15.0125 Y103.25 Z-1.0 I0.0063 J-0.0108
G2 X14.9938 Y103.2392 Z-1.0333 I-0.0125 J0.0
G2 Y103.2608 Z-1.0667 I0.0062 J0.0108
G2 X15.0125 Y103.25 Z-1.1 I0.0063 J-0.0108
G2 X14.9938 Y103.2392 Z-1.1333 I-0.0125 J0.0
G2 Y103.2608 Z-1.1667 I0.0062 J0.0108
G2 X15.0125 Y103.25 Z-1.2 I0.0063 J-0.0108
G2 X14.9938 Y103.2392 Z-1.2333 I-0.0125 J0.0
G2 Y103.2608 Z-1.2667 I0.0062 J0.0108
G2 X15.0125 Y103.25 Z-1.3 I0.0063 J-0.0108
G2 X14.9938 Y103.2392 Z-1.3333 I-0.0125 J0.0
G2 Y103.2608 Z-1.3667 I0.0062 J0.0108
G2 X15.0125 Y103.25 Z-1.4 I0.0063 J-0.0108
G2 X14.9938 Y103.2392 Z-1.4333 I-0.0125 J0.0
G2 Y103.2608 Z-1.4667 I0.0062 J0.0108
G2 X15.0125 Y103.25 Z-1.5 I0.0063 J-0.0108
G2 X14.9938 Y103.2392 Z-1.5333 I-0.0125 J0.0
G2 Y103.2608 Z-1.5667 I0.0062 J0.0108
G2 X15.0125 Y103.25 Z-1.6 I0.0063 J-0.0108
G2 X14.9938 Y103.2392 Z-1.6333 I-0.0125 J0.0
G2 Y103.2608 Z-1.6667 I0.0062 J0.0108
G2 X15.0125 Y103.25 Z-1.7 I0.0063 J-0.0108
G2 X14.9938 Y103.2392 Z-1.7333 I-0.0125 J0.0
G2 Y103.2608 Z-1.7667 I0.0062 J0.0108
G2 X15.0125 Y103.25 Z-1.8 I0.0063 J-0.0108
G2 X14.9938 Y103.2392 Z-1.8333 I-0.0125 J0.0
G2 Y103.2608 Z-1.8667 I0.0062 J0.0108
G2 X15.0125 Y103.25 Z-1.9 I0.0063 J-0.0108
G2 X14.9938 Y103.2392 Z-1.9333 I-0.0125 J0.0
G2 Y103.2608 Z-1.9667 I0.0062 J0.0108
G2 X15.0125 Y103.25 Z-2.0 I0.0063 J-0.0108
G2 X14.9938 Y103.2392 Z-2.0333 I-0.0125 J0.0
G2 Y103.2608 Z-2.0667 I0.0062 J0.0108
G2 X15.0125 Y103.25 Z-2.1 I0.0063 J-0.0108
G2 X14.9938 Y103.2392 Z-2.1333 I-0.0125 J0.0
G2 Y103.2608 Z-2.1667 I0.0062 J0.0108
G2 X15.0125 Y103.25 Z-2.2 I0.0063 J-0.0108
G2 X14.9938 Y103.2392 Z-2.2333 I-0.0125 J0.0
G2 Y103.2608 Z-2.2667 I0.0062 J0.0108
G2 X15.0125 Y103.25 Z-2.3 I0.0063 J-0.0108
G2 X14.9938 Y103.2392 Z-2.3333 I-0.0125 J0.0
G2 Y103.2608 Z-2.3667 I0.0062 J0.0108
G2 X15.0125 Y103.25 Z-2.4 I0.0063 J-0.0108
G2 X14.9938 Y103.2392 Z-2.4333 I-0.0125 J0.0
G2 Y103.2608 Z-2.4667 I0.0062 J0.0108
G2 X15.0125 Y103.25 Z-2.5 I0.0063 J-0.0108
G2 X14.9938 Y103.2392 Z-2.5333 I-0.0125 J0.0
G2 Y103.2608 Z-2.5667 I0.0062 J0.0108
G2 X15.0125 Y103.25 Z-2.6 I0.0063 J-0.0108
G2 X14.9938 Y103.2392 Z-2.6333 I-0.0125 J0.0
G2 Y103.2608 Z-2.6667 I0.0062 J0.0108
G2 X15.0125 Y103.25 Z-2.7 I0.0063 J-0.0108
G2 X14.9938 Y103.2392 Z-2.7333 I-0.0125 J0.0
G2 Y103.2608 Z-2.7667 I0.0062 J0.0108
G2 X15.0125 Y103.25 Z-2.8 I0.0062 J-0.0108
G2 X14.9938 Y103.2392 Z-2.8333 I-0.0125 J0.0
G2 Y103.2608 Z-2.8667 I0.0062 J0.0108
G2 X15.0125 Y103.25 Z-2.9 I0.0062 J-0.0108
G2 X14.9938 Y103.2392 Z-2.9333 I-0.0125 J0.0
G2 Y103.2608 Z-2.9667 I0.0062 J0.0108
G2 X15.0125 Y103.25 Z-3.0 I0.0062 J-0.0108
G2 X14.9938 Y103.2392 Z-3.0333 I-0.0125 J0.0
G2 Y103.2608 Z-3.0667 I0.0062 J0.0108
G2 X15.0125 Y103.25 Z-3.1 I0.0062 J-0.0108
G2 X14.9938 Y103.2392 Z-3.1333 I-0.0125 J0.0
G2 Y103.2608 Z-3.1667 I0.0063 J0.0108
G2 X15.0125 Y103.25 Z-3.2 I0.0062 J-0.0108
G2 X14.9938 Y103.2392 I-0.0125 J0.0
G2 Y103.2608 I0.0063 J0.0108
G2 X15.0125 Y103.25 I0.0062 J-0.0108
G0 Z0.0
G2 X14.9938 Y103.2392 Z-0.0333 I-0.0125 J0.0
G2 Y103.2608 Z-0.0667 I0.0062 J0.0108
G2 X15.0125 Y103.25 Z-0.1 I0.0063 J-0.0108
G2 X14.9938 Y103.2392 Z-0.1333 I-0.0125 J0.0
G2 Y103.2608 Z-0.1667 I0.0062 J0.0108
G2 X15.0125 Y103.25 Z-0.2 I0.0063 J-0.0108
G2 X14.9938 Y103.2392 Z-0.2333 I-0.0125 J0.0
G2 Y103.2608 Z-0.2667 I0.0062 J0.0108
G2 X15.0125 Y103.25 Z-0.3 I0.0063 J-0.0108
G2 X14.9938 Y103.2392 Z-0.3333 I-0.0125 J0.0
G2 Y103.2608 Z-0.3667 I0.0062 J0.0108
G2 X15.0125 Y103.25 Z-0.4 I0.0063 J-0.0108
G2 X14.9938 Y103.2392 Z-0.4333 I-0.0125 J0.0
G2 Y103.2608 Z-0.4667 I0.0062 J0.0108
G2 X15.0125 Y103.25 Z-0.5 I0.0063 J-0.0108
G2 X14.9938 Y103.2392 Z-0.5333 I-0.0125 J0.0
G2 Y103.2608 Z-0.5667 I0.0062 J0.0108
G2 X15.0125 Y103.25 Z-0.6 I0.0063 J-0.0108
G2 X14.9938 Y103.2392 Z-0.6333 I-0.0125 J0.0
G2 Y103.2608 Z-0.6667 I0.0062 J0.0108
G2 X15.0125 Y103.25 Z-0.7 I0.0063 J-0.0108
G2 X14.9938 Y103.2392 Z-0.7333 I-0.0125 J0.0
G2 Y103.2608 Z-0.7667 I0.0062 J0.0108
G2 X15.0125 Y103.25 Z-0.8 I0.0063 J-0.0108
G2 X14.9938 Y103.2392 Z-0.8333 I-0.0125 J0.0
G2 Y103.2608 Z-0.8667 I0.0062 J0.0108
G2 X15.0125 Y103.25 Z-0.9 I0.0063 J-0.0108
G2 X14.9938 Y103.2392 Z-0.9333 I-0.0125 J0.0
G2 Y103.2608 Z-0.9667 I0.0062 J0.0108
G2 X15.0125 Y103.25 Z-1.0 I0.0063 J-0.0108
G2 X14.9938 Y103.2392 Z-1.0333 I-0.0125 J0.0
G2 Y103.2608 Z-1.0667 I0.0062 J0.0108
G2 X15.0125 Y103.25 Z-1.1 I0.0063 J-0.0108
G2 X14.9938 Y103.2392 Z-1.1333 I-0.0125 J0.0
G2 Y103.2608 Z-1.1667 I0.0062 J0.0108
G2 X15.0125 Y103.25 Z-1.2 I0.0063 J-0.0108
G2 X14.9938 Y103.2392 Z-1.2333 I-0.0125 J0.0
G2 Y103.2608 Z-1.2667 I0.0062 J0.0108
G2 X15.0125 Y103.25 Z-1.3 I0.0063 J-0.0108
G2 X14.9938 Y103.2392 Z-1.3333 I-0.0125 J0.0
G2 Y103.2608 Z-1.3667 I0.0062 J0.0108
G2 X15.0125 Y103.25 Z-1.4 I0.0063 J-0.0108
G2 X14.9938 Y103.2392 Z-1.4333 I-0.0125 J0.0
G2 Y103.2608 Z-1.4667 I0.0062 J0.0108
G2 X15.0125 Y103.25 Z-1.5 I0.0063 J-0.0108
G2 X14.9938 Y103.2392 Z-1.5333 I-0.0125 J0.0
G2 Y103.2608 Z-1.5667 I0.0062 J0.0108
G2 X15.0125 Y103.25 Z-1.6 I0.0063 J-0.0108
G2 X14.9938 Y103.2392 Z-1.6333 I-0.0125 J0.0
G2 Y103.2608 Z-1.6667 I0.0062 J0.0108
G2 X15.0125 Y103.25 Z-1.7 I0.0063 J-0.0108
G2 X14.9938 Y103.2392 Z-1.7333 I-0.0125 J0.0
G2 Y103.2608 Z-1.7667 I0.0062 J0.0108
G2 X15.0125 Y103.25 Z-1.8 I0.0063 J-0.0108
G2 X14.9938 Y103.2392 Z-1.8333 I-0.0125 J0.0
G2 Y103.2608 Z-1.8667 I0.0062 J0.0108
G2 X15.0125 Y103.25 Z-1.9 I0.0063 J-0.0108
G2 X14.9938 Y103.2392 Z-1.9333 I-0.0125 J0.0
G2 Y103.2608 Z-1.9667 I0.0062 J0.0108
G2 X15.0125 Y103.25 Z-2.0 I0.0063 J-0.0108
G2 X14.9938 Y103.2392 Z-2.0333 I-0.0125 J0.0
G2 Y103.2608 Z-2.0667 I0.0062 J0.0108
G2 X15.0125 Y103.25 Z-2.1 I0.0063 J-0.0108
G2 X14.9938 Y103.2392 Z-2.1333 I-0.0125 J0.0
G2 Y103.2608 Z-2.1667 I0.0062 J0.0108
G2 X15.0125 Y103.25 Z-2.2 I0.0063 J-0.0108
G2 X14.9938 Y103.2392 Z-2.2333 I-0.0125 J0.0
G2 Y103.2608 Z-2.2667 I0.0062 J0.0108
G2 X15.0125 Y103.25 Z-2.3 I0.0063 J-0.0108
G2 X14.9938 Y103.2392 Z-2.3333 I-0.0125 J0.0
G2 Y103.2608 Z-2.3667 I0.0062 J0.0108
G2 X15.0125 Y103.25 Z-2.4 I0.0063 J-0.0108
G2 X14.9938 Y103.2392 Z-2.4333 I-0.0125 J0.0
G2 Y103.2608 Z-2.4667 I0.0062 J0.0108
G2 X15.0125 Y103.25 Z-2.5 I0.0063 J-0.0108
G2 X14.9938 Y103.2392 Z-2.5333 I-0.0125 J0.0
G2 Y103.2608 Z-2.5667 I0.0062 J0.0108
G2 X15.0125 Y103.25 Z-2.6 I0.0063 J-0.0108
G2 X14.9938 Y103.2392 Z-2.6333 I-0.0125 J0.0
G2 Y103.2608 Z-2.6667 I0.0062 J0.0108
G2 X15.0125 Y103.25 Z-2.7 I0.0063 J-0.0108
G2 X14.9938 Y103.2392 Z-2.7333 I-0.0125 J0.0
G2 Y103.2608 Z-2.7667 I0.0062 J0.0108
G2 X15.0125 Y103.25 Z-2.8 I0.0062 J-0.0108
G2 X14.9938 Y103.2392 Z-2.8333 I-0.0125 J0.0
G2 Y103.2608 Z-2.8667 I0.0062 J0.0108
G2 X15.0125 Y103.25 Z-2.9 I0.0062 J-0.0108
G2 X14.9938 Y103.2392 Z-2.9333 I-0.0125 J0.0
G2 Y103.2608 Z-2.9667 I0.0062 J0.0108
G2 X15.0125 Y103.25 Z-3.0 I0.0062 J-0.0108
G2 X14.9938 Y103.2392 Z-3.0333 I-0.0125 J0.0
G2 Y103.2608 Z-3.0667 I0.0062 J0.0108
G2 X15.0125 Y103.25 Z-3.1 I0.0062 J-0.0108
G2 X14.9938 Y103.2392 Z-3.1333 I-0.0125 J0.0
G2 Y103.2608 Z-3.1667 I0.0063 J0.0108
G2 X15.0125 Y103.25 Z-3.2 I0.0062 J-0.0108
G2 X14.9938 Y103.2392 I-0.0125 J0.0
G2 Y103.2608 I0.0063 J0.0108
G2 X15.0125 Y103.25 I0.0062 J-0.0108
G0 Z3.0
G0 X15.2625 Y87.75
G0 Z0.25
G1 F1000.0 Z0.0
G2 F2000.0 X15.2438 Y87.7392 Z-0.0333 I-0.0125 J0.0
G2 Y87.7608 Z-0.0667 I0.0062 J0.0108
G2 X15.2625 Y87.75 Z-0.1 I0.0063 J-0.0108
G2 X15.2438 Y87.7392 Z-0.1333 I-0.0125 J0.0
G2 Y87.7608 Z-0.1667 I0.0062 J0.0108
G2 X15.2625 Y87.75 Z-0.2 I0.0063 J-0.0108
G2 X15.2438 Y87.7392 Z-0.2333 I-0.0125 J0.0
G2 Y87.7608 Z-0.2667 I0.0062 J0.0108
G2 X15.2625 Y87.75 Z-0.3 I0.0063 J-0.0108
G2 X15.2438 Y87.7392 Z-0.3333 I-0.0125 J0.0
G2 Y87.7608 Z-0.3667 I0.0062 J0.0108
G2 X15.2625 Y87.75 Z-0.4 I0.0063 J-0.0108
G2 X15.2438 Y87.7392 Z-0.4333 I-0.0125 J0.0
G2 Y87.7608 Z-0.4667 I0.0062 J0.0108
G2 X15.2625 Y87.75 Z-0.5 I0.0063 J-0.0108
G2 X15.2438 Y87.7392 Z-0.5333 I-0.0125 J0.0
G2 Y87.7608 Z-0.5667 I0.0062 J0.0108
G2 X15.2625 Y87.75 Z-0.6 I0.0063 J-0.0108
G2 X15.2438 Y87.7392 Z-0.6333 I-0.0125 J0.0
G2 Y87.7608 Z-0.6667 I0.0062 J0.0108
G2 X15.2625 Y87.75 Z-0.7 I0.0063 J-0.0108
G2 X15.2438 Y87.7392 Z-0.7333 I-0.0125 J0.0
G2 Y87.7608 Z-0.7667 I0.0062 J0.0108
G2 X15.2625 Y87.75 Z-0.8 I0.0063 J-0.0108
G2 X15.2438 Y87.7392 Z-0.8333 I-0.0125 J0.0
G2 Y87.7608 Z-0.8667 I0.0062 J0.0108
G2 X15.2625 Y87.75 Z-0.9 I0.0063 J-0.0108
G2 X15.2438 Y87.7392 Z-0.9333 I-0.0125 J0.0
G2 Y87.7608 Z-0.9667 I0.0062 J0.0108
G2 X15.2625 Y87.75 Z-1.0 I0.0063 J-0.0108
G2 X15.2438 Y87.7392 Z-1.0333 I-0.0125 J0.0
G2 Y87.7608 Z-1.0667 I0.0062 J0.0108
G2 X15.2625 Y87.75 Z-1.1 I0.0063 J-0.0108
G2 X15.2438 Y87.7392 Z-1.1333 I-0.0125 J0.0
G2 Y87.7608 Z-1.1667 I0.0062 J0.0108
G2 X15.2625 Y87.75 Z-1.2 I0.0063 J-0.0108
G2 X15.2438 Y87.7392 Z-1.2333 I-0.0125 J0.0
G2 Y87.7608 Z-1.2667 I0.0062 J0.0108
G2 X15.2625 Y87.75 Z-1.3 I0.0063 J-0.0108
G2 X15.2438 Y87.7392 Z-1.3333 I-0.0125 J0.0
G2 Y87.7608 Z-1.3667 I0.0062 J0.0108
G2 X15.2625 Y87.75 Z-1.4 I0.0063 J-0.0108
G2 X15.2438 Y87.7392 Z-1.4333 I-0.0125 J0.0
G2 Y87.7608 Z-1.4667 I0.0062 J0.0108
G2 X15.2625 Y87.75 Z-1.5 I0.0063 J-0.0108
G2 X15.2438 Y87.7392 Z-1.5333 I-0.0125 J0.0
G2 Y87.7608 Z-1.5667 I0.0062 J0.0108
G2 X15.2625 Y87.75 Z-1.6 I0.0063 J-0.0108
G2 X15.2438 Y87.7392 Z-1.6333 I-0.0125 J0.0
G2 Y87.7608 Z-1.6667 I0.0062 J0.0108
G2 X15.2625 Y87.75 Z-1.7 I0.0063 J-0.0108
G2 X15.2438 Y87.7392 Z-1.7333 I-0.0125 J0.0
G2 Y87.7608 Z-1.7667 I0.0062 J0.0108
G2 X15.2625 Y87.75 Z-1.8 I0.0063 J-0.0108
G2 X15.2438 Y87.7392 Z-1.8333 I-0.0125 J0.0
G2 Y87.7608 Z-1.8667 I0.0062 J0.0108
G2 X15.2625 Y87.75 Z-1.9 I0.0063 J-0.0108
G2 X15.2438 Y87.7392 Z-1.9333 I-0.0125 J0.0
G2 Y87.7608 Z-1.9667 I0.0062 J0.0108
G2 X15.2625 Y87.75 Z-2.0 I0.0063 J-0.0108
G2 X15.2438 Y87.7392 Z-2.0333 I-0.0125 J0.0
G2 Y87.7608 Z-2.0667 I0.0062 J0.0108
G2 X15.2625 Y87.75 Z-2.1 I0.0063 J-0.0108
G2 X15.2438 Y87.7392 Z-2.1333 I-0.0125 J0.0
G2 Y87.7608 Z-2.1667 I0.0062 J0.0108
G2 X15.2625 Y87.75 Z-2.2 I0.0063 J-0.0108
G2 X15.2438 Y87.7392 Z-2.2333 I-0.0125 J0.0
G2 Y87.7608 Z-2.2667 I0.0062 J0.0108
G2 X15.2625 Y87.75 Z-2.3 I0.0063 J-0.0108
G2 X15.2438 Y87.7392 Z-2.3333 I-0.0125 J0.0
G2 Y87.7608 Z-2.3667 I0.0062 J0.0108
G2 X15.2625 Y87.75 Z-2.4 I0.0063 J-0.0108
G2 X15.2438 Y87.7392 Z-2.4333 I-0.0125 J0.0
G2 Y87.7608 Z-2.4667 I0.0062 J0.0108
G2 X15.2625 Y87.75 Z-2.5 I0.0063 J-0.0108
G2 X15.2438 Y87.7392 Z-2.5333 I-0.0125 J0.0
G2 Y87.7608 Z-2.5667 I0.0062 J0.0108
G2 X15.2625 Y87.75 Z-2.6 I0.0063 J-0.0108
G2 X15.2438 Y87.7392 Z-2.6333 I-0.0125 J0.0
G2 Y87.7608 Z-2.6667 I0.0062 J0.0108
G2 X15.2625 Y87.75 Z-2.7 I0.0063 J-0.0108
G2 X15.2438 Y87.7392 Z-2.7333 I-0.0125 J0.0
G2 Y87.7608 Z-2.7667 I0.0062 J0.0108
G2 X15.2625 Y87.75 Z-2.8 I0.0062 J-0.0108
G2 X15.2438 Y87.7392 Z-2.8333 I-0.0125 J0.0
G2 Y87.7608 Z-2.8667 I0.0062 J0.0108
G2 X15.2625 Y87.75 Z-2.9 I0.0062 J-0.0108
G2 X15.2438 Y87.7392 Z-2.9333 I-0.0125 J0.0
G2 Y87.7608 Z-2.9667 I0.0062 J0.0108
G2 X15.2625 Y87.75 Z-3.0 I0.0062 J-0.0108
G2 X15.2438 Y87.7392 Z-3.0333 I-0.0125 J0.0
G2 Y87.7608 Z-3.0667 I0.0062 J0.0108
G2 X15.2625 Y87.75 Z-3.1 I0.0062 J-0.0108
G2 X15.2438 Y87.7392 Z-3.1333 I-0.0125 J0.0
G2 Y87.7608 Z-3.1667 I0.0063 J0.0108
G2 X15.2625 Y87.75 Z-3.2 I0.0062 J-0.0108
G2 X15.2438 Y87.7392 I-0.0125 J0.0
G2 Y87.7608 I0.0063 J0.0108
G2 X15.2625 Y87.75 I0.0062 J-0.0108
G0 Z3.0
G0 X21.2625 Y68.5
G0 Z0.25
G1 F1000.0 Z0.0
G2 F2000.0 X21.2438 Y68.4892 Z-0.0333 I-0.0125 J0.0
G2 Y68.5108 Z-0.0667 I0.0062 J0.0108
G2 X21.2625 Y68.5 Z-0.1 I0.0063 J-0.0108
G2 X21.2438 Y68.4892 Z-0.1333 I-0.0125 J0.0
G2 Y68.5108 Z-0.1667 I0.0062 J0.0108
G2 X21.2625 Y68.5 Z-0.2 I0.0063 J-0.0108
G2 X21.2438 Y68.4892 Z-0.2333 I-0.0125 J0.0
G2 Y68.5108 Z-0.2667 I0.0062 J0.0108
G2 X21.2625 Y68.5 Z-0.3 I0.0063 J-0.0108
G2 X21.2438 Y68.4892 Z-0.3333 I-0.0125 J0.0
G2 Y68.5108 Z-0.3667 I0.0062 J0.0108
G2 X21.2625 Y68.5 Z-0.4 I0.0063 J-0.0108
G2 X21.2438 Y68.4892 Z-0.4333 I-0.0125 J0.0
G2 Y68.5108 Z-0.4667 I0.0062 J0.0108
G2 X21.2625 Y68.5 Z-0.5 I0.0063 J-0.0108
G2 X21.2438 Y68.4892 Z-0.5333 I-0.0125 J0.0
G2 Y68.5108 Z-0.5667 I0.0062 J0.0108
G2 X21.2625 Y68.5 Z-0.6 I0.0063 J-0.0108
G2 X21.2438 Y68.4892 Z-0.6333 I-0.0125 J0.0
G2 Y68.5108 Z-0.6667 I0.0062 J0.0108
G2 X21.2625 Y68.5 Z-0.7 I0.0063 J-0.0108
G2 X21.2438 Y68.4892 Z-0.7333 I-0.0125 J0.0
G2 Y68.5108 Z-0.7667 I0.0062 J0.0108
G2 X21.2625 Y68.5 Z-0.8 I0.0063 J-0.0108
G2 X21.2438 Y68.4892 Z-0.8333 I-0.0125 J0.0
G2 Y68.5108 Z-0.8667 I0.0062 J0.0108
G2 X21.2625 Y68.5 Z-0.9 I0.0063 J-0.0108
G2 X21.2438 Y68.4892 Z-0.9333 I-0.0125 J0.0
G2 Y68.5108 Z-0.9667 I0.0062 J0.0108
G2 X21.2625 Y68.5 Z-1.0 I0.0063 J-0.0108
G2 X21.2438 Y68.4892 Z-1.0333 I-0.0125 J0.0
G2 Y68.5108 Z-1.0667 I0.0062 J0.0108
G2 X21.2625 Y68.5 Z-1.1 I0.0063 J-0.0108
G2 X21.2438 Y68.4892 Z-1.1333 I-0.0125 J0.0
G2 Y68.5108 Z-1.1667 I0.0062 J0.0108
G2 X21.2625 Y68.5 Z-1.2 I0.0063 J-0.0108
G2 X21.2438 Y68.4892 Z-1.2333 I-0.0125 J0.0
G2 Y68.5108 Z-1.2667 I0.0062 J0.0108
G2 X21.2625 Y68.5 Z-1.3 I0.0063 J-0.0108
G2 X21.2438 Y68.4892 Z-1.3333 I-0.0125 J0.0
G2 Y68.5108 Z-1.3667 I0.0062 J0.0108
G2 X21.2625 Y68.5 Z-1.4 I0.0063 J-0.0108
G2 X21.2438 Y68.4892 Z-1.4333 I-0.0125 J0.0
G2 Y68.5108 Z-1.4667 I0.0062 J0.0108
G2 X21.2625 Y68.5 Z-1.5 I0.0063 J-0.0108
G2 X21.2438 Y68.4892 Z-1.5333 I-0.0125 J0.0
G2 Y68.5108 Z-1.5667 I0.0062 J0.0108
G2 X21.2625 Y68.5 Z-1.6 I0.0063 J-0.0108
G2 X21.2438 Y68.4892 Z-1.6333 I-0.0125 J0.0
G2 Y68.5108 Z-1.6667 I0.0062 J0.0108
G2 X21.2625 Y68.5 Z-1.7 I0.0063 J-0.0108
G2 X21.2438 Y68.4892 Z-1.7333 I-0.0125 J0.0
G2 Y68.5108 Z-1.7667 I0.0062 J0.0108
G2 X21.2625 Y68.5 Z-1.8 I0.0063 J-0.0108
G2 X21.2438 Y68.4892 Z-1.8333 I-0.0125 J0.0
G2 Y68.5108 Z-1.8667 I0.0062 J0.0108
G2 X21.2625 Y68.5 Z-1.9 I0.0063 J-0.0108
G2 X21.2438 Y68.4892 Z-1.9333 I-0.0125 J0.0
G2 Y68.5108 Z-1.9667 I0.0062 J0.0108
G2 X21.2625 Y68.5 Z-2.0 I0.0063 J-0.0108
G2 X21.2438 Y68.4892 Z-2.0333 I-0.0125 J0.0
G2 Y68.5108 Z-2.0667 I0.0062 J0.0108
G2 X21.2625 Y68.5 Z-2.1 I0.0063 J-0.0108
G2 X21.2438 Y68.4892 Z-2.1333 I-0.0125 J0.0
G2 Y68.5108 Z-2.1667 I0.0062 J0.0108
G2 X21.2625 Y68.5 Z-2.2 I0.0063 J-0.0108
G2 X21.2438 Y68.4892 Z-2.2333 I-0.0125 J0.0
G2 Y68.5108 Z-2.2667 I0.0062 J0.0108
G2 X21.2625 Y68.5 Z-2.3 I0.0063 J-0.0108
G2 X21.2438 Y68.4892 Z-2.3333 I-0.0125 J0.0
G2 Y68.5108 Z-2.3667 I0.0062 J0.0108
G2 X21.2625 Y68.5 Z-2.4 I0.0063 J-0.0108
G2 X21.2438 Y68.4892 Z-2.4333 I-0.0125 J0.0
G2 Y68.5108 Z-2.4667 I0.0062 J0.0108
G2 X21.2625 Y68.5 Z-2.5 I0.0063 J-0.0108
G2 X21.2438 Y68.4892 Z-2.5333 I-0.0125 J0.0
G2 Y68.5108 Z-2.5667 I0.0062 J0.0108
G2 X21.2625 Y68.5 Z-2.6 I0.0063 J-0.0108
G2 X21.2438 Y68.4892 Z-2.6333 I-0.0125 J0.0
G2 Y68.5108 Z-2.6667 I0.0062 J0.0108
G2 X21.2625 Y68.5 Z-2.7 I0.0063 J-0.0108
G2 X21.2438 Y68.4892 Z-2.7333 I-0.0125 J0.0
G2 Y68.5108 Z-2.7667 I0.0062 J0.0108
G2 X21.2625 Y68.5 Z-2.8 I0.0063 J-0.0108
G2 X21.2438 Y68.4892 Z-2.8333 I-0.0125 J0.0
G2 Y68.5108 Z-2.8667 I0.0062 J0.0108
G2 X21.2625 Y68.5 Z-2.9 I0.0063 J-0.0108
G2 X21.2438 Y68.4892 Z-2.9333 I-0.0125 J0.0
G2 Y68.5108 Z-2.9667 I0.0062 J0.0108
G2 X21.2625 Y68.5 Z-3.0 I0.0063 J-0.0108
G2 X21.2438 Y68.4892 Z-3.0333 I-0.0125 J0.0
G2 Y68.5108 Z-3.0667 I0.0062 J0.0108
G2 X21.2625 Y68.5 Z-3.1 I0.0063 J-0.0108
G2 X21.2438 Y68.4892 Z-3.1333 I-0.0125 J0.0
G2 Y68.5108 Z-3.1667 I0.0062 J0.0108
G2 X21.2625 Y68.5 Z-3.2 I0.0063 J-0.0108
G2 X21.2438 Y68.4892 I-0.0125 J0.0
G2 Y68.5108 I0.0063 J0.0108
G2 X21.2625 Y68.5 I0.0062 J-0.0108
G0 Z3.0
G0 Y54.75
G0 Z0.25
G1 F1000.0 Z0.0
G2 F2000.0 X21.2438 Y54.7392 Z-0.0333 I-0.0125 J0.0
G2 Y54.7608 Z-0.0667 I0.0063 J0.0108
G2 X21.2625 Y54.75 Z-0.1 I0.0062 J-0.0108
G2 X21.2438 Y54.7392 Z-0.1333 I-0.0125 J0.0
G2 Y54.7608 Z-0.1667 I0.0063 J0.0108
G2 X21.2625 Y54.75 Z-0.2 I0.0062 J-0.0108
G2 X21.2438 Y54.7392 Z-0.2333 I-0.0125 J0.0
G2 Y54.7608 Z-0.2667 I0.0063 J0.0108
G2 X21.2625 Y54.75 Z-0.3 I0.0062 J-0.0108
G2 X21.2438 Y54.7392 Z-0.3333 I-0.0125 J0.0
G2 Y54.7608 Z-0.3667 I0.0063 J0.0108
G2 X21.2625 Y54.75 Z-0.4 I0.0062 J-0.0108
G2 X21.2438 Y54.7392 Z-0.4333 I-0.0125 J0.0
G2 Y54.7608 Z-0.4667 I0.0063 J0.0108
G2 X21.2625 Y54.75 Z-0.5 I0.0062 J-0.0108
G2 X21.2438 Y54.7392 Z-0.5333 I-0.0125 J0.0
G2 Y54.7608 Z-0.5667 I0.0063 J0.0108
G2 X21.2625 Y54.75 Z-0.6 I0.0062 J-0.0108
G2 X21.2438 Y54.7392 Z-0.6333 I-0.0125 J0.0
G2 Y54.7608 Z-0.6667 I0.0063 J0.0108
G2 X21.2625 Y54.75 Z-0.7 I0.0062 J-0.0108
G2 X21.2438 Y54.7392 Z-0.7333 I-0.0125 J0.0
G2 Y54.7608 Z-0.7667 I0.0063 J0.0108
G2 X21.2625 Y54.75 Z-0.8 I0.0062 J-0.0108
G2 X21.2438 Y54.7392 Z-0.8333 I-0.0125 J0.0
G2 Y54.7608 Z-0.8667 I0.0063 J0.0108
G2 X21.2625 Y54.75 Z-0.9 I0.0062 J-0.0108
G2 X21.2438 Y54.7392 Z-0.9333 I-0.0125 J0.0
G2 Y54.7608 Z-0.9667 I0.0063 J0.0108
G2 X21.2625 Y54.75 Z-1.0 I0.0062 J-0.0108
G2 X21.2438 Y54.7392 Z-1.0333 I-0.0125 J0.0
G2 Y54.7608 Z-1.0667 I0.0063 J0.0108
G2 X21.2625 Y54.75 Z-1.1 I0.0062 J-0.0108
G2 X21.2438 Y54.7392 Z-1.1333 I-0.0125 J0.0
G2 Y54.7608 Z-1.1667 I0.0063 J0.0108
G2 X21.2625 Y54.75 Z-1.2 I0.0062 J-0.0108
G2 X21.2438 Y54.7392 Z-1.2333 I-0.0125 J0.0
G2 Y54.7608 Z-1.2667 I0.0063 J0.0108
G2 X21.2625 Y54.75 Z-1.3 I0.0062 J-0.0108
G2 X21.2438 Y54.7392 Z-1.3333 I-0.0125 J0.0
G2 Y54.7608 Z-1.3667 I0.0063 J0.0108
G2 X21.2625 Y54.75 Z-1.4 I0.0062 J-0.0108
G2 X21.2438 Y54.7392 Z-1.4333 I-0.0125 J0.0
G2 Y54.7608 Z-1.4667 I0.0063 J0.0108
G2 X21.2625 Y54.75 Z-1.5 I0.0062 J-0.0108
G2 X21.2438 Y54.7392 Z-1.5333 I-0.0125 J0.0
G2 Y54.7608 Z-1.5667 I0.0063 J0.0108
G2 X21.2625 Y54.75 Z-1.6 I0.0062 J-0.0108
G2 X21.2438 Y54.7392 Z-1.6333 I-0.0125 J0.0
G2 Y54.7608 Z-1.6667 I0.0063 J0.0108
G2 X21.2625 Y54.75 Z-1.7 I0.0062 J-0.0108
G2 X21.2438 Y54.7392 Z-1.7333 I-0.0125 J0.0
G2 Y54.7608 Z-1.7667 I0.0063 J0.0108
G2 X21.2625 Y54.75 Z-1.8 I0.0062 J-0.0108
G2 X21.2438 Y54.7392 Z-1.8333 I-0.0125 J0.0
G2 Y54.7608 Z-1.8667 I0.0063 J0.0108
G2 X21.2625 Y54.75 Z-1.9 I0.0062 J-0.0108
G2 X21.2438 Y54.7392 Z-1.9333 I-0.0125 J0.0
G2 Y54.7608 Z-1.9667 I0.0063 J0.0108
G2 X21.2625 Y54.75 Z-2.0 I0.0062 J-0.0108
G2 X21.2438 Y54.7392 Z-2.0333 I-0.0125 J0.0
G2 Y54.7608 Z-2.0667 I0.0063 J0.0108
G2 X21.2625 Y54.75 Z-2.1 I0.0062 J-0.0108
G2 X21.2438 Y54.7392 Z-2.1333 I-0.0125 J0.0
G2 Y54.7608 Z-2.1667 I0.0063 J0.0108
G2 X21.2625 Y54.75 Z-2.2 I0.0062 J-0.0108
G2 X21.2438 Y54.7392 Z-2.2333 I-0.0125 J0.0
G2 Y54.7608 Z-2.2667 I0.0063 J0.0108
G2 X21.2625 Y54.75 Z-2.3 I0.0062 J-0.0108
G2 X21.2438 Y54.7392 Z-2.3333 I-0.0125 J0.0
G2 Y54.7608 Z-2.3667 I0.0063 J0.0108
G2 X21.2625 Y54.75 Z-2.4 I0.0062 J-0.0108
G2 X21.2438 Y54.7392 Z-2.4333 I-0.0125 J0.0
G2 Y54.7608 Z-2.4667 I0.0063 J0.0108
G2 X21.2625 Y54.75 Z-2.5 I0.0062 J-0.0108
G2 X21.2438 Y54.7392 Z-2.5333 I-0.0125 J0.0
G2 Y54.7608 Z-2.5667 I0.0063 J0.0108
G2 X21.2625 Y54.75 Z-2.6 I0.0062 J-0.0108
G2 X21.2438 Y54.7392 Z-2.6333 I-0.0125 J0.0
G2 Y54.7608 Z-2.6667 I0.0063 J0.0108
G2 X21.2625 Y54.75 Z-2.7 I0.0062 J-0.0108
G2 X21.2438 Y54.7392 Z-2.7333 I-0.0125 J0.0
G2 Y54.7608 Z-2.7667 I0.0063 J0.0108
G2 X21.2625 Y54.75 Z-2.8 I0.0062 J-0.0108
G2 X21.2438 Y54.7392 Z-2.8333 I-0.0125 J0.0
G2 Y54.7608 Z-2.8667 I0.0063 J0.0108
G2 X21.2625 Y54.75 Z-2.9 I0.0062 J-0.0108
G2 X21.2438 Y54.7392 Z-2.9333 I-0.0125 J0.0
G2 Y54.7608 Z-2.9667 I0.0063 J0.0108
G2 X21.2625 Y54.75 Z-3.0 I0.0062 J-0.0108
G2 X21.2438 Y54.7392 Z-3.0333 I-0.0125 J0.0
G2 Y54.7608 Z-3.0667 I0.0063 J0.0108
G2 X21.2625 Y54.75 Z-3.1 I0.0062 J-0.0108
G2 X21.2438 Y54.7392 Z-3.1333 I-0.0125 J0.0
G2 Y54.7608 Z-3.1667 I0.0063 J0.0108
G2 X21.2625 Y54.75 Z-3.2 I0.0062 J-0.0108
G2 X21.2438 Y54.7392 I-0.0125 J0.0
G2 Y54.7608 I0.0063 J0.0108
G2 X21.2625 Y54.75 I0.0062 J-0.0108
G0 Z3.0
G0 X15.2625 Y34.75
G0 Z0.25
G1 F1000.0 Z0.0
G2 F2000.0 X15.2438 Y34.7392 Z-0.0333 I-0.0125 J0.0
G2 Y34.7608 Z-0.0667 I0.0063 J0.0108
G2 X15.2625 Y34.75 Z-0.1 I0.0062 J-0.0108
G2 X15.2438 Y34.7392 Z-0.1333 I-0.0125 J0.0
G2 Y34.7608 Z-0.1667 I0.0063 J0.0108
G2 X15.2625 Y34.75 Z-0.2 I0.0062 J-0.0108
G2 X15.2438 Y34.7392 Z-0.2333 I-0.0125 J0.0
G2 Y34.7608 Z-0.2667 I0.0063 J0.0108
G2 X15.2625 Y34.75 Z-0.3 I0.0062 J-0.0108
G2 X15.2438 Y34.7392 Z-0.3333 I-0.0125 J0.0
G2 Y34.7608 Z-0.3667 I0.0063 J0.0108
G2 X15.2625 Y34.75 Z-0.4 I0.0062 J-0.0108
G2 X15.2438 Y34.7392 Z-0.4333 I-0.0125 J0.0
G2 Y34.7608 Z-0.4667 I0.0063 J0.0108
G2 X15.2625 Y34.75 Z-0.5 I0.0062 J-0.0108
G2 X15.2438 Y34.7392 Z-0.5333 I-0.0125 J0.0
G2 Y34.7608 Z-0.5667 I0.0063 J0.0108
G2 X15.2625 Y34.75 Z-0.6 I0.0062 J-0.0108
G2 X15.2438 Y34.7392 Z-0.6333 I-0.0125 J0.0
G2 Y34.7608 Z-0.6667 I0.0063 J0.0108
G2 X15.2625 Y34.75 Z-0.7 I0.0062 J-0.0108
G2 X15.2438 Y34.7392 Z-0.7333 I-0.0125 J0.0
G2 Y34.7608 Z-0.7667 I0.0063 J0.0108
G2 X15.2625 Y34.75 Z-0.8 I0.0062 J-0.0108
G2 X15.2438 Y34.7392 Z-0.8333 I-0.0125 J0.0
G2 Y34.7608 Z-0.8667 I0.0063 J0.0108
G2 X15.2625 Y34.75 Z-0.9 I0.0062 J-0.0108
G2 X15.2438 Y34.7392 Z-0.9333 I-0.0125 J0.0
G2 Y34.7608 Z-0.9667 I0.0063 J0.0108
G2 X15.2625 Y34.75 Z-1.0 I0.0062 J-0.0108
G2 X15.2438 Y34.7392 Z-1.0333 I-0.0125 J0.0
G2 Y34.7608 Z-1.0667 I0.0063 J0.0108
G2 X15.2625 Y34.75 Z-1.1 I0.0062 J-0.0108
G2 X15.2438 Y34.7392 Z-1.1333 I-0.0125 J0.0
G2 Y34.7608 Z-1.1667 I0.0063 J0.0108
G2 X15.2625 Y34.75 Z-1.2 I0.0062 J-0.0108
G2 X15.2438 Y34.7392 Z-1.2333 I-0.0125 J0.0
G2 Y34.7608 Z-1.2667 I0.0063 J0.0108
G2 X15.2625 Y34.75 Z-1.3 I0.0062 J-0.0108
G2 X15.2438 Y34.7392 Z-1.3333 I-0.0125 J0.0
G2 Y34.7608 Z-1.3667 I0.0063 J0.0108
G2 X15.2625 Y34.75 Z-1.4 I0.0062 J-0.0108
G2 X15.2438 Y34.7392 Z-1.4333 I-0.0125 J0.0
G2 Y34.7608 Z-1.4667 I0.0063 J0.0108
G2 X15.2625 Y34.75 Z-1.5 I0.0062 J-0.0108
G2 X15.2438 Y34.7392 Z-1.5333 I-0.0125 J0.0
G2 Y34.7608 Z-1.5667 I0.0063 J0.0108
G2 X15.2625 Y34.75 Z-1.6 I0.0062 J-0.0108
G2 X15.2438 Y34.7392 Z-1.6333 I-0.0125 J0.0
G2 Y34.7608 Z-1.6667 I0.0063 J0.0108
G2 X15.2625 Y34.75 Z-1.7 I0.0062 J-0.0108
G2 X15.2438 Y34.7392 Z-1.7333 I-0.0125 J0.0
G2 Y34.7608 Z-1.7667 I0.0063 J0.0108
G2 X15.2625 Y34.75 Z-1.8 I0.0062 J-0.0108
G2 X15.2438 Y34.7392 Z-1.8333 I-0.0125 J0.0
G2 Y34.7608 Z-1.8667 I0.0063 J0.0108
G2 X15.2625 Y34.75 Z-1.9 I0.0062 J-0.0108
G2 X15.2438 Y34.7392 Z-1.9333 I-0.0125 J0.0
G2 Y34.7608 Z-1.9667 I0.0063 J0.0108
G2 X15.2625 Y34.75 Z-2.0 I0.0062 J-0.0108
G2 X15.2438 Y34.7392 Z-2.0333 I-0.0125 J0.0
G2 Y34.7608 Z-2.0667 I0.0063 J0.0108
G2 X15.2625 Y34.75 Z-2.1 I0.0062 J-0.0108
G2 X15.2438 Y34.7392 Z-2.1333 I-0.0125 J0.0
G2 Y34.7608 Z-2.1667 I0.0063 J0.0108
G2 X15.2625 Y34.75 Z-2.2 I0.0062 J-0.0108
G2 X15.2438 Y34.7392 Z-2.2333 I-0.0125 J0.0
G2 Y34.7608 Z-2.2667 I0.0063 J0.0108
G2 X15.2625 Y34.75 Z-2.3 I0.0062 J-0.0108
G2 X15.2438 Y34.7392 Z-2.3333 I-0.0125 J0.0
G2 Y34.7608 Z-2.3667 I0.0063 J0.0108
G2 X15.2625 Y34.75 Z-2.4 I0.0062 J-0.0108
G2 X15.2438 Y34.7392 Z-2.4333 I-0.0125 J0.0
G2 Y34.7608 Z-2.4667 I0.0063 J0.0108
G2 X15.2625 Y34.75 Z-2.5 I0.0062 J-0.0108
G2 X15.2438 Y34.7392 Z-2.5333 I-0.0125 J0.0
G2 Y34.7608 Z-2.5667 I0.0063 J0.0108
G2 X15.2625 Y34.75 Z-2.6 I0.0062 J-0.0108
G2 X15.2438 Y34.7392 Z-2.6333 I-0.0125 J0.0
G2 Y34.7608 Z-2.6667 I0.0063 J0.0108
G2 X15.2625 Y34.75 Z-2.7 I0.0062 J-0.0108
G2 X15.2438 Y34.7392 Z-2.7333 I-0.0125 J0.0
G2 Y34.7608 Z-2.7667 I0.0063 J0.0108
G2 X15.2625 Y34.75 Z-2.8 I0.0062 J-0.0108
G2 X15.2438 Y34.7392 Z-2.8333 I-0.0125 J0.0
G2 Y34.7608 Z-2.8667 I0.0063 J0.0108
G2 X15.2625 Y34.75 Z-2.9 I0.0062 J-0.0108
G2 X15.2438 Y34.7392 Z-2.9333 I-0.0125 J0.0
G2 Y34.7608 Z-2.9667 I0.0063 J0.0108
G2 X15.2625 Y34.75 Z-3.0 I0.0062 J-0.0108
G2 X15.2438 Y34.7392 Z-3.0333 I-0.0125 J0.0
G2 Y34.7608 Z-3.0667 I0.0063 J0.0108
G2 X15.2625 Y34.75 Z-3.1 I0.0062 J-0.0108
G2 X15.2438 Y34.7392 Z-3.1333 I-0.0125 J0.0
G2 Y34.7608 Z-3.1667 I0.0063 J0.0108
G2 X15.2625 Y34.75 Z-3.2 I0.0062 J-0.0108
G2 X15.2438 Y34.7392 I-0.0125 J0.0
G2 Y34.7608 I0.0063 J0.0108
G2 X15.2625 Y34.75 I0.0062 J-0.0108
G0 Z3.0
G0 X21.2625 Y22.25
G0 Z0.25
G1 F1000.0 Z0.0
G2 F2000.0 X21.2438 Y22.2392 Z-0.0333 I-0.0125 J0.0
G2 Y22.2608 Z-0.0667 I0.0062 J0.0108
G2 X21.2625 Y22.25 Z-0.1 I0.0063 J-0.0108
G2 X21.2438 Y22.2392 Z-0.1333 I-0.0125 J0.0
G2 Y22.2608 Z-0.1667 I0.0062 J0.0108
G2 X21.2625 Y22.25 Z-0.2 I0.0063 J-0.0108
G2 X21.2438 Y22.2392 Z-0.2333 I-0.0125 J0.0
G2 Y22.2608 Z-0.2667 I0.0062 J0.0108
G2 X21.2625 Y22.25 Z-0.3 I0.0063 J-0.0108
G2 X21.2438 Y22.2392 Z-0.3333 I-0.0125 J0.0
G2 Y22.2608 Z-0.3667 I0.0062 J0.0108
G2 X21.2625 Y22.25 Z-0.4 I0.0063 J-0.0108
G2 X21.2438 Y22.2392 Z-0.4333 I-0.0125 J0.0
G2 Y22.2608 Z-0.4667 I0.0062 J0.0108
G2 X21.2625 Y22.25 Z-0.5 I0.0063 J-0.0108
G2 X21.2438 Y22.2392 Z-0.5333 I-0.0125 J0.0
G2 Y22.2608 Z-0.5667 I0.0062 J0.0108
G2 X21.2625 Y22.25 Z-0.6 I0.0063 J-0.0108
G2 X21.2438 Y22.2392 Z-0.6333 I-0.0125 J0.0
G2 Y22.2608 Z-0.6667 I0.0062 J0.0108
G2 X21.2625 Y22.25 Z-0.7 I0.0063 J-0.0108
G2 X21.2438 Y22.2392 Z-0.7333 I-0.0125 J0.0
G2 Y22.2608 Z-0.7667 I0.0062 J0.0108
G2 X21.2625 Y22.25 Z-0.8 I0.0063 J-0.0108
G2 X21.2438 Y22.2392 Z-0.8333 I-0.0125 J0.0
G2 Y22.2608 Z-0.8667 I0.0062 J0.0108
G2 X21.2625 Y22.25 Z-0.9 I0.0063 J-0.0108
G2 X21.2438 Y22.2392 Z-0.9333 I-0.0125 J0.0
G2 Y22.2608 Z-0.9667 I0.0062 J0.0108
G2 X21.2625 Y22.25 Z-1.0 I0.0063 J-0.0108
G2 X21.2438 Y22.2392 Z-1.0333 I-0.0125 J0.0
G2 Y22.2608 Z-1.0667 I0.0062 J0.0108
G2 X21.2625 Y22.25 Z-1.1 I0.0063 J-0.0108
G2 X21.2438 Y22.2392 Z-1.1333 I-0.0125 J0.0
G2 Y22.2608 Z-1.1667 I0.0062 J0.0108
G2 X21.2625 Y22.25 Z-1.2 I0.0063 J-0.0108
G2 X21.2438 Y22.2392 Z-1.2333 I-0.0125 J0.0
G2 Y22.2608 Z-1.2667 I0.0062 J0.0108
G2 X21.2625 Y22.25 Z-1.3 I0.0063 J-0.0108
G2 X21.2438 Y22.2392 Z-1.3333 I-0.0125 J0.0
G2 Y22.2608 Z-1.3667 I0.0062 J0.0108
G2 X21.2625 Y22.25 Z-1.4 I0.0063 J-0.0108
G2 X21.2438 Y22.2392 Z-1.4333 I-0.0125 J0.0
G2 Y22.2608 Z-1.4667 I0.0062 J0.0108
G2 X21.2625 Y22.25 Z-1.5 I0.0063 J-0.0108
G2 X21.2438 Y22.2392 Z-1.5333 I-0.0125 J0.0
G2 Y22.2608 Z-1.5667 I0.0062 J0.0108
G2 X21.2625 Y22.25 Z-1.6 I0.0063 J-0.0108
G2 X21.2438 Y22.2392 Z-1.6333 I-0.0125 J0.0
G2 Y22.2608 Z-1.6667 I0.0062 J0.0108
G2 X21.2625 Y22.25 Z-1.7 I0.0063 J-0.0108
G2 X21.2438 Y22.2392 Z-1.7333 I-0.0125 J0.0
G2 Y22.2608 Z-1.7667 I0.0062 J0.0108
G2 X21.2625 Y22.25 Z-1.8 I0.0063 J-0.0108
G2 X21.2438 Y22.2392 Z-1.8333 I-0.0125 J0.0
G2 Y22.2608 Z-1.8667 I0.0062 J0.0108
G2 X21.2625 Y22.25 Z-1.9 I0.0063 J-0.0108
G2 X21.2438 Y22.2392 Z-1.9333 I-0.0125 J0.0
G2 Y22.2608 Z-1.9667 I0.0062 J0.0108
G2 X21.2625 Y22.25 Z-2.0 I0.0063 J-0.0108
G2 X21.2438 Y22.2392 Z-2.0333 I-0.0125 J0.0
G2 Y22.2608 Z-2.0667 I0.0062 J0.0108
G2 X21.2625 Y22.25 Z-2.1 I0.0063 J-0.0108
G2 X21.2438 Y22.2392 Z-2.1333 I-0.0125 J0.0
G2 Y22.2608 Z-2.1667 I0.0062 J0.0108
G2 X21.2625 Y22.25 Z-2.2 I0.0063 J-0.0108
G2 X21.2438 Y22.2392 Z-2.2333 I-0.0125 J0.0
G2 Y22.2608 Z-2.2667 I0.0062 J0.0108
G2 X21.2625 Y22.25 Z-2.3 I0.0063 J-0.0108
G2 X21.2438 Y22.2392 Z-2.3333 I-0.0125 J0.0
G2 Y22.2608 Z-2.3667 I0.0062 J0.0108
G2 X21.2625 Y22.25 Z-2.4 I0.0063 J-0.0108
G2 X21.2438 Y22.2392 Z-2.4333 I-0.0125 J0.0
G2 Y22.2608 Z-2.4667 I0.0063 J0.0108
G2 X21.2625 Y22.25 Z-2.5 I0.0062 J-0.0108
G2 X21.2438 Y22.2392 Z-2.5333 I-0.0125 J0.0
G2 Y22.2608 Z-2.5667 I0.0063 J0.0108
G2 X21.2625 Y22.25 Z-2.6 I0.0062 J-0.0108
G2 X21.2438 Y22.2392 Z-2.6333 I-0.0125 J0.0
G2 Y22.2608 Z-2.6667 I0.0063 J0.0108
G2 X21.2625 Y22.25 Z-2.7 I0.0062 J-0.0108
G2 X21.2438 Y22.2392 Z-2.7333 I-0.0125 J0.0
G2 Y22.2608 Z-2.7667 I0.0063 J0.0108
G2 X21.2625 Y22.25 Z-2.8 I0.0062 J-0.0108
G2 X21.2438 Y22.2392 Z-2.8333 I-0.0125 J0.0
G2 Y22.2608 Z-2.8667 I0.0063 J0.0108
G2 X21.2625 Y22.25 Z-2.9 I0.0062 J-0.0108
G2 X21.2438 Y22.2392 Z-2.9333 I-0.0125 J0.0
G2 Y22.2608 Z-2.9667 I0.0063 J0.0108
G2 X21.2625 Y22.25 Z-3.0 I0.0062 J-0.0108
G2 X21.2438 Y22.2392 Z-3.0333 I-0.0125 J0.0
G2 Y22.2608 Z-3.0667 I0.0063 J0.0108
G2 X21.2625 Y22.25 Z-3.1 I0.0062 J-0.0108
G2 X21.2438 Y22.2392 Z-3.1333 I-0.0125 J0.0
G2 Y22.2608 Z-3.1667 I0.0063 J0.0108
G2 X21.2625 Y22.25 Z-3.2 I0.0062 J-0.0108
G2 X21.2438 Y22.2392 I-0.0125 J0.0
G2 Y22.2608 I0.0063 J0.0108
G2 X21.2625 Y22.25 I0.0062 J-0.0108
G0 Z3.0
G0 X9.0125
G0 Z0.25
G1 F1000.0 Z0.0
G2 F2000.0 X8.9938 Y22.2392 Z-0.0333 I-0.0125 J0.0
G2 Y22.2608 Z-0.0667 I0.0062 J0.0108
G2 X9.0125 Y22.25 Z-0.1 I0.0062 J-0.0108
G2 X8.9938 Y22.2392 Z-0.1333 I-0.0125 J0.0
G2 Y22.2608 Z-0.1667 I0.0062 J0.0108
G2 X9.0125 Y22.25 Z-0.2 I0.0062 J-0.0108
G2 X8.9938 Y22.2392 Z-0.2333 I-0.0125 J0.0
G2 Y22.2608 Z-0.2667 I0.0062 J0.0108
G2 X9.0125 Y22.25 Z-0.3 I0.0062 J-0.0108
G2 X8.9938 Y22.2392 Z-0.3333 I-0.0125 J0.0
G2 Y22.2608 Z-0.3667 I0.0062 J0.0108
G2 X9.0125 Y22.25 Z-0.4 I0.0062 J-0.0108
G2 X8.9938 Y22.2392 Z-0.4333 I-0.0125 J0.0
G2 Y22.2608 Z-0.4667 I0.0062 J0.0108
G2 X9.0125 Y22.25 Z-0.5 I0.0062 J-0.0108
G2 X8.9938 Y22.2392 Z-0.5333 I-0.0125 J0.0
G2 Y22.2608 Z-0.5667 I0.0062 J0.0108
G2 X9.0125 Y22.25 Z-0.6 I0.0062 J-0.0108
G2 X8.9938 Y22.2392 Z-0.6333 I-0.0125 J0.0
G2 Y22.2608 Z-0.6667 I0.0062 J0.0108
G2 X9.0125 Y22.25 Z-0.7 I0.0062 J-0.0108
G2 X8.9938 Y22.2392 Z-0.7333 I-0.0125 J0.0
G2 Y22.2608 Z-0.7667 I0.0062 J0.0108
G2 X9.0125 Y22.25 Z-0.8 I0.0062 J-0.0108
G2 X8.9938 Y22.2392 Z-0.8333 I-0.0125 J0.0
G2 Y22.2608 Z-0.8667 I0.0062 J0.0108
G2 X9.0125 Y22.25 Z-0.9 I0.0062 J-0.0108
G2 X8.9938 Y22.2392 Z-0.9333 I-0.0125 J0.0
G2 Y22.2608 Z-0.9667 I0.0062 J0.0108
G2 X9.0125 Y22.25 Z-1.0 I0.0062 J-0.0108
G2 X8.9938 Y22.2392 Z-1.0333 I-0.0125 J0.0
G2 Y22.2608 Z-1.0667 I0.0062 J0.0108
G2 X9.0125 Y22.25 Z-1.1 I0.0062 J-0.0108
G2 X8.9938 Y22.2392 Z-1.1333 I-0.0125 J0.0
G2 Y22.2608 Z-1.1667 I0.0062 J0.0108
G2 X9.0125 Y22.25 Z-1.2 I0.0063 J-0.0108
G2 X8.9938 Y22.2392 Z-1.2333 I-0.0125 J0.0
G2 Y22.2608 Z-1.2667 I0.0062 J0.0108
G2 X9.0125 Y22.25 Z-1.3 I0.0063 J-0.0108
G2 X8.9938 Y22.2392 Z-1.3333 I-0.0125 J0.0
G2 Y22.2608 Z-1.3667 I0.0062 J0.0108
G2 X9.0125 Y22.25 Z-1.4 I0.0063 J-0.0108
G2 X8.9938 Y22.2392 Z-1.4333 I-0.0125 J0.0
G2 Y22.2608 Z-1.4667 I0.0062 J0.0108
G2 X9.0125 Y22.25 Z-1.5 I0.0063 J-0.0108
G2 X8.9938 Y22.2392 Z-1.5333 I-0.0125 J0.0
G2 Y22.2608 Z-1.5667 I0.0062 J0.0108
G2 X9.0125 Y22.25 Z-1.6 I0.0063 J-0.0108
G2 X8.9938 Y22.2392 Z-1.6333 I-0.0125 J0.0
G2 Y22.2608 Z-1.6667 I0.0062 J0.0108
G2 X9.0125 Y22.25 Z-1.7 I0.0063 J-0.0108
G2 X8.9938 Y22.2392 Z-1.7333 I-0.0125 J0.0
G2 Y22.2608 Z-1.7667 I0.0062 J0.0108
G2 X9.0125 Y22.25 Z-1.8 I0.0063 J-0.0108
G2 X8.9938 Y22.2392 Z-1.8333 I-0.0125 J0.0
G2 Y22.2608 Z-1.8667 I0.0062 J0.0108
G2 X9.0125 Y22.25 Z-1.9 I0.0063 J-0.0108
G2 X8.9938 Y22.2392 Z-1.9333 I-0.0125 J0.0
G2 Y22.2608 Z-1.9667 I0.0062 J0.0108
G2 X9.0125 Y22.25 Z-2.0 I0.0063 J-0.0108
G2 X8.9938 Y22.2392 Z-2.0333 I-0.0125 J0.0
G2 Y22.2608 Z-2.0667 I0.0062 J0.0108
G2 X9.0125 Y22.25 Z-2.1 I0.0063 J-0.0108
G2 X8.9938 Y22.2392 Z-2.1333 I-0.0125 J0.0
G2 Y22.2608 Z-2.1667 I0.0062 J0.0108
G2 X9.0125 Y22.25 Z-2.2 I0.0063 J-0.0108
G2 X8.9938 Y22.2392 Z-2.2333 I-0.0125 J0.0
G2 Y22.2608 Z-2.2667 I0.0062 J0.0108
G2 X9.0125 Y22.25 Z-2.3 I0.0062 J-0.0108
G2 X8.9938 Y22.2392 Z-2.3333 I-0.0125 J0.0
G2 Y22.2608 Z-2.3667 I0.0062 J0.0108
G2 X9.0125 Y22.25 Z-2.4 I0.0062 J-0.0108
G2 X8.9938 Y22.2392 Z-2.4333 I-0.0125 J0.0
G2 Y22.2608 Z-2.4667 I0.0062 J0.0108
G2 X9.0125 Y22.25 Z-2.5 I0.0062 J-0.0108
G2 X8.9938 Y22.2392 Z-2.5333 I-0.0125 J0.0
G2 Y22.2608 Z-2.5667 I0.0062 J0.0108
G2 X9.0125 Y22.25 Z-2.6 I0.0062 J-0.0108
G2 X8.9938 Y22.2392 Z-2.6333 I-0.0125 J0.0
G2 Y22.2608 Z-2.6667 I0.0063 J0.0108
G2 X9.0125 Y22.25 Z-2.7 I0.0062 J-0.0108
G2 X8.9938 Y22.2392 Z-2.7333 I-0.0125 J0.0
G2 Y22.2608 Z-2.7667 I0.0063 J0.0108
G2 X9.0125 Y22.25 Z-2.8 I0.0062 J-0.0108
G2 X8.9938 Y22.2392 Z-2.8333 I-0.0125 J0.0
G2 Y22.2608 Z-2.8667 I0.0063 J0.0108
G2 X9.0125 Y22.25 Z-2.9 I0.0062 J-0.0108
G2 X8.9938 Y22.2392 Z-2.9333 I-0.0125 J0.0
G2 Y22.2608 Z-2.9667 I0.0063 J0.0108
G2 X9.0125 Y22.25 Z-3.0 I0.0062 J-0.0108
G2 X8.9938 Y22.2392 Z-3.0333 I-0.0125 J0.0
G2 Y22.2608 Z-3.0667 I0.0063 J0.0108
G2 X9.0125 Y22.25 Z-3.1 I0.0062 J-0.0108
G2 X8.9938 Y22.2392 Z-3.1333 I-0.0125 J0.0
G2 Y22.2608 Z-3.1667 I0.0063 J0.0108
G2 X9.0125 Y22.25 Z-3.2 I0.0062 J-0.0108
G2 X8.9938 Y22.2392 I-0.0125 J0.0
G2 Y22.2608 I0.0063 J0.0108
G2 X9.0125 Y22.25 I0.0062 J-0.0108
G0 Z3.0
G0 X7.5125 Y3.0
G0 Z0.25
G1 F1000.0 Z0.0
G2 F2000.0 X7.4938 Y2.9892 Z-0.0333 I-0.0125 J0.0
G2 Y3.0108 Z-0.0667 I0.0062 J0.0108
G2 X7.5125 Y3.0 Z-0.1 I0.0063 J-0.0108
G2 X7.4938 Y2.9892 Z-0.1333 I-0.0125 J0.0
G2 Y3.0108 Z-0.1667 I0.0062 J0.0108
G2 X7.5125 Y3.0 Z-0.2 I0.0063 J-0.0108
G2 X7.4938 Y2.9892 Z-0.2333 I-0.0125 J0.0
G2 Y3.0108 Z-0.2667 I0.0062 J0.0108
G2 X7.5125 Y3.0 Z-0.3 I0.0063 J-0.0108
G2 X7.4938 Y2.9892 Z-0.3333 I-0.0125 J0.0
G2 Y3.0108 Z-0.3667 I0.0063 J0.0108
G2 X7.5125 Y3.0 Z-0.4 I0.0062 J-0.0108
G2 X7.4938 Y2.9892 Z-0.4333 I-0.0125 J0.0
G2 Y3.0108 Z-0.4667 I0.0063 J0.0108
G2 X7.5125 Y3.0 Z-0.5 I0.0062 J-0.0108
G2 X7.4938 Y2.9892 Z-0.5333 I-0.0125 J0.0
G2 Y3.0108 Z-0.5667 I0.0063 J0.0108
G2 X7.5125 Y3.0 Z-0.6 I0.0062 J-0.0108
G2 X7.4938 Y2.9892 Z-0.6333 I-0.0125 J0.0
G2 Y3.0108 Z-0.6667 I0.0062 J0.0108
G2 X7.5125 Y3.0 Z-0.7 I0.0063 J-0.0108
G2 X7.4938 Y2.9892 Z-0.7333 I-0.0125 J0.0
G2 Y3.0108 Z-0.7667 I0.0062 J0.0108
G2 X7.5125 Y3.0 Z-0.8 I0.0063 J-0.0108
G2 X7.4938 Y2.9892 Z-0.8333 I-0.0125 J0.0
G2 Y3.0108 Z-0.8667 I0.0062 J0.0108
G2 X7.5125 Y3.0 Z-0.9 I0.0063 J-0.0108
G2 X7.4938 Y2.9892 Z-0.9333 I-0.0125 J0.0
G2 Y3.0108 Z-0.9667 I0.0062 J0.0108
G2 X7.5125 Y3.0 Z-1.0 I0.0063 J-0.0108
G2 X7.4938 Y2.9892 Z-1.0333 I-0.0125 J0.0
G2 Y3.0108 Z-1.0667 I0.0062 J0.0108
G2 X7.5125 Y3.0 Z-1.1 I0.0063 J-0.0108
G2 X7.4938 Y2.9892 Z-1.1333 I-0.0125 J0.0
G2 Y3.0108 Z-1.1667 I0.0062 J0.0108
G2 X7.5125 Y3.0 Z-1.2 I0.0063 J-0.0108
G2 X7.4938 Y2.9892 Z-1.2333 I-0.0125 J0.0
G2 Y3.0108 Z-1.2667 I0.0062 J0.0108
G2 X7.5125 Y3.0 Z-1.3 I0.0063 J-0.0108
G2 X7.4938 Y2.9892 Z-1.3333 I-0.0125 J0.0
G2 Y3.0108 Z-1.3667 I0.0062 J0.0108
G2 X7.5125 Y3.0 Z-1.4 I0.0063 J-0.0108
G2 X7.4938 Y2.9892 Z-1.4333 I-0.0125 J0.0
G2 Y3.0108 Z-1.4667 I0.0062 J0.0108
G2 X7.5125 Y3.0 Z-1.5 I0.0063 J-0.0108
G2 X7.4938 Y2.9892 Z-1.5333 I-0.0125 J0.0
G2 Y3.0108 Z-1.5667 I0.0062 J0.0108
G2 X7.5125 Y3.0 Z-1.6 I0.0063 J-0.0108
G2 X7.4938 Y2.9892 Z-1.6333 I-0.0125 J0.0
G2 Y3.0108 Z-1.6667 I0.0062 J0.0108
G2 X7.5125 Y3.0 Z-1.7 I0.0063 J-0.0108
G2 X7.4938 Y2.9892 Z-1.7333 I-0.0125 J0.0
G2 Y3.0108 Z-1.7667 I0.0062 J0.0108
G2 X7.5125 Y3.0 Z-1.8 I0.0063 J-0.0108
G2 X7.4938 Y2.9892 Z-1.8333 I-0.0125 J0.0
G2 Y3.0108 Z-1.8667 I0.0062 J0.0108
G2 X7.5125 Y3.0 Z-1.9 I0.0063 J-0.0108
G2 X7.4938 Y2.9892 Z-1.9333 I-0.0125 J0.0
G2 Y3.0108 Z-1.9667 I0.0062 J0.0108
G2 X7.5125 Y3.0 Z-2.0 I0.0063 J-0.0108
G2 X7.4938 Y2.9892 Z-2.0333 I-0.0125 J0.0
G2 Y3.0108 Z-2.0667 I0.0062 J0.0108
G2 X7.5125 Y3.0 Z-2.1 I0.0063 J-0.0108
G2 X7.4938 Y2.9892 Z-2.1333 I-0.0125 J0.0
G2 Y3.0108 Z-2.1667 I0.0062 J0.0108
G2 X7.5125 Y3.0 Z-2.2 I0.0063 J-0.0108
G2 X7.4938 Y2.9892 Z-2.2333 I-0.0125 J0.0
G2 Y3.0108 Z-2.2667 I0.0062 J0.0108
G2 X7.5125 Y3.0 Z-2.3 I0.0063 J-0.0108
G2 X7.4938 Y2.9892 Z-2.3333 I-0.0125 J0.0
G2 Y3.0108 Z-2.3667 I0.0063 J0.0108
G2 X7.5125 Y3.0 Z-2.4 I0.0062 J-0.0108
G2 X7.4938 Y2.9892 Z-2.4333 I-0.0125 J0.0
G2 Y3.0108 Z-2.4667 I0.0063 J0.0108
G2 X7.5125 Y3.0 Z-2.5 I0.0062 J-0.0108
G2 X7.4938 Y2.9892 Z-2.5333 I-0.0125 J0.0
G2 Y3.0108 Z-2.5667 I0.0063 J0.0108
G2 X7.5125 Y3.0 Z-2.6 I0.0062 J-0.0108
G2 X7.4938 Y2.9892 Z-2.6333 I-0.0125 J0.0
G2 Y3.0108 Z-2.6667 I0.0063 J0.0108
G2 X7.5125 Y3.0 Z-2.7 I0.0062 J-0.0108
G2 X7.4938 Y2.9892 Z-2.7333 I-0.0125 J0.0
G2 Y3.0108 Z-2.7667 I0.0063 J0.0108
G2 X7.5125 Y3.0 Z-2.8 I0.0062 J-0.0108
G2 X7.4938 Y2.9892 Z-2.8333 I-0.0125 J0.0
G2 Y3.0108 Z-2.8667 I0.0063 J0.0108
G2 X7.5125 Y3.0 Z-2.9 I0.0062 J-0.0108
G2 X7.4938 Y2.9892 Z-2.9333 I-0.0125 J0.0
G2 Y3.0108 Z-2.9667 I0.0063 J0.0108
G2 X7.5125 Y3.0 Z-3.0 I0.0062 J-0.0108
G2 X7.4938 Y2.9892 Z-3.0333 I-0.0125 J0.0
G2 Y3.0108 Z-3.0667 I0.0063 J0.0108
G2 X7.5125 Y3.0 Z-3.1 I0.0062 J-0.0108
G2 X7.4938 Y2.9892 Z-3.1333 I-0.0125 J0.0
G2 Y3.0108 Z-3.1667 I0.0063 J0.0108
G2 X7.5125 Y3.0 Z-3.2 I0.0062 J-0.0108
G2 X7.4938 Y2.9892 I-0.0125 J0.0
G2 Y3.0108 I0.0063 J0.0108
G2 X7.5125 Y3.0 I0.0062 J-0.0108
G0 Z3.0
G0 X22.7525
G0 Z0.25
G1 F1000.0 Z0.0
G2 F2000.0 X22.7337 Y2.9892 Z-0.0333 I-0.0125 J0.0
G2 Y3.0108 Z-0.0667 I0.0063 J0.0108
G2 X22.7525 Y3.0 Z-0.1 I0.0063 J-0.0108
G2 X22.7337 Y2.9892 Z-0.1333 I-0.0125 J0.0
G2 Y3.0108 Z-0.1667 I0.0063 J0.0108
G2 X22.7525 Y3.0 Z-0.2 I0.0063 J-0.0108
G2 X22.7337 Y2.9892 Z-0.2333 I-0.0125 J0.0
G2 Y3.0108 Z-0.2667 I0.0063 J0.0108
G2 X22.7525 Y3.0 Z-0.3 I0.0063 J-0.0108
G2 X22.7337 Y2.9892 Z-0.3333 I-0.0125 J0.0
G2 Y3.0108 Z-0.3667 I0.0063 J0.0108
G2 X22.7525 Y3.0 Z-0.4 I0.0063 J-0.0108
G2 X22.7337 Y2.9892 Z-0.4333 I-0.0125 J0.0
G2 Y3.0108 Z-0.4667 I0.0063 J0.0108
G2 X22.7525 Y3.0 Z-0.5 I0.0063 J-0.0108
G2 X22.7337 Y2.9892 Z-0.5333 I-0.0125 J0.0
G2 Y3.0108 Z-0.5667 I0.0063 J0.0108
G2 X22.7525 Y3.0 Z-0.6 I0.0063 J-0.0108
G2 X22.7337 Y2.9892 Z-0.6333 I-0.0125 J0.0
G2 Y3.0108 Z-0.6667 I0.0063 J0.0108
G2 X22.7525 Y3.0 Z-0.7 I0.0063 J-0.0108
G2 X22.7337 Y2.9892 Z-0.7333 I-0.0125 J0.0
G2 Y3.0108 Z-0.7667 I0.0063 J0.0108
G2 X22.7525 Y3.0 Z-0.8 I0.0063 J-0.0108
G2 X22.7337 Y2.9892 Z-0.8333 I-0.0125 J0.0
G2 Y3.0108 Z-0.8667 I0.0063 J0.0108
G2 X22.7525 Y3.0 Z-0.9 I0.0063 J-0.0108
G2 X22.7337 Y2.9892 Z-0.9333 I-0.0125 J0.0
G2 Y3.0108 Z-0.9667 I0.0063 J0.0108
G2 X22.7525 Y3.0 Z-1.0 I0.0063 J-0.0108
G2 X22.7337 Y2.9892 Z-1.0333 I-0.0125 J0.0
G2 Y3.0108 Z-1.0667 I0.0063 J0.0108
G2 X22.7525 Y3.0 Z-1.1 I0.0063 J-0.0108
G2 X22.7337 Y2.9892 Z-1.1333 I-0.0125 J0.0
G2 Y3.0108 Z-1.1667 I0.0063 J0.0108
G2 X22.7525 Y3.0 Z-1.2 I0.0063 J-0.0108
G2 X22.7337 Y2.9892 Z-1.2333 I-0.0125 J0.0
G2 Y3.0108 Z-1.2667 I0.0062 J0.0108
G2 X22.7525 Y3.0 Z-1.3 I0.0063 J-0.0108
G2 X22.7337 Y2.9892 Z-1.3333 I-0.0125 J0.0
G2 Y3.0108 Z-1.3667 I0.0062 J0.0108
G2 X22.7525 Y3.0 Z-1.4 I0.0063 J-0.0108
G2 X22.7337 Y2.9892 Z-1.4333 I-0.0125 J0.0
G2 Y3.0108 Z-1.4667 I0.0062 J0.0108
G2 X22.7525 Y3.0 Z-1.5 I0.0063 J-0.0108
G2 X22.7337 Y2.9892 Z-1.5333 I-0.0125 J0.0
G2 Y3.0108 Z-1.5667 I0.0062 J0.0108
G2 X22.7525 Y3.0 Z-1.6 I0.0063 J-0.0108
G2 X22.7337 Y2.9892 Z-1.6333 I-0.0125 J0.0
G2 Y3.0108 Z-1.6667 I0.0062 J0.0108
G2 X22.7525 Y3.0 Z-1.7 I0.0063 J-0.0108
G2 X22.7337 Y2.9892 Z-1.7333 I-0.0125 J0.0
G2 Y3.0108 Z-1.7667 I0.0062 J0.0108
G2 X22.7525 Y3.0 Z-1.8 I0.0063 J-0.0108
G2 X22.7337 Y2.9892 Z-1.8333 I-0.0125 J0.0
G2 Y3.0108 Z-1.8667 I0.0062 J0.0108
G2 X22.7525 Y3.0 Z-1.9 I0.0063 J-0.0108
G2 X22.7337 Y2.9892 Z-1.9333 I-0.0125 J0.0
G2 Y3.0108 Z-1.9667 I0.0062 J0.0108
G2 X22.7525 Y3.0 Z-2.0 I0.0063 J-0.0108
G2 X22.7337 Y2.9892 Z-2.0333 I-0.0125 J0.0
G2 Y3.0108 Z-2.0667 I0.0062 J0.0108
G2 X22.7525 Y3.0 Z-2.1 I0.0063 J-0.0108
G2 X22.7337 Y2.9892 Z-2.1333 I-0.0125 J0.0
G2 Y3.0108 Z-2.1667 I0.0062 J0.0108
G2 X22.7525 Y3.0 Z-2.2 I0.0063 J-0.0108
G2 X22.7337 Y2.9892 Z-2.2333 I-0.0125 J0.0
G2 Y3.0108 Z-2.2667 I0.0063 J0.0108
G2 X22.7525 Y3.0 Z-2.3 I0.0063 J-0.0108
G2 X22.7337 Y2.9892 Z-2.3333 I-0.0125 J0.0
G2 Y3.0108 Z-2.3667 I0.0063 J0.0108
G2 X22.7525 Y3.0 Z-2.4 I0.0063 J-0.0108
G2 X22.7337 Y2.9892 Z-2.4333 I-0.0125 J0.0
G2 Y3.0108 Z-2.4667 I0.0063 J0.0108
G2 X22.7525 Y3.0 Z-2.5 I0.0062 J-0.0108
G2 X22.7337 Y2.9892 Z-2.5333 I-0.0125 J0.0
G2 Y3.0108 Z-2.5667 I0.0063 J0.0108
G2 X22.7525 Y3.0 Z-2.6 I0.0062 J-0.0108
G2 X22.7337 Y2.9892 Z-2.6333 I-0.0125 J0.0
G2 Y3.0108 Z-2.6667 I0.0063 J0.0108
G2 X22.7525 Y3.0 Z-2.7 I0.0062 J-0.0108
G2 X22.7337 Y2.9892 Z-2.7333 I-0.0125 J0.0
G2 Y3.0108 Z-2.7667 I0.0063 J0.0108
G2 X22.7525 Y3.0 Z-2.8 I0.0062 J-0.0108
G2 X22.7337 Y2.9892 Z-2.8333 I-0.0125 J0.0
G2 Y3.0108 Z-2.8667 I0.0063 J0.0108
G2 X22.7525 Y3.0 Z-2.9 I0.0062 J-0.0108
G2 X22.7337 Y2.9892 Z-2.9333 I-0.0125 J0.0
G2 Y3.0108 Z-2.9667 I0.0063 J0.0108
G2 X22.7525 Y3.0 Z-3.0 I0.0062 J-0.0108
G2 X22.7337 Y2.9892 Z-3.0333 I-0.0125 J0.0
G2 Y3.0108 Z-3.0667 I0.0063 J0.0108
G2 X22.7525 Y3.0 Z-3.1 I0.0062 J-0.0108
G2 X22.7337 Y2.9892 Z-3.1333 I-0.0125 J0.0
G2 Y3.0108 Z-3.1667 I0.0063 J0.0108
G2 X22.7525 Y3.0 Z-3.2 I0.0062 J-0.0108
G2 X22.7337 Y2.9892 I-0.0125 J0.0
G2 Y3.0108 I0.0063 J0.0108
G2 X22.7525 Y3.0 I0.0062 J-0.0108
G0 Z0.0
G2 X22.7337 Y2.9892 Z-0.0333 I-0.0125 J0.0
G2 Y3.0108 Z-0.0667 I0.0063 J0.0108
G2 X22.7525 Y3.0 Z-0.1 I0.0063 J-0.0108
G2 X22.7337 Y2.9892 Z-0.1333 I-0.0125 J0.0
G2 Y3.0108 Z-0.1667 I0.0063 J0.0108
G2 X22.7525 Y3.0 Z-0.2 I0.0063 J-0.0108
G2 X22.7337 Y2.9892 Z-0.2333 I-0.0125 J0.0
G2 Y3.0108 Z-0.2667 I0.0063 J0.0108
G2 X22.7525 Y3.0 Z-0.3 I0.0063 J-0.0108
G2 X22.7337 Y2.9892 Z-0.3333 I-0.0125 J0.0
G2 Y3.0108 Z-0.3667 I0.0063 J0.0108
G2 X22.7525 Y3.0 Z-0.4 I0.0063 J-0.0108
G2 X22.7337 Y2.9892 Z-0.4333 I-0.0125 J0.0
G2 Y3.0108 Z-0.4667 I0.0063 J0.0108
G2 X22.7525 Y3.0 Z-0.5 I0.0063 J-0.0108
G2 X22.7337 Y2.9892 Z-0.5333 I-0.0125 J0.0
G2 Y3.0108 Z-0.5667 I0.0063 J0.0108
G2 X22.7525 Y3.0 Z-0.6 I0.0063 J-0.0108
G2 X22.7337 Y2.9892 Z-0.6333 I-0.0125 J0.0
G2 Y3.0108 Z-0.6667 I0.0063 J0.0108
G2 X22.7525 Y3.0 Z-0.7 I0.0063 J-0.0108
G2 X22.7337 Y2.9892 Z-0.7333 I-0.0125 J0.0
G2 Y3.0108 Z-0.7667 I0.0063 J0.0108
G2 X22.7525 Y3.0 Z-0.8 I0.0063 J-0.0108
G2 X22.7337 Y2.9892 Z-0.8333 I-0.0125 J0.0
G2 Y3.0108 Z-0.8667 I0.0063 J0.0108
G2 X22.7525 Y3.0 Z-0.9 I0.0063 J-0.0108
G2 X22.7337 Y2.9892 Z-0.9333 I-0.0125 J0.0
G2 Y3.0108 Z-0.9667 I0.0063 J0.0108
G2 X22.7525 Y3.0 Z-1.0 I0.0063 J-0.0108
G2 X22.7337 Y2.9892 Z-1.0333 I-0.0125 J0.0
G2 Y3.0108 Z-1.0667 I0.0063 J0.0108
G2 X22.7525 Y3.0 Z-1.1 I0.0063 J-0.0108
G2 X22.7337 Y2.9892 Z-1.1333 I-0.0125 J0.0
G2 Y3.0108 Z-1.1667 I0.0063 J0.0108
G2 X22.7525 Y3.0 Z-1.2 I0.0063 J-0.0108
G2 X22.7337 Y2.9892 Z-1.2333 I-0.0125 J0.0
G2 Y3.0108 Z-1.2667 I0.0062 J0.0108
G2 X22.7525 Y3.0 Z-1.3 I0.0063 J-0.0108
G2 X22.7337 Y2.9892 Z-1.3333 I-0.0125 J0.0
G2 Y3.0108 Z-1.3667 I0.0062 J0.0108
G2 X22.7525 Y3.0 Z-1.4 I0.0063 J-0.0108
G2 X22.7337 Y2.9892 Z-1.4333 I-0.0125 J0.0
G2 Y3.0108 Z-1.4667 I0.0062 J0.0108
G2 X22.7525 Y3.0 Z-1.5 I0.0063 J-0.0108
G2 X22.7337 Y2.9892 Z-1.5333 I-0.0125 J0.0
G2 Y3.0108 Z-1.5667 I0.0062 J0.0108
G2 X22.7525 Y3.0 Z-1.6 I0.0063 J-0.0108
G2 X22.7337 Y2.9892 Z-1.6333 I-0.0125 J0.0
G2 Y3.0108 Z-1.6667 I0.0062 J0.0108
G2 X22.7525 Y3.0 Z-1.7 I0.0063 J-0.0108
G2 X22.7337 Y2.9892 Z-1.7333 I-0.0125 J0.0
G2 Y3.0108 Z-1.7667 I0.0062 J0.0108
G2 X22.7525 Y3.0 Z-1.8 I0.0063 J-0.0108
G2 X22.7337 Y2.9892 Z-1.8333 I-0.0125 J0.0
G2 Y3.0108 Z-1.8667 I0.0062 J0.0108
G2 X22.7525 Y3.0 Z-1.9 I0.0063 J-0.0108
G2 X22.7337 Y2.9892 Z-1.9333 I-0.0125 J0.0
G2 Y3.0108 Z-1.9667 I0.0062 J0.0108
G2 X22.7525 Y3.0 Z-2.0 I0.0063 J-0.0108
G2 X22.7337 Y2.9892 Z-2.0333 I-0.0125 J0.0
G2 Y3.0108 Z-2.0667 I0.0062 J0.0108
G2 X22.7525 Y3.0 Z-2.1 I0.0063 J-0.0108
G2 X22.7337 Y2.9892 Z-2.1333 I-0.0125 J0.0
G2 Y3.0108 Z-2.1667 I0.0062 J0.0108
G2 X22.7525 Y3.0 Z-2.2 I0.0063 J-0.0108
G2 X22.7337 Y2.9892 Z-2.2333 I-0.0125 J0.0
G2 Y3.0108 Z-2.2667 I0.0063 J0.0108
G2 X22.7525 Y3.0 Z-2.3 I0.0063 J-0.0108
G2 X22.7337 Y2.9892 Z-2.3333 I-0.0125 J0.0
G2 Y3.0108 Z-2.3667 I0.0063 J0.0108
G2 X22.7525 Y3.0 Z-2.4 I0.0063 J-0.0108
G2 X22.7337 Y2.9892 Z-2.4333 I-0.0125 J0.0
G2 Y3.0108 Z-2.4667 I0.0063 J0.0108
G2 X22.7525 Y3.0 Z-2.5 I0.0062 J-0.0108
G2 X22.7337 Y2.9892 Z-2.5333 I-0.0125 J0.0
G2 Y3.0108 Z-2.5667 I0.0063 J0.0108
G2 X22.7525 Y3.0 Z-2.6 I0.0062 J-0.0108
G2 X22.7337 Y2.9892 Z-2.6333 I-0.0125 J0.0
G2 Y3.0108 Z-2.6667 I0.0063 J0.0108
G2 X22.7525 Y3.0 Z-2.7 I0.0062 J-0.0108
G2 X22.7337 Y2.9892 Z-2.7333 I-0.0125 J0.0
G2 Y3.0108 Z-2.7667 I0.0063 J0.0108
G2 X22.7525 Y3.0 Z-2.8 I0.0062 J-0.0108
G2 X22.7337 Y2.9892 Z-2.8333 I-0.0125 J0.0
G2 Y3.0108 Z-2.8667 I0.0063 J0.0108
G2 X22.7525 Y3.0 Z-2.9 I0.0062 J-0.0108
G2 X22.7337 Y2.9892 Z-2.9333 I-0.0125 J0.0
G2 Y3.0108 Z-2.9667 I0.0063 J0.0108
G2 X22.7525 Y3.0 Z-3.0 I0.0062 J-0.0108
G2 X22.7337 Y2.9892 Z-3.0333 I-0.0125 J0.0
G2 Y3.0108 Z-3.0667 I0.0063 J0.0108
G2 X22.7525 Y3.0 Z-3.1 I0.0062 J-0.0108
G2 X22.7337 Y2.9892 Z-3.1333 I-0.0125 J0.0
G2 Y3.0108 Z-3.1667 I0.0063 J0.0108
G2 X22.7525 Y3.0 Z-3.2 I0.0062 J-0.0108
G2 X22.7337 Y2.9892 I-0.0125 J0.0
G2 Y3.0108 I0.0063 J0.0108
G2 X22.7525 Y3.0 I0.0062 J-0.0108
( Profile1 )
S1000
G0 Z3.0
G0 X-1.5875 Y128.5
G0 Z0.25
G1 F1000.0 Z-0.1
G1 F2000.0 Y0.0
G3 X0.0 Y-1.5875 I1.5875 J0.0
G1 X30.24
G3 X31.8275 Y0.0 I0.0 J1.5875
G1 Y128.5
G3 X30.24 Y130.0875 I-1.5875 J0.0
G1 X0.0
G3 X-1.5875 Y128.5 I0.0 J-1.5875
G1 F1000.0 Z-0.2
G1 F2000.0 Y0.0
G3 X0.0 Y-1.5875 I1.5875 J0.0
G1 X30.24
G3 X31.8275 Y0.0 I0.0 J1.5875
G1 Y128.5
G3 X30.24 Y130.0875 I-1.5875 J0.0
G1 X0.0
G3 X-1.5875 Y128.5 I0.0 J-1.5875
G1 F1000.0 Z-0.3
G1 F2000.0 Y0.0
G3 X0.0 Y-1.5875 I1.5875 J0.0
G1 X30.24
G3 X31.8275 Y0.0 I0.0 J1.5875
G1 Y128.5
G3 X30.24 Y130.0875 I-1.5875 J0.0
G1 X0.0
G3 X-1.5875 Y128.5 I0.0 J-1.5875
G1 F1000.0 Z-0.4
G1 F2000.0 Y0.0
G3 X0.0 Y-1.5875 I1.5875 J0.0
G1 X30.24
G3 X31.8275 Y0.0 I0.0 J1.5875
G1 Y128.5
G3 X30.24 Y130.0875 I-1.5875 J0.0
G1 X0.0
G3 X-1.5875 Y128.5 I0.0 J-1.5875
G1 F1000.0 Z-0.5
G1 F2000.0 Y0.0
G3 X0.0 Y-1.5875 I1.5875 J0.0
G1 X30.24
G3 X31.8275 Y0.0 I0.0 J1.5875
G1 Y128.5
G3 X30.24 Y130.0875 I-1.5875 J0.0
G1 X0.0
G3 X-1.5875 Y128.5 I0.0 J-1.5875
G1 F1000.0 Z-0.6
G1 F2000.0 Y0.0
G3 X0.0 Y-1.5875 I1.5875 J0.0
G1 X30.24
G3 X31.8275 Y0.0 I0.0 J1.5875
G1 Y128.5
G3 X30.24 Y130.0875 I-1.5875 J0.0
G1 X0.0
G3 X-1.5875 Y128.5 I0.0 J-1.5875
G1 F1000.0 Z-0.7
G1 F2000.0 Y0.0
G3 X0.0 Y-1.5875 I1.5875 J0.0
G1 X30.24
G3 X31.8275 Y0.0 I0.0 J1.5875
G1 Y128.5
G3 X30.24 Y130.0875 I-1.5875 J0.0
G1 X0.0
G3 X-1.5875 Y128.5 I0.0 J-1.5875
G1 F1000.0 Z-0.8
G1 F2000.0 Y0.0
G3 X0.0 Y-1.5875 I1.5875 J0.0
G1 X30.24
G3 X31.8275 Y0.0 I0.0 J1.5875
G1 Y128.5
G3 X30.24 Y130.0875 I-1.5875 J0.0
G1 X0.0
G3 X-1.5875 Y128.5 I0.0 J-1.5875
G1 F1000.0 Z-0.9
G1 F2000.0 Y0.0
G3 X0.0 Y-1.5875 I1.5875 J0.0
G1 X30.24
G3 X31.8275 Y0.0 I0.0 J1.5875
G1 Y128.5
G3 X30.24 Y130.0875 I-1.5875 J0.0
G1 X0.0
G3 X-1.5875 Y128.5 I0.0 J-1.5875
G1 F1000.0 Z-1.0
G1 F2000.0 Y0.0
G3 X0.0 Y-1.5875 I1.5875 J0.0
G1 X30.24
G3 X31.8275 Y0.0 I0.0 J1.5875
G1 Y128.5
G3 X30.24 Y130.0875 I-1.5875 J0.0
G1 X0.0
G3 X-1.5875 Y128.5 I0.0 J-1.5875
G1 F1000.0 Z-1.1
G1 F2000.0 Y0.0
G3 X0.0 Y-1.5875 I1.5875 J0.0
G1 X30.24
G3 X31.8275 Y0.0 I0.0 J1.5875
G1 Y128.5
G3 X30.24 Y130.0875 I-1.5875 J0.0
G1 X0.0
G3 X-1.5875 Y128.5 I0.0 J-1.5875
G1 F1000.0 Z-1.2
G1 F2000.0 Y0.0
G3 X0.0 Y-1.5875 I1.5875 J0.0
G1 X30.24
G3 X31.8275 Y0.0 I0.0 J1.5875
G1 Y128.5
G3 X30.24 Y130.0875 I-1.5875 J0.0
G1 X0.0
G3 X-1.5875 Y128.5 I0.0 J-1.5875
G1 F1000.0 Z-1.3
G1 F2000.0 Y91.4025
G1 Y90.4025 Z-1.2
G1 Y87.2275
G1 Y86.2275 Z-1.3
G1 Y12.0325
G1 Y11.0325 Z-1.2
G1 Y7.8575
G1 Y6.8575 Z-1.3
G1 Y0.0
G3 X0.0 Y-1.5875 I1.5875 J0.0
G1 X30.24
G3 X31.8275 Y0.0 I0.0 J1.5875
G1 Y37.0975
G1 Y38.0975 Z-1.2
G1 Y41.2725
G1 Y42.2725 Z-1.3
G1 Y116.4675
G1 Y117.4675 Z-1.2
G1 Y120.6425
G1 Y121.6425 Z-1.3
G1 Y128.5
G3 X30.24 Y130.0875 I-1.5875 J0.0
G1 X0.0
G3 X-1.5875 Y128.5 I0.0 J-1.5875
G1 F1000.0 Z-1.4
G1 F2000.0 Y91.4025
G1 Y90.4025 Z-1.2
G1 Y87.2275
G1 Y86.2275 Z-1.4
G1 Y12.0325
G1 Y11.0325 Z-1.2
G1 Y7.8575
G1 Y6.8575 Z-1.4
G1 Y0.0
G3 X0.0 Y-1.5875 I1.5875 J0.0
G1 X30.24
G3 X31.8275 Y0.0 I0.0 J1.5875
G1 Y37.0975
G1 Y38.0975 Z-1.2
G1 Y41.2725
G1 Y42.2725 Z-1.4
G1 Y116.4675
G1 Y117.4675 Z-1.2
G1 Y120.6425
G1 Y121.6425 Z-1.4
G1 Y128.5
G3 X30.24 Y130.0875 I-1.5875 J0.0
G1 X0.0
G3 X-1.5875 Y128.5 I0.0 J-1.5875
G1 F1000.0 Z-1.5
G1 F2000.0 Y91.4025
G1 Y90.4025 Z-1.2
G1 Y87.2275
G1 Y86.2275 Z-1.5
G1 Y12.0325
G1 Y11.0325 Z-1.2
G1 Y7.8575
G1 Y6.8575 Z-1.5
G1 Y0.0
G3 X0.0 Y-1.5875 I1.5875 J0.0
G1 X30.24
G3 X31.8275 Y0.0 I0.0 J1.5875
G1 Y37.0975
G1 Y38.0975 Z-1.2
G1 Y41.2725
G1 Y42.2725 Z-1.5
G1 Y116.4675
G1 Y117.4675 Z-1.2
G1 Y120.6425
G1 Y121.6425 Z-1.5
G1 Y128.5
G3 X30.24 Y130.0875 I-1.5875 J0.0
G1 X0.0
G3 X-1.5875 Y128.5 I0.0 J-1.5875
G1 F1000.0 Z-1.6
G1 F2000.0 Y91.4025
G1 Y90.4025 Z-1.2
G1 Y87.2275
G1 Y86.2275 Z-1.6
G1 Y12.0325
G1 Y11.0325 Z-1.2
G1 Y7.8575
G1 Y6.8575 Z-1.6
G1 Y0.0
G3 X0.0 Y-1.5875 I1.5875 J0.0
G1 X30.24
G3 X31.8275 Y0.0 I0.0 J1.5875
G1 Y37.0975
G1 Y38.0975 Z-1.2
G1 Y41.2725
G1 Y42.2725 Z-1.6
G1 Y116.4675
G1 Y117.4675 Z-1.2
G1 Y120.6425
G1 Y121.6425 Z-1.6
G1 Y128.5
G3 X30.24 Y130.0875 I-1.5875 J0.0
G1 X0.0
G3 X-1.5875 Y128.5 I0.0 J-1.5875
G1 F1000.0 Z-1.7
G1 F2000.0 Y91.4025
G1 Y90.4025 Z-1.2
G1 Y87.2275
G1 Y86.2275 Z-1.7
G1 Y12.0325
G1 Y11.0325 Z-1.2
G1 Y7.8575
G1 Y6.8575 Z-1.7
G1 Y0.0
G3 X0.0 Y-1.5875 I1.5875 J0.0
G1 X30.24
G3 X31.8275 Y0.0 I0.0 J1.5875
G1 Y37.0975
G1 Y38.0975 Z-1.2
G1 Y41.2725
G1 Y42.2725 Z-1.7
G1 Y116.4675
G1 Y117.4675 Z-1.2
G1 Y120.6425
G1 Y121.6425 Z-1.7
G1 Y128.5
G3 X30.24 Y130.0875 I-1.5875 J0.0
G1 X0.0
G3 X-1.5875 Y128.5 I0.0 J-1.5875
G1 F1000.0 Z-1.8
G1 F2000.0 Y91.4025
G1 Y90.4025 Z-1.2
G1 Y87.2275
G1 Y86.2275 Z-1.8
G1 Y12.0325
G1 Y11.0325 Z-1.2
G1 Y7.8575
G1 Y6.8575 Z-1.8
G1 Y0.0
G3 X0.0 Y-1.5875 I1.5875 J0.0
G1 X30.24
G3 X31.8275 Y0.0 I0.0 J1.5875
G1 Y37.0975
G1 Y38.0975 Z-1.2
G1 Y41.2725
G1 Y42.2725 Z-1.8
G1 Y116.4675
G1 Y117.4675 Z-1.2
G1 Y120.6425
G1 Y121.6425 Z-1.8
G1 Y128.5
G3 X30.24 Y130.0875 I-1.5875 J0.0
G1 X0.0
G3 X-1.5875 Y128.5 I0.0 J-1.5875
G1 F1000.0 Z-1.9
G1 F2000.0 Y91.4025
G1 Y90.4025 Z-1.2
G1 Y87.2275
G1 Y86.2275 Z-1.9
G1 Y12.0325
G1 Y11.0325 Z-1.2
G1 Y7.8575
G1 Y6.8575 Z-1.9
G1 Y0.0
G3 X0.0 Y-1.5875 I1.5875 J0.0
G1 X30.24
G3 X31.8275 Y0.0 I0.0 J1.5875
G1 Y37.0975
G1 Y38.0975 Z-1.2
G1 Y41.2725
G1 Y42.2725 Z-1.9
G1 Y116.4675
G1 Y117.4675 Z-1.2
G1 Y120.6425
G1 Y121.6425 Z-1.9
G1 Y128.5
G3 X30.24 Y130.0875 I-1.5875 J0.0
G1 X0.0
G3 X-1.5875 Y128.5 I0.0 J-1.5875
G1 F1000.0 Z-2.0
G1 F2000.0 Y91.4025
G1 Y90.4025 Z-1.2
G1 Y87.2275
G1 Y86.2275 Z-2.0
G1 Y12.0325
G1 Y11.0325 Z-1.2
G1 Y7.8575
G1 Y6.8575 Z-2.0
G1 Y0.0
G3 X0.0 Y-1.5875 I1.5875 J0.0
G1 X30.24
G3 X31.8275 Y0.0 I0.0 J1.5875
G1 Y37.0975
G1 Y38.0975 Z-1.2
G1 Y41.2725
G1 Y42.2725 Z-2.0
G1 Y116.4675
G1 Y117.4675 Z-1.2
G1 Y120.6425
G1 Y121.6425 Z-2.0
G1 Y128.5
G3 X30.24 Y130.0875 I-1.5875 J0.0
G1 X0.0
G3 X-1.5875 Y128.5 I0.0 J-1.5875
G1 F1000.0 Z-2.1
G1 F2000.0 Y91.4025
G1 Y90.4025 Z-1.2
G1 Y87.2275
G1 Y86.2275 Z-2.1
G1 Y12.0325
G1 Y11.0325 Z-1.2
G1 Y7.8575
G1 Y6.8575 Z-2.1
G1 Y0.0
G3 X0.0 Y-1.5875 I1.5875 J0.0
G1 X30.24
G3 X31.8275 Y0.0 I0.0 J1.5875
G1 Y37.0975
G1 Y38.0975 Z-1.2
G1 Y41.2725
G1 Y42.2725 Z-2.1
G1 Y116.4675
G1 Y117.4675 Z-1.2
G1 Y120.6425
G1 Y121.6425 Z-2.1
G1 Y128.5
G3 X30.24 Y130.0875 I-1.5875 J0.0
G1 X0.0
G3 X-1.5875 Y128.5 I0.0 J-1.5875
G1 F1000.0 Z-2.2
G1 F2000.0 Y91.4025
G1 Y90.4025 Z-1.2
G1 Y87.2275
G1 Y86.2275 Z-2.2
G1 Y12.0325
G1 Y11.0325 Z-1.2
G1 Y7.8575
G1 Y6.8575 Z-2.2
G1 Y0.0
G3 X0.0 Y-1.5875 I1.5875 J0.0
G1 X30.24
G3 X31.8275 Y0.0 I0.0 J1.5875
G1 Y37.0975
G1 Y38.0975 Z-1.2
G1 Y41.2725
G1 Y42.2725 Z-2.2
G1 Y116.4675
G1 Y117.4675 Z-1.2
G1 Y120.6425
G1 Y121.6425 Z-2.2
G1 Y128.5
G3 X30.24 Y130.0875 I-1.5875 J0.0
G1 X0.0
G3 X-1.5875 Y128.5 I0.0 J-1.5875
G1 F1000.0 Z-2.3
G1 F2000.0 Y91.4025
G1 Y90.4025 Z-1.2
G1 Y87.2275
G1 Y86.2275 Z-2.3
G1 Y12.0325
G1 Y11.0325 Z-1.2
G1 Y7.8575
G1 Y6.8575 Z-2.3
G1 Y0.0
G3 X0.0 Y-1.5875 I1.5875 J0.0
G1 X30.24
G3 X31.8275 Y0.0 I0.0 J1.5875
G1 Y37.0975
G1 Y38.0975 Z-1.2
G1 Y41.2725
G1 Y42.2725 Z-2.3
G1 Y116.4675
G1 Y117.4675 Z-1.2
G1 Y120.6425
G1 Y121.6425 Z-2.3
G1 Y128.5
G3 X30.24 Y130.0875 I-1.5875 J0.0
G1 X0.0
G3 X-1.5875 Y128.5 I0.0 J-1.5875
G1 F1000.0 Z-2.4
G1 F2000.0 Y91.4025
G1 Y90.4025 Z-1.2
G1 Y87.2275
G1 Y86.2275 Z-2.4
G1 Y12.0325
G1 Y11.0325 Z-1.2
G1 Y7.8575
G1 Y6.8575 Z-2.4
G1 Y0.0
G3 X0.0 Y-1.5875 I1.5875 J0.0
G1 X30.24
G3 X31.8275 Y0.0 I0.0 J1.5875
G1 Y37.0975
G1 Y38.0975 Z-1.2
G1 Y41.2725
G1 Y42.2725 Z-2.4
G1 Y116.4675
G1 Y117.4675 Z-1.2
G1 Y120.6425
G1 Y121.6425 Z-2.4
G1 Y128.5
G3 X30.24 Y130.0875 I-1.5875 J0.0
G1 X0.0
G3 X-1.5875 Y128.5 I0.0 J-1.5875
G1 F1000.0 Z-2.5
G1 F2000.0 Y91.4025
G1 Y90.4025 Z-1.2
G1 Y87.2275
G1 Y86.2275 Z-2.5
G1 Y12.0325
G1 Y11.0325 Z-1.2
G1 Y7.8575
G1 Y6.8575 Z-2.5
G1 Y0.0
G3 X0.0 Y-1.5875 I1.5875 J0.0
G1 X30.24
G3 X31.8275 Y0.0 I0.0 J1.5875
G1 Y37.0975
G1 Y38.0975 Z-1.2
G1 Y41.2725
G1 Y42.2725 Z-2.5
G1 Y116.4675
G1 Y117.4675 Z-1.2
G1 Y120.6425
G1 Y121.6425 Z-2.5
G1 Y128.5
G3 X30.24 Y130.0875 I-1.5875 J0.0
G1 X0.0
G3 X-1.5875 Y128.5 I0.0 J-1.5875
G1 F1000.0 Z-2.6
G1 F2000.0 Y91.4025
G1 Y90.4025 Z-1.2
G1 Y87.2275
G1 Y86.2275 Z-2.6
G1 Y12.0325
G1 Y11.0325 Z-1.2
G1 Y7.8575
G1 Y6.8575 Z-2.6
G1 Y0.0
G3 X0.0 Y-1.5875 I1.5875 J0.0
G1 X30.24
G3 X31.8275 Y0.0 I0.0 J1.5875
G1 Y37.0975
G1 Y38.0975 Z-1.2
G1 Y41.2725
G1 Y42.2725 Z-2.6
G1 Y116.4675
G1 Y117.4675 Z-1.2
G1 Y120.6425
G1 Y121.6425 Z-2.6
G1 Y128.5
G3 X30.24 Y130.0875 I-1.5875 J0.0
G1 X0.0
G3 X-1.5875 Y128.5 I0.0 J-1.5875
G1 F1000.0 Z-2.7
G1 F2000.0 Y91.4025
G1 Y90.4025 Z-1.2
G1 Y87.2275
G1 Y86.2275 Z-2.7
G1 Y12.0325
G1 Y11.0325 Z-1.2
G1 Y7.8575
G1 Y6.8575 Z-2.7
G1 Y0.0
G3 X0.0 Y-1.5875 I1.5875 J0.0
G1 X30.24
G3 X31.8275 Y0.0 I0.0 J1.5875
G1 Y37.0975
G1 Y38.0975 Z-1.2
G1 Y41.2725
G1 Y42.2725 Z-2.7
G1 Y116.4675
G1 Y117.4675 Z-1.2
G1 Y120.6425
G1 Y121.6425 Z-2.7
G1 Y128.5
G3 X30.24 Y130.0875 I-1.5875 J0.0
G1 X0.0
G3 X-1.5875 Y128.5 I0.0 J-1.5875
G1 F1000.0 Z-2.8
G1 F2000.0 Y91.4025
G1 Y90.4025 Z-1.2
G1 Y87.2275
G1 Y86.2275 Z-2.8
G1 Y12.0325
G1 Y11.0325 Z-1.2
G1 Y7.8575
G1 Y6.8575 Z-2.8
G1 Y0.0
G3 X0.0 Y-1.5875 I1.5875 J0.0
G1 X30.24
G3 X31.8275 Y0.0 I0.0 J1.5875
G1 Y37.0975
G1 Y38.0975 Z-1.2
G1 Y41.2725
G1 Y42.2725 Z-2.8
G1 Y116.4675
G1 Y117.4675 Z-1.2
G1 Y120.6425
G1 Y121.6425 Z-2.8
G1 Y128.5
G3 X30.24 Y130.0875 I-1.5875 J0.0
G1 X0.0
G3 X-1.5875 Y128.5 I0.0 J-1.5875
G1 F1000.0 Z-2.9
G1 F2000.0 Y91.4025
G1 Y90.4025 Z-1.2
G1 Y87.2275
G1 Y86.2275 Z-2.9
G1 Y12.0325
G1 Y11.0325 Z-1.2
G1 Y7.8575
G1 Y6.8575 Z-2.9
G1 Y0.0
G3 X0.0 Y-1.5875 I1.5875 J0.0
G1 X30.24
G3 X31.8275 Y0.0 I0.0 J1.5875
G1 Y37.0975
G1 Y38.0975 Z-1.2
G1 Y41.2725
G1 Y42.2725 Z-2.9
G1 Y116.4675
G1 Y117.4675 Z-1.2
G1 Y120.6425
G1 Y121.6425 Z-2.9
G1 Y128.5
G3 X30.24 Y130.0875 I-1.5875 J0.0
G1 X0.0
G3 X-1.5875 Y128.5 I0.0 J-1.5875
G1 F1000.0 Z-3.0
G1 F2000.0 Y91.4025
G1 Y90.4025 Z-1.2
G1 Y87.2275
G1 Y86.2275 Z-3.0
G1 Y12.0325
G1 Y11.0325 Z-1.2
G1 Y7.8575
G1 Y6.8575 Z-3.0
G1 Y0.0
G3 X0.0 Y-1.5875 I1.5875 J0.0
G1 X30.24
G3 X31.8275 Y0.0 I0.0 J1.5875
G1 Y37.0975
G1 Y38.0975 Z-1.2
G1 Y41.2725
G1 Y42.2725 Z-3.0
G1 Y116.4675
G1 Y117.4675 Z-1.2
G1 Y120.6425
G1 Y121.6425 Z-3.0
G1 Y128.5
G3 X30.24 Y130.0875 I-1.5875 J0.0
G1 X0.0
G3 X-1.5875 Y128.5 I0.0 J-1.5875
G1 F1000.0 Z-3.1
G1 F2000.0 Y91.4025
G1 Y90.4025 Z-1.2
G1 Y87.2275
G1 Y86.2275 Z-3.1
G1 Y12.0325
G1 Y11.0325 Z-1.2
G1 Y7.8575
G1 Y6.8575 Z-3.1
G1 Y0.0
G3 X0.0 Y-1.5875 I1.5875 J0.0
G1 X30.24
G3 X31.8275 Y0.0 I0.0 J1.5875
G1 Y37.0975
G1 Y38.0975 Z-1.2
G1 Y41.2725
G1 Y42.2725 Z-3.1
G1 Y116.4675
G1 Y117.4675 Z-1.2
G1 Y120.6425
G1 Y121.6425 Z-3.1
G1 Y128.5
G3 X30.24 Y130.0875 I-1.5875 J0.0
G1 X0.0
G3 X-1.5875 Y128.5 I0.0 J-1.5875
G1 F1000.0 Z-3.2
G1 F2000.0 Y91.4025
G1 Y90.4025 Z-1.2
G1 Y87.2275
G1 Y86.2275 Z-3.2
G1 Y12.0325
G1 Y11.0325 Z-1.2
G1 Y7.8575
G1 Y6.8575 Z-3.2
G1 Y0.0
G3 X0.0 Y-1.5875 I1.5875 J0.0
G1 X30.24
G3 X31.8275 Y0.0 I0.0 J1.5875
G1 Y37.0975
G1 Y38.0975 Z-1.2
G1 Y41.2725
G1 Y42.2725 Z-3.2
G1 Y116.4675
G1 Y117.4675 Z-1.2
G1 Y120.6425
G1 Y121.6425 Z-3.2
G1 Y128.5
G3 X30.24 Y130.0875 I-1.5875 J0.0
G1 X0.0
G3 X-1.5875 Y128.5 I0.0 J-1.5875
G0 Z3.0
M5
M30
