(/Applications/pcbgcode.repo/pcb-gcode.ulp)
(Copyright 2005 - 2012 by John Johnson)
(See readme.txt for licensing terms.)
(This file generated from the board:)
(.../SpringReverbDriver/drive_and_recover.brd)
(Current profile is .../pcbgcode.repo/profiles/mach.pp  )
(This file generated 1/8/15 5:54 PM)
(Settings from pcb-machine.h)
(spindle on time = 0.0000)
(spindle speed = 20000.0000)
(tool change at 0.0000  0.0000  3.0000  )
(feed rate xy = F0     )
(feed rate z  = F20    )
(Z Axis Settings)
(  High     Up        Down     Drill)
(1.0000  	0.0500  	-0.0035 	-0.0730 )
(Settings from pcb-defaults.h)
(isolate min = 0.0010)
(isolate max = 0.0050)
(isolate step = 0.0010)
(Generated bottom outlines, bottom drill, )
(Unit of measure: inch)
( Tool|       Size       |  Min Sub |  Max Sub |   Count )
( T01 | 0.700mm 0.0276in | 0.0000in | 0.0000in |       0 )
( T02 | 0.813mm 0.0320in | 0.0000in | 0.0000in |       0 )
( T03 | 0.900mm 0.0354in | 0.0000in | 0.0000in |       0 )
( T04 | 1.016mm 0.0400in | 0.0000in | 0.0000in |       0 )
(Inch Mode)
G20
(Absolute Coordinates)
G90
S20000
G00 Z1.0000  
G00 X0.0000  Y0.0000  
M03
G04 P0.000000
M05
G00 Z3.0000  
M06 T01  ; 0.0276  
G01 Z0.0000  F20    
M06 
G00 Z0.0500  
M03
G04 P0.000000
G82 X-0.6000 Y1.4000  Z-0.0730 F20    R0.0500  P0.010000
G82 X-0.7000 Y1.4000  
G82 X-0.8500 Y1.6500  
G82 X-0.9500 Y1.6500  
G82 X-1.3500 Y1.4000  
G82 X-1.3500 Y1.3000  
G82 X-1.5500 Y0.7500  
G82 X-1.5500 Y0.6500  
M05
G00 Z3.0000  
G00 X0.0000  Y0.0000  
M06 T02  ; 0.0320  
G01 Z0.0000  F20    
M06 
G00 Z0.0500  
M03
G04 P0.000000
G82 X-0.5000 Y0.6500  Z-0.0730 F20    R0.0500  P0.010000
G82 X-0.6000 Y0.6500  
G82 X-0.7000 Y0.6500  
G82 X-0.5900 Y0.9000  
G82 X-0.5100 Y0.9000  
G82 X-0.9000 Y1.1000  
G82 X-0.9000 Y1.2000  
G82 X-0.9000 Y1.3000  
G82 X-0.9000 Y1.4000  
G82 X-1.2000 Y1.4000  
G82 X-1.2000 Y1.3000  
G82 X-1.2000 Y1.2000  
G82 X-1.2000 Y1.1000  
G82 X-1.6500 Y1.4500  
G82 X-1.7500 Y1.4500  
G82 X-1.8500 Y1.4500  
G82 X-1.8100 Y1.1000  
G82 X-1.8900 Y1.1000  
M05
G00 Z3.0000  
G00 X0.0000  Y0.0000  
M06 T03  ; 0.0354  
G01 Z0.0000  F20    
M06 
G00 Z0.0500  
M03
G04 P0.000000
G82 X-0.2500 Y1.2600  Z-0.0730 F20    R0.0500  P0.010000
G82 X-0.3000 Y1.1000  
G82 X-0.6500 Y1.2600  
G82 X-0.7000 Y1.1000  
G82 X-0.9000 Y0.7500  
G82 X-1.1500 Y0.9000  
G82 X-1.2000 Y0.7500  
G82 X-1.2400 Y0.4500  
G82 X-1.6400 Y0.4500  
G82 X-1.9000 Y0.5000  
G82 X-2.0500 Y0.8600  
G82 X-1.9000 Y0.9000  
G82 X-1.7000 Y1.0500  
G82 X-1.5500 Y0.9000  
G82 X-1.3000 Y1.0500  
G82 X-1.5000 Y1.2500  
G82 X-1.5000 Y1.6500  
G82 X-1.6000 Y1.8000  
G82 X-1.6000 Y1.9500  
G82 X-1.8500 Y1.9500  
G82 X-1.8500 Y1.5500  
G82 X-2.0500 Y1.2600  
G82 X-1.2000 Y1.8000  
G82 X-1.2000 Y1.9500  
G82 X-0.7500 Y1.7500  
G82 X-0.6500 Y1.5500  
G82 X-0.3500 Y1.5500  
G82 X-0.3500 Y1.7500  
M05
G00 Z3.0000  
G00 X0.0000  Y0.0000  
M06 T04  ; 0.0400  
G01 Z0.0000  F20    
M06 
G00 Z0.0500  
M03
G04 P0.000000
G82 X-0.2000 Y0.2500  Z-0.0730 F20    R0.0500  P0.010000
G82 X-0.2000 Y0.3500  
G82 X-0.3000 Y0.3500  
G82 X-0.3000 Y0.2500  
G82 X-0.4000 Y0.2500  
G82 X-0.4000 Y0.3500  
G82 X-0.5000 Y0.3500  
G82 X-0.5000 Y0.2500  
G82 X-0.6000 Y0.2500  
G82 X-0.6000 Y0.3500  
G82 X-0.7000 Y0.3500  
G82 X-0.7000 Y0.2500  
G82 X-0.8000 Y0.2500  
G82 X-0.8000 Y0.3500  
G82 X-0.9000 Y0.3500  
G82 X-0.9000 Y0.2500  
G82 X-1.4000 Y0.6000  
G82 X-2.1500 Y0.6500  
G82 X-2.0300 Y1.4100  
G82 X-1.0500 Y1.9500  
G82 X-0.5500 Y1.9500  
G82 X-0.4500 Y1.4000  
G82 X-0.3000 Y0.9000  
T01 
G00 Z1.0000  
M05
M02
