(/Applications/pcbgcode.repo/pcb-gcode.ulp)
(Copyright 2005 - 2012 by John Johnson)
(See readme.txt for licensing terms.)
(This file generated from the board:)
(.../SpringReverbDriver/drive_and_recover.brd)
(Current profile is .../pcbgcode.repo/profiles/mach.pp  )
(This file generated 1/8/15 5:53 PM)
(Settings from pcb-machine.h)
(spindle on time = 0.0000)
(  Tool Size)
(0.0103  )
(spindle speed = 30000.0000)
(tool change at 0.0000  0.0000  3.0000  )
(feed rate xy = F20    )
(feed rate z  = F10    )
(Z Axis Settings)
(  High     Up        Down     Drill)
(1.0000  	0.0500  	-0.0035 	-0.0730 )
(Settings from pcb-defaults.h)
(isolate min = 0.0010)
(isolate max = 0.0050)
(isolate step = 0.0010)
(Generated bottom outlines, bottom drill, )
(Unit of measure: inch)
(Inch Mode)
G20
(Absolute Coordinates)
G90
S30000
G00 Z1.0000  
G00 X0.0000  Y0.0000  
M03
G04 P0.000000
G00 Z0.0500  
G00 X-0.1024 Y0.0912  
G01 Z-0.0035 F10    
G01 X-0.1044 Y0.0893  F20    
G01 X-0.1062 Y0.0874  
G01 X-0.1064 Y0.0873  
G01 X-0.1066 Y0.0871  
G01 X-0.1090 Y0.0858  
G01 X-0.1113 Y0.0844  
G01 X-0.1115 Y0.0844  
G01 X-0.1117 Y0.0843  
G01 X-0.1143 Y0.0836  
G01 X-0.1169 Y0.0829  
G01 X-0.1171 Y0.0829  
G01 X-0.1174 Y0.0828  
G01 X-0.1200 Y0.0828  
G01 X-0.1227 Y0.0828  
G01 X-0.1229 Y0.0829  
G01 X-0.9385 Y0.0928  
G01 X-0.9397 Y0.0927  
G01 X-0.9414 Y0.0929  
G01 X-0.9432 Y0.0929  
G01 X-0.9443 Y0.0932  
G01 X-0.9455 Y0.0934  
G01 X-0.9471 Y0.0940  
G01 X-0.9488 Y0.0945  
G01 X-0.9498 Y0.0951  
G01 X-0.9509 Y0.0955  
G01 X-0.9523 Y0.0966  
G01 X-0.9538 Y0.0974  
G01 X-0.9546 Y0.0983  
G01 X-0.9556 Y0.0990  
G01 X-0.9567 Y0.1004  
G01 X-0.9579 Y0.1016  
G01 X-0.9585 Y0.1027  
G01 X-1.1270 Y0.3167  
G01 X-1.1823 Y0.2614  
G01 X-1.1864 Y0.2573  
G01 X-1.1915 Y0.2544  
G01 X-1.1971 Y0.2529  
G01 X-1.2982 Y0.2529  
G01 X-1.2992 Y0.2527  
G01 X-1.3011 Y0.2529  
G01 X-1.3029 Y0.2529  
G01 X-1.3040 Y0.2531  
G01 X-1.3050 Y0.2532  
G01 X-1.3068 Y0.2539  
G01 X-1.3085 Y0.2544  
G01 X-1.3095 Y0.2549  
G01 X-1.3105 Y0.2553  
G01 X-1.3120 Y0.2564  
G01 X-1.3136 Y0.2573  
G01 X-1.3144 Y0.2580  
G01 X-1.3771 Y0.3029  
G01 X-1.7279 Y0.3029  
G01 X-1.7335 Y0.3044  
G01 X-1.7386 Y0.3073  
G01 X-1.7427 Y0.3114  
G01 X-1.8894 Y0.4581  
G01 X-1.8899 Y0.4579  
G01 X-1.8966 Y0.4569  
G01 X-1.9034 Y0.4569  
G01 X-1.9101 Y0.4579  
G01 X-1.9166 Y0.4600  
G01 X-1.9226 Y0.4631  
G01 X-1.9281 Y0.4671  
G01 X-1.9329 Y0.4719  
G01 X-1.9369 Y0.4774  
G01 X-1.9371 Y0.4779  
G01 X-2.0029 Y0.4779  
G01 X-2.0085 Y0.4794  
G01 X-2.0136 Y0.4823  
G01 X-2.1327 Y0.6014  
G01 X-2.1702 Y0.6014  
G01 X-2.1986 Y0.6298  
G01 X-2.1986 Y0.6702  
G01 X-2.1702 Y0.6986  
G01 X-2.1298 Y0.6986  
G01 X-2.1014 Y0.6702  
G01 X-2.1014 Y0.6327  
G01 X-1.9908 Y0.5221  
G01 X-1.9371 Y0.5221  
G01 X-1.9369 Y0.5226  
G01 X-1.9329 Y0.5281  
G01 X-1.9281 Y0.5329  
G01 X-1.9226 Y0.5369  
G01 X-1.9166 Y0.5400  
G01 X-1.9101 Y0.5421  
G01 X-1.9034 Y0.5431  
G01 X-1.8966 Y0.5431  
G01 X-1.8899 Y0.5421  
G01 X-1.8834 Y0.5400  
G01 X-1.8774 Y0.5369  
G01 X-1.8719 Y0.5329  
G01 X-1.8671 Y0.5281  
G01 X-1.8631 Y0.5226  
G01 X-1.8600 Y0.5166  
G01 X-1.8579 Y0.5101  
G01 X-1.8569 Y0.5034  
G01 X-1.8569 Y0.4966  
G01 X-1.8579 Y0.4899  
G01 X-1.8581 Y0.4894  
G01 X-1.7158 Y0.3471  
G01 X-1.4212 Y0.3471  
G01 X-1.6846 Y0.6279  
G01 X-1.7529 Y0.6279  
G01 X-1.7585 Y0.6294  
G01 X-1.7636 Y0.6323  
G01 X-1.9601 Y0.8287  
G01 X-2.0154 Y0.8343  
G01 X-2.0171 Y0.8319  
G01 X-2.0219 Y0.8271  
G01 X-2.0274 Y0.8231  
G01 X-2.0334 Y0.8200  
G01 X-2.0399 Y0.8179  
G01 X-2.0466 Y0.8169  
G01 X-2.0534 Y0.8169  
G01 X-2.0601 Y0.8179  
G01 X-2.0666 Y0.8200  
G01 X-2.0726 Y0.8231  
G01 X-2.0781 Y0.8271  
G01 X-2.0829 Y0.8319  
G01 X-2.0869 Y0.8374  
G01 X-2.0900 Y0.8434  
G01 X-2.0921 Y0.8499  
G01 X-2.0931 Y0.8566  
G01 X-2.0931 Y0.8634  
G01 X-2.0921 Y0.8701  
G01 X-2.0900 Y0.8766  
G01 X-2.0869 Y0.8826  
G01 X-2.0829 Y0.8881  
G01 X-2.0781 Y0.8929  
G01 X-2.0726 Y0.8969  
G01 X-2.0666 Y0.9000  
G01 X-2.0601 Y0.9021  
G01 X-2.0534 Y0.9031  
G01 X-2.0466 Y0.9031  
G01 X-2.0399 Y0.9021  
G01 X-2.0334 Y0.9000  
G01 X-2.0274 Y0.8969  
G01 X-2.0219 Y0.8929  
G01 X-2.0171 Y0.8881  
G01 X-2.0131 Y0.8826  
G01 X-2.0109 Y0.8784  
G01 X-1.9489 Y0.8721  
G01 X-1.9471 Y0.8721  
G01 X-1.9460 Y0.8719  
G01 X-1.9449 Y0.8717  
G01 X-1.9432 Y0.8711  
G01 X-1.9415 Y0.8706  
G01 X-1.9405 Y0.8701  
G01 X-1.9394 Y0.8697  
G01 X-1.9380 Y0.8686  
G01 X-1.9364 Y0.8677  
G01 X-1.9356 Y0.8669  
G01 X-1.9347 Y0.8663  
G01 X-1.9336 Y0.8649  
G01 X-1.7408 Y0.6721  
G01 X-1.6776 Y0.6721  
G01 X-1.6772 Y0.6722  
G01 X-1.6746 Y0.6721  
G01 X-1.5817 Y0.6721  
G01 X-1.5800 Y0.6746  
G01 X-1.5746 Y0.6800  
G01 X-1.5683 Y0.6843  
G01 X-1.5613 Y0.6872  
G01 X-1.5538 Y0.6886  
G01 X-1.5462 Y0.6886  
G01 X-1.5387 Y0.6872  
G01 X-1.5317 Y0.6843  
G01 X-1.5254 Y0.6800  
G01 X-1.5200 Y0.6746  
G01 X-1.5183 Y0.6721  
G01 X-1.4471 Y0.6721  
G01 X-1.4415 Y0.6706  
G01 X-1.4364 Y0.6677  
G01 X-1.4173 Y0.6486  
G01 X-1.3798 Y0.6486  
G01 X-1.3514 Y0.6202  
G01 X-1.3514 Y0.5798  
G01 X-1.3798 Y0.5514  
G01 X-1.4202 Y0.5514  
G01 X-1.4486 Y0.5798  
G01 X-1.4486 Y0.6173  
G01 X-1.4592 Y0.6279  
G01 X-1.5183 Y0.6279  
G01 X-1.5200 Y0.6254  
G01 X-1.5254 Y0.6200  
G01 X-1.5317 Y0.6157  
G01 X-1.5387 Y0.6128  
G01 X-1.5462 Y0.6114  
G01 X-1.5538 Y0.6114  
G01 X-1.5613 Y0.6128  
G01 X-1.5683 Y0.6157  
G01 X-1.5746 Y0.6200  
G01 X-1.5800 Y0.6254  
G01 X-1.5817 Y0.6279  
G01 X-1.6238 Y0.6279  
G01 X-1.3553 Y0.3418  
G01 X-1.2929 Y0.2971  
G01 X-1.2092 Y0.2971  
G01 X-1.1427 Y0.3636  
G01 X-1.1418 Y0.3645  
G01 X-1.1410 Y0.3656  
G01 X-1.1397 Y0.3666  
G01 X-1.0636 Y0.4427  
G01 X-1.0585 Y0.4456  
G01 X-1.0529 Y0.4471  
G01 X-0.8452 Y0.4471  
G01 X-0.8425 Y0.4472  
G01 X-0.8423 Y0.4471  
G01 X-0.8421 Y0.4471  
G01 X-0.8394 Y0.4464  
G01 X-0.8368 Y0.4458  
G01 X-0.8366 Y0.4457  
G01 X-0.8365 Y0.4456  
G01 X-0.8341 Y0.4443  
G01 X-0.8317 Y0.4430  
G01 X-0.8316 Y0.4428  
G01 X-0.8314 Y0.4427  
G01 X-0.8295 Y0.4408  
G01 X-0.8275 Y0.4389  
G01 X-0.8274 Y0.4387  
G01 X-0.8273 Y0.4386  
G01 X-0.8259 Y0.4362  
G01 X-0.8001 Y0.3931  
G01 X-0.7821 Y0.3931  
G01 X-0.7611 Y0.3721  
G01 X-0.7389 Y0.3721  
G01 X-0.7179 Y0.3931  
G01 X-0.6821 Y0.3931  
G01 X-0.6611 Y0.3721  
G01 X-0.6389 Y0.3721  
G01 X-0.6179 Y0.3931  
G01 X-0.5821 Y0.3931  
G01 X-0.5569 Y0.3679  
G01 X-0.5569 Y0.3321  
G01 X-0.5779 Y0.3111  
G01 X-0.5779 Y0.2889  
G01 X-0.5569 Y0.2679  
G01 X-0.5569 Y0.2321  
G01 X-0.5821 Y0.2069  
G01 X-0.6179 Y0.2069  
G01 X-0.6389 Y0.2279  
G01 X-0.6611 Y0.2279  
G01 X-0.6821 Y0.2069  
G01 X-0.7179 Y0.2069  
G01 X-0.7389 Y0.2279  
G01 X-0.7611 Y0.2279  
G01 X-0.7821 Y0.2069  
G01 X-0.8179 Y0.2069  
G01 X-0.8431 Y0.2321  
G01 X-0.8431 Y0.2679  
G01 X-0.8179 Y0.2931  
G01 X-0.7821 Y0.2931  
G01 X-0.7611 Y0.2721  
G01 X-0.7389 Y0.2721  
G01 X-0.7179 Y0.2931  
G01 X-0.6821 Y0.2931  
G01 X-0.6611 Y0.2721  
G01 X-0.6389 Y0.2721  
G01 X-0.6221 Y0.2889  
G01 X-0.6221 Y0.3111  
G01 X-0.6389 Y0.3279  
G01 X-0.6611 Y0.3279  
G01 X-0.6821 Y0.3069  
G01 X-0.7179 Y0.3069  
G01 X-0.7389 Y0.3279  
G01 X-0.7611 Y0.3279  
G01 X-0.7821 Y0.3069  
G01 X-0.8179 Y0.3069  
G01 X-0.8431 Y0.3321  
G01 X-0.8431 Y0.3679  
G01 X-0.8390 Y0.3720  
G01 X-0.8575 Y0.4029  
G01 X-1.0408 Y0.4029  
G01 X-1.0954 Y0.3482  
G01 X-0.9291 Y0.1370  
G01 X-0.1328 Y0.1273  
G01 X-0.0773 Y0.2256  
G01 X-0.0970 Y0.9681  
G01 X-0.2625 Y1.2187  
G01 X-0.2666 Y1.2200  
G01 X-0.2726 Y1.2231  
G01 X-0.2781 Y1.2271  
G01 X-0.2829 Y1.2319  
G01 X-0.2869 Y1.2374  
G01 X-0.2900 Y1.2434  
G01 X-0.2921 Y1.2499  
G01 X-0.2931 Y1.2566  
G01 X-0.2931 Y1.2634  
G01 X-0.2921 Y1.2701  
G01 X-0.2900 Y1.2766  
G01 X-0.2869 Y1.2826  
G01 X-0.2829 Y1.2881  
G01 X-0.2781 Y1.2929  
G01 X-0.2726 Y1.2969  
G01 X-0.2666 Y1.3000  
G01 X-0.2645 Y1.3007  
G01 X-0.2620 Y1.3128  
G01 X-0.2619 Y1.3142  
G01 X-0.2614 Y1.3157  
G01 X-0.2611 Y1.3172  
G01 X-0.2605 Y1.3185  
G01 X-0.2571 Y1.3286  
G01 X-0.2571 Y1.6630  
G01 X-0.3311 Y1.7112  
G01 X-0.3334 Y1.7100  
G01 X-0.3399 Y1.7079  
G01 X-0.3466 Y1.7069  
G01 X-0.3534 Y1.7069  
G01 X-0.3601 Y1.7079  
G01 X-0.3666 Y1.7100  
G01 X-0.3726 Y1.7131  
G01 X-0.3781 Y1.7171  
G01 X-0.3829 Y1.7219  
G01 X-0.3869 Y1.7274  
G01 X-0.3900 Y1.7334  
G01 X-0.3921 Y1.7399  
G01 X-0.3931 Y1.7466  
G01 X-0.3931 Y1.7534  
G01 X-0.3921 Y1.7601  
G01 X-0.3919 Y1.7606  
G01 X-0.5327 Y1.9014  
G01 X-0.5702 Y1.9014  
G01 X-0.5986 Y1.9298  
G01 X-0.5986 Y1.9702  
G01 X-0.5702 Y1.9986  
G01 X-0.5298 Y1.9986  
G01 X-0.5014 Y1.9702  
G01 X-0.5014 Y1.9327  
G01 X-0.3606 Y1.7919  
G01 X-0.3601 Y1.7921  
G01 X-0.3534 Y1.7931  
G01 X-0.3466 Y1.7931  
G01 X-0.3399 Y1.7921  
G01 X-0.3334 Y1.7900  
G01 X-0.3274 Y1.7869  
G01 X-0.3219 Y1.7829  
G01 X-0.3171 Y1.7781  
G01 X-0.3131 Y1.7726  
G01 X-0.3100 Y1.7666  
G01 X-0.3079 Y1.7601  
G01 X-0.3069 Y1.7534  
G01 X-0.3069 Y1.7483  
G01 X-0.2234 Y1.6939  
G01 X-0.2214 Y1.6927  
G01 X-0.2210 Y1.6923  
G01 X-0.2205 Y1.6920  
G01 X-0.2189 Y1.6902  
G01 X-0.2173 Y1.6886  
G01 X-0.2170 Y1.6881  
G01 X-0.2166 Y1.6876  
G01 X-0.2155 Y1.6856  
G01 X-0.2144 Y1.6835  
G01 X-0.2142 Y1.6830  
G01 X-0.2139 Y1.6824  
G01 X-0.2134 Y1.6802  
G01 X-0.2129 Y1.6779  
G01 X-0.2129 Y1.6773  
G01 X-0.2127 Y1.6767  
G01 X-0.2129 Y1.6744  
G01 X-0.2129 Y1.3272  
G01 X-0.2127 Y1.3266  
G01 X-0.2129 Y1.3243  
G01 X-0.2129 Y1.3221  
G01 X-0.2130 Y1.3214  
G01 X-0.2131 Y1.3208  
G01 X-0.2138 Y1.3186  
G01 X-0.2144 Y1.3165  
G01 X-0.2147 Y1.3159  
G01 X-0.2186 Y1.3043  
G01 X-0.2210 Y1.2920  
G01 X-0.2171 Y1.2881  
G01 X-0.2131 Y1.2826  
G01 X-0.2100 Y1.2766  
G01 X-0.2079 Y1.2701  
G01 X-0.2069 Y1.2634  
G01 X-0.2069 Y1.2566  
G01 X-0.2079 Y1.2499  
G01 X-0.2100 Y1.2434  
G01 X-0.2131 Y1.2374  
G01 X-0.2171 Y1.2319  
G01 X-0.2177 Y1.2313  
G01 X-0.0579 Y0.9893  
G01 X-0.0576 Y0.9891  
G01 X-0.0563 Y0.9869  
G01 X-0.0549 Y0.9848  
G01 X-0.0548 Y0.9844  
G01 X-0.0546 Y0.9841  
G01 X-0.0539 Y0.9817  
G01 X-0.0531 Y0.9792  
G01 X-0.0530 Y0.9789  
G01 X-0.0529 Y0.9785  
G01 X-0.0529 Y0.9760  
G01 X-0.0527 Y0.9734  
G01 X-0.0528 Y0.9730  
G01 X-0.0329 Y0.2233  
G01 X-0.0329 Y0.2231  
G01 X-0.0329 Y0.2204  
G01 X-0.0328 Y0.2177  
G01 X-0.0328 Y0.2175  
G01 X-0.0328 Y0.2173  
G01 X-0.0335 Y0.2146  
G01 X-0.0341 Y0.2120  
G01 X-0.0342 Y0.2118  
G01 X-0.0343 Y0.2116  
G01 X-0.0356 Y0.2093  
G01 X-0.0369 Y0.2069  
G01 X-0.0371 Y0.2067  
G01 X-0.0994 Y0.0964  
G01 X-0.0995 Y0.0962  
G01 X-0.1008 Y0.0939  
G01 X-0.1022 Y0.0916  
G01 X-0.1023 Y0.0914  
G01 X-0.1024 Y0.0912  
G00 Z0.0500  
G00 X-0.1575 Y0.1511  
G01 Z-0.0035 F10    
G01 X-0.1595 Y0.1492  F20    
G01 X-0.1614 Y0.1473  
G01 X-0.1615 Y0.1472  
G01 X-0.1617 Y0.1471  
G01 X-0.1641 Y0.1457  
G01 X-0.1665 Y0.1444  
G01 X-0.1666 Y0.1443  
G01 X-0.1668 Y0.1442  
G01 X-0.1694 Y0.1436  
G01 X-0.1721 Y0.1429  
G01 X-0.1722 Y0.1429  
G01 X-0.1724 Y0.1428  
G01 X-0.1752 Y0.1429  
G01 X-0.1779 Y0.1429  
G01 X-0.1781 Y0.1429  
G01 X-0.8550 Y0.1528  
G01 X-0.8575 Y0.1528  
G01 X-0.8579 Y0.1529  
G01 X-0.8582 Y0.1529  
G01 X-0.8607 Y0.1536  
G01 X-0.8632 Y0.1542  
G01 X-0.8635 Y0.1544  
G01 X-0.8639 Y0.1545  
G01 X-0.8661 Y0.1558  
G01 X-0.8683 Y0.1570  
G01 X-0.8686 Y0.1573  
G01 X-0.8689 Y0.1575  
G01 X-0.8706 Y0.1593  
G01 X-0.8725 Y0.1611  
G01 X-0.8727 Y0.1614  
G01 X-0.8729 Y0.1617  
G01 X-0.8742 Y0.1639  
G01 X-0.8999 Y0.2069  
G01 X-0.9179 Y0.2069  
G01 X-0.9431 Y0.2321  
G01 X-0.9431 Y0.2679  
G01 X-0.9221 Y0.2889  
G01 X-0.9221 Y0.3111  
G01 X-0.9431 Y0.3321  
G01 X-0.9431 Y0.3679  
G01 X-0.9179 Y0.3931  
G01 X-0.8821 Y0.3931  
G01 X-0.8569 Y0.3679  
G01 X-0.8569 Y0.3321  
G01 X-0.8779 Y0.3111  
G01 X-0.8779 Y0.2889  
G01 X-0.8569 Y0.2679  
G01 X-0.8569 Y0.2321  
G01 X-0.8610 Y0.2280  
G01 X-0.8423 Y0.1970  
G01 X-0.1840 Y0.1873  
G01 X-0.1371 Y0.2342  
G01 X-0.1371 Y0.3855  
G01 X-0.3080 Y0.5471  
G01 X-0.5211 Y0.5281  
G01 X-0.5221 Y0.5279  
G01 X-0.5240 Y0.5279  
G01 X-0.5259 Y0.5277  
G01 X-0.5269 Y0.5279  
G01 X-0.5279 Y0.5279  
G01 X-0.5298 Y0.5284  
G01 X-0.5317 Y0.5287  
G01 X-0.5326 Y0.5291  
G01 X-0.5335 Y0.5294  
G01 X-0.5352 Y0.5303  
G01 X-0.5370 Y0.5311  
G01 X-0.5377 Y0.5318  
G01 X-0.5386 Y0.5323  
G01 X-0.5400 Y0.5336  
G01 X-0.5415 Y0.5349  
G01 X-0.5420 Y0.5357  
G01 X-0.5982 Y0.5919  
G01 X-0.6032 Y0.5919  
G01 X-0.6094 Y0.5931  
G01 X-0.6152 Y0.5955  
G01 X-0.6205 Y0.5990  
G01 X-0.6250 Y0.6035  
G01 X-0.6285 Y0.6088  
G01 X-0.6309 Y0.6146  
G01 X-0.6321 Y0.6208  
G01 X-0.6321 Y0.6792  
G01 X-0.6309 Y0.6854  
G01 X-0.6285 Y0.6912  
G01 X-0.6250 Y0.6965  
G01 X-0.6221 Y0.6993  
G01 X-0.6221 Y0.7908  
G01 X-0.8136 Y0.9823  
G01 X-0.8177 Y0.9864  
G01 X-0.8992 Y1.0679  
G01 X-0.9032 Y1.0679  
G01 X-0.9094 Y1.0691  
G01 X-0.9152 Y1.0715  
G01 X-0.9205 Y1.0750  
G01 X-0.9250 Y1.0795  
G01 X-0.9285 Y1.0848  
G01 X-0.9309 Y1.0906  
G01 X-0.9321 Y1.0968  
G01 X-0.9321 Y1.1032  
G01 X-0.9309 Y1.1094  
G01 X-0.9285 Y1.1152  
G01 X-0.9250 Y1.1205  
G01 X-0.9205 Y1.1250  
G01 X-0.9152 Y1.1285  
G01 X-0.9094 Y1.1309  
G01 X-0.9032 Y1.1321  
G01 X-0.8968 Y1.1321  
G01 X-0.8906 Y1.1309  
G01 X-0.8848 Y1.1285  
G01 X-0.8795 Y1.1250  
G01 X-0.8750 Y1.1205  
G01 X-0.8715 Y1.1152  
G01 X-0.8691 Y1.1094  
G01 X-0.8679 Y1.1032  
G01 X-0.8679 Y1.0992  
G01 X-0.8000 Y1.0313  
G01 X-0.7419 Y1.0894  
G01 X-0.7421 Y1.0899  
G01 X-0.7431 Y1.0966  
G01 X-0.7431 Y1.1034  
G01 X-0.7421 Y1.1101  
G01 X-0.7400 Y1.1166  
G01 X-0.7369 Y1.1226  
G01 X-0.7329 Y1.1281  
G01 X-0.7281 Y1.1329  
G01 X-0.7226 Y1.1369  
G01 X-0.7166 Y1.1400  
G01 X-0.7101 Y1.1421  
G01 X-0.7034 Y1.1431  
G01 X-0.6966 Y1.1431  
G01 X-0.6899 Y1.1421  
G01 X-0.6834 Y1.1400  
G01 X-0.6774 Y1.1369  
G01 X-0.6719 Y1.1329  
G01 X-0.6671 Y1.1281  
G01 X-0.6631 Y1.1226  
G01 X-0.6600 Y1.1166  
G01 X-0.6579 Y1.1101  
G01 X-0.6569 Y1.1034  
G01 X-0.6569 Y1.0966  
G01 X-0.6579 Y1.0899  
G01 X-0.6600 Y1.0834  
G01 X-0.6631 Y1.0774  
G01 X-0.6671 Y1.0719  
G01 X-0.6719 Y1.0671  
G01 X-0.6774 Y1.0631  
G01 X-0.6834 Y1.0600  
G01 X-0.6899 Y1.0579  
G01 X-0.6966 Y1.0569  
G01 X-0.7034 Y1.0569  
G01 X-0.7101 Y1.0579  
G01 X-0.7106 Y1.0581  
G01 X-0.7687 Y1.0000  
G01 X-0.5823 Y0.8136  
G01 X-0.5794 Y0.8085  
G01 X-0.5779 Y0.8029  
G01 X-0.5779 Y0.6993  
G01 X-0.5750 Y0.6965  
G01 X-0.5715 Y0.6912  
G01 X-0.5691 Y0.6854  
G01 X-0.5679 Y0.6792  
G01 X-0.5679 Y0.6242  
G01 X-0.5167 Y0.5730  
G01 X-0.3042 Y0.5919  
G01 X-0.3035 Y0.5921  
G01 X-0.3013 Y0.5921  
G01 X-0.2991 Y0.5923  
G01 X-0.2984 Y0.5922  
G01 X-0.2977 Y0.5922  
G01 X-0.2955 Y0.5917  
G01 X-0.2933 Y0.5913  
G01 X-0.2927 Y0.5910  
G01 X-0.2920 Y0.5909  
G01 X-0.2901 Y0.5898  
G01 X-0.2880 Y0.5889  
G01 X-0.2875 Y0.5884  
G01 X-0.2869 Y0.5881  
G01 X-0.2853 Y0.5866  
G01 X-0.2835 Y0.5851  
G01 X-0.2832 Y0.5846  
G01 X-0.1017 Y0.4129  
G01 X-0.1014 Y0.4127  
G01 X-0.0996 Y0.4109  
G01 X-0.0977 Y0.4091  
G01 X-0.0975 Y0.4088  
G01 X-0.0973 Y0.4086  
G01 X-0.0960 Y0.4063  
G01 X-0.0946 Y0.4041  
G01 X-0.0945 Y0.4038  
G01 X-0.0944 Y0.4035  
G01 X-0.0937 Y0.4010  
G01 X-0.0929 Y0.3985  
G01 X-0.0929 Y0.3982  
G01 X-0.0929 Y0.3979  
G01 X-0.0929 Y0.3953  
G01 X-0.0928 Y0.3927  
G01 X-0.0929 Y0.3924  
G01 X-0.0929 Y0.2221  
G01 X-0.0944 Y0.2165  
G01 X-0.0973 Y0.2114  
G01 X-0.1014 Y0.2073  
G01 X-0.1574 Y0.1513  
G01 X-0.1575 Y0.1511  
G00 Z0.0500  
G00 X-0.1821 Y0.2069  
G01 Z-0.0035 F10    
G01 X-0.2179 Y0.2069  F20    
G01 X-0.2431 Y0.2321  
G01 X-0.2431 Y0.2679  
G01 X-0.2179 Y0.2931  
G01 X-0.1821 Y0.2931  
G01 X-0.1569 Y0.2679  
G01 X-0.1569 Y0.2321  
G01 X-0.1821 Y0.2069  
G00 Z0.0500  
G00 X-0.2569 Y0.2321  
G01 Z-0.0035 F10    
G01 X-0.2821 Y0.2069  F20    
G01 X-0.3179 Y0.2069  
G01 X-0.3431 Y0.2321  
G01 X-0.3431 Y0.2679  
G01 X-0.3179 Y0.2931  
G01 X-0.2821 Y0.2931  
G01 X-0.2569 Y0.2679  
G01 X-0.2569 Y0.2321  
G00 Z0.0500  
G00 X-0.3569 Y0.2321  
G01 Z-0.0035 F10    
G01 X-0.3821 Y0.2069  F20    
G01 X-0.4179 Y0.2069  
G01 X-0.4431 Y0.2321  
G01 X-0.4431 Y0.2679  
G01 X-0.4179 Y0.2931  
G01 X-0.3821 Y0.2931  
G01 X-0.3569 Y0.2679  
G01 X-0.3569 Y0.2321  
G00 Z0.0500  
G00 X-0.4569 Y0.2321  
G01 Z-0.0035 F10    
G01 X-0.4821 Y0.2069  F20    
G01 X-0.5179 Y0.2069  
G01 X-0.5431 Y0.2321  
G01 X-0.5431 Y0.2679  
G01 X-0.5221 Y0.2889  
G01 X-0.5221 Y0.3111  
G01 X-0.5431 Y0.3321  
G01 X-0.5431 Y0.3679  
G01 X-0.5364 Y0.3747  
G01 X-0.5693 Y0.4437  
G01 X-1.0569 Y0.4723  
G01 X-1.1896 Y0.3490  
G01 X-1.1914 Y0.3473  
G01 X-1.1918 Y0.3471  
G01 X-1.1921 Y0.3468  
G01 X-1.1943 Y0.3456  
G01 X-1.1965 Y0.3444  
G01 X-1.1969 Y0.3443  
G01 X-1.1972 Y0.3441  
G01 X-1.1997 Y0.3435  
G01 X-1.2021 Y0.3429  
G01 X-1.2025 Y0.3429  
G01 X-1.2029 Y0.3428  
G01 X-1.2054 Y0.3429  
G01 X-1.2537 Y0.3429  
G01 X-1.2552 Y0.3427  
G01 X-1.2566 Y0.3429  
G01 X-1.2579 Y0.3429  
G01 X-1.2594 Y0.3433  
G01 X-1.3268 Y0.3529  
G01 X-1.3285 Y0.3529  
G01 X-1.3297 Y0.3533  
G01 X-1.3310 Y0.3535  
G01 X-1.3325 Y0.3541  
G01 X-1.3341 Y0.3546  
G01 X-1.3352 Y0.3553  
G01 X-1.3364 Y0.3558  
G01 X-1.3377 Y0.3568  
G01 X-1.3390 Y0.3576  
G01 X-1.3399 Y0.3586  
G01 X-1.3410 Y0.3594  
G01 X-1.3419 Y0.3607  
G01 X-1.3431 Y0.3618  
G01 X-1.3437 Y0.3630  
G01 X-1.3445 Y0.3640  
G01 X-1.3451 Y0.3655  
G01 X-1.3458 Y0.3670  
G01 X-1.3462 Y0.3682  
G01 X-1.3466 Y0.3695  
G01 X-1.3468 Y0.3711  
G01 X-1.3472 Y0.3726  
G01 X-1.3472 Y0.3739  
G01 X-1.3473 Y0.3752  
G01 X-1.3471 Y0.3768  
G01 X-1.3374 Y0.7661  
G01 X-1.6082 Y1.0369  
G01 X-1.6609 Y1.0316  
G01 X-1.6631 Y1.0274  
G01 X-1.6671 Y1.0219  
G01 X-1.6719 Y1.0171  
G01 X-1.6774 Y1.0131  
G01 X-1.6834 Y1.0100  
G01 X-1.6899 Y1.0079  
G01 X-1.6966 Y1.0069  
G01 X-1.7034 Y1.0069  
G01 X-1.7101 Y1.0079  
G01 X-1.7166 Y1.0100  
G01 X-1.7226 Y1.0131  
G01 X-1.7281 Y1.0171  
G01 X-1.7329 Y1.0219  
G01 X-1.7369 Y1.0274  
G01 X-1.7400 Y1.0334  
G01 X-1.7421 Y1.0399  
G01 X-1.7431 Y1.0466  
G01 X-1.7431 Y1.0534  
G01 X-1.7421 Y1.0601  
G01 X-1.7419 Y1.0606  
G01 X-1.7677 Y1.0864  
G01 X-1.7706 Y1.0915  
G01 X-1.7721 Y1.0971  
G01 X-1.7721 Y1.4007  
G01 X-1.7750 Y1.4035  
G01 X-1.7785 Y1.4088  
G01 X-1.7809 Y1.4146  
G01 X-1.7821 Y1.4208  
G01 X-1.7821 Y1.4792  
G01 X-1.7809 Y1.4854  
G01 X-1.7785 Y1.4912  
G01 X-1.7750 Y1.4965  
G01 X-1.7705 Y1.5010  
G01 X-1.7652 Y1.5045  
G01 X-1.7594 Y1.5069  
G01 X-1.7532 Y1.5081  
G01 X-1.7468 Y1.5081  
G01 X-1.7406 Y1.5069  
G01 X-1.7348 Y1.5045  
G01 X-1.7295 Y1.5010  
G01 X-1.7250 Y1.4965  
G01 X-1.7215 Y1.4912  
G01 X-1.7191 Y1.4854  
G01 X-1.7179 Y1.4792  
G01 X-1.7179 Y1.4208  
G01 X-1.7191 Y1.4146  
G01 X-1.7215 Y1.4088  
G01 X-1.7250 Y1.4035  
G01 X-1.7279 Y1.4007  
G01 X-1.7279 Y1.1092  
G01 X-1.7106 Y1.0919  
G01 X-1.7101 Y1.0921  
G01 X-1.7034 Y1.0931  
G01 X-1.6966 Y1.0931  
G01 X-1.6899 Y1.0921  
G01 X-1.6834 Y1.0900  
G01 X-1.6774 Y1.0869  
G01 X-1.6719 Y1.0829  
G01 X-1.6671 Y1.0781  
G01 X-1.6654 Y1.0757  
G01 X-1.6040 Y1.0819  
G01 X-1.6029 Y1.0821  
G01 X-1.6011 Y1.0821  
G01 X-1.5993 Y1.0823  
G01 X-1.5982 Y1.0821  
G01 X-1.5971 Y1.0821  
G01 X-1.5953 Y1.0817  
G01 X-1.5935 Y1.0814  
G01 X-1.5925 Y1.0809  
G01 X-1.5915 Y1.0806  
G01 X-1.5899 Y1.0797  
G01 X-1.5882 Y1.0790  
G01 X-1.5874 Y1.0783  
G01 X-1.5864 Y1.0777  
G01 X-1.5851 Y1.0764  
G01 X-1.5837 Y1.0753  
G01 X-1.5831 Y1.0744  
G01 X-1.3012 Y0.7925  
G01 X-1.3010 Y0.7924  
G01 X-1.2999 Y0.7913  
G01 X-1.2988 Y0.7904  
G01 X-1.2981 Y0.7894  
G01 X-1.2973 Y0.7886  
G01 X-1.2971 Y0.7884  
G01 X-1.2969 Y0.7882  
G01 X-1.2962 Y0.7869  
G01 X-1.2237 Y0.6871  
G01 X-1.1663 Y0.6871  
G01 X-1.0971 Y0.7822  
G01 X-1.0971 Y1.2658  
G01 X-1.1992 Y1.3679  
G01 X-1.2032 Y1.3679  
G01 X-1.2094 Y1.3691  
G01 X-1.2152 Y1.3715  
G01 X-1.2205 Y1.3750  
G01 X-1.2250 Y1.3795  
G01 X-1.2285 Y1.3848  
G01 X-1.2309 Y1.3906  
G01 X-1.2321 Y1.3968  
G01 X-1.2321 Y1.4032  
G01 X-1.2309 Y1.4094  
G01 X-1.2285 Y1.4152  
G01 X-1.2250 Y1.4205  
G01 X-1.2205 Y1.4250  
G01 X-1.2152 Y1.4285  
G01 X-1.2094 Y1.4309  
G01 X-1.2032 Y1.4321  
G01 X-1.1968 Y1.4321  
G01 X-1.1906 Y1.4309  
G01 X-1.1848 Y1.4285  
G01 X-1.1795 Y1.4250  
G01 X-1.1750 Y1.4205  
G01 X-1.1715 Y1.4152  
G01 X-1.1691 Y1.4094  
G01 X-1.1679 Y1.4032  
G01 X-1.1679 Y1.3992  
G01 X-1.0614 Y1.2927  
G01 X-1.0573 Y1.2886  
G01 X-1.0544 Y1.2835  
G01 X-1.0529 Y1.2779  
G01 X-1.0529 Y0.7767  
G01 X-1.0527 Y0.7756  
G01 X-1.0529 Y0.7738  
G01 X-1.0529 Y0.7721  
G01 X-1.0532 Y0.7709  
G01 X-1.0533 Y0.7698  
G01 X-1.0539 Y0.7681  
G01 X-1.0544 Y0.7665  
G01 X-1.0549 Y0.7654  
G01 X-1.0554 Y0.7643  
G01 X-1.0564 Y0.7629  
G01 X-1.0573 Y0.7614  
G01 X-1.0581 Y0.7606  
G01 X-1.1364 Y0.6529  
G01 X-1.1373 Y0.6514  
G01 X-1.1381 Y0.6506  
G01 X-1.1388 Y0.6496  
G01 X-1.1402 Y0.6485  
G01 X-1.1414 Y0.6473  
G01 X-1.1424 Y0.6467  
G01 X-1.1433 Y0.6459  
G01 X-1.1449 Y0.6452  
G01 X-1.1465 Y0.6444  
G01 X-1.1476 Y0.6441  
G01 X-1.1487 Y0.6436  
G01 X-1.1504 Y0.6433  
G01 X-1.1521 Y0.6429  
G01 X-1.1533 Y0.6429  
G01 X-1.1544 Y0.6427  
G01 X-1.1562 Y0.6429  
G01 X-1.2338 Y0.6429  
G01 X-1.2356 Y0.6427  
G01 X-1.2367 Y0.6429  
G01 X-1.2379 Y0.6429  
G01 X-1.2396 Y0.6433  
G01 X-1.2413 Y0.6436  
G01 X-1.2424 Y0.6441  
G01 X-1.2435 Y0.6444  
G01 X-1.2451 Y0.6452  
G01 X-1.2467 Y0.6459  
G01 X-1.2476 Y0.6467  
G01 X-1.2486 Y0.6473  
G01 X-1.2498 Y0.6485  
G01 X-1.2512 Y0.6496  
G01 X-1.2519 Y0.6506  
G01 X-1.2527 Y0.6514  
G01 X-1.2536 Y0.6529  
G01 X-1.2945 Y0.7091  
G01 X-1.3024 Y0.3941  
G01 X-1.2534 Y0.3871  
G01 X-1.2137 Y0.3871  
G01 X-1.0820 Y0.5094  
G01 X-1.0819 Y0.5096  
G01 X-1.0799 Y0.5114  
G01 X-1.0779 Y0.5132  
G01 X-1.0777 Y0.5133  
G01 X-1.0775 Y0.5135  
G01 X-1.0751 Y0.5147  
G01 X-1.0728 Y0.5159  
G01 X-1.0725 Y0.5160  
G01 X-1.0723 Y0.5161  
G01 X-1.0697 Y0.5166  
G01 X-1.0671 Y0.5172  
G01 X-1.0668 Y0.5172  
G01 X-1.0666 Y0.5173  
G01 X-1.0639 Y0.5171  
G01 X-1.0613 Y0.5170  
G01 X-1.0610 Y0.5170  
G01 X-0.5564 Y0.4873  
G01 X-0.5562 Y0.4873  
G01 X-0.5535 Y0.4871  
G01 X-0.5508 Y0.4869  
G01 X-0.5506 Y0.4869  
G01 X-0.5504 Y0.4869  
G01 X-0.5478 Y0.4860  
G01 X-0.5453 Y0.4851  
G01 X-0.5451 Y0.4850  
G01 X-0.5449 Y0.4849  
G01 X-0.5426 Y0.4834  
G01 X-0.5404 Y0.4819  
G01 X-0.5402 Y0.4817  
G01 X-0.5401 Y0.4816  
G01 X-0.5383 Y0.4796  
G01 X-0.5365 Y0.4775  
G01 X-0.5364 Y0.4773  
G01 X-0.5363 Y0.4772  
G01 X-0.5351 Y0.4747  
G01 X-0.5339 Y0.4723  
G01 X-0.5339 Y0.4721  
G01 X-0.4961 Y0.3931  
G01 X-0.4821 Y0.3931  
G01 X-0.4569 Y0.3679  
G01 X-0.4569 Y0.3321  
G01 X-0.4779 Y0.3111  
G01 X-0.4779 Y0.2889  
G01 X-0.4569 Y0.2679  
G01 X-0.4569 Y0.2321  
G00 Z0.0500  
G00 X-0.4431 Y0.3321  
G01 Z-0.0035 F10    
G01 X-0.4431 Y0.3679  F20    
G01 X-0.4179 Y0.3931  
G01 X-0.3821 Y0.3931  
G01 X-0.3569 Y0.3679  
G01 X-0.3569 Y0.3321  
G01 X-0.3821 Y0.3069  
G01 X-0.4179 Y0.3069  
G01 X-0.4431 Y0.3321  
G00 Z0.0500  
G00 X-0.3431 Y0.3321  
G01 Z-0.0035 F10    
G01 X-0.3431 Y0.3679  F20    
G01 X-0.3179 Y0.3931  
G01 X-0.2821 Y0.3931  
G01 X-0.2569 Y0.3679  
G01 X-0.2569 Y0.3321  
G01 X-0.2821 Y0.3069  
G01 X-0.3179 Y0.3069  
G01 X-0.3431 Y0.3321  
G00 Z0.0500  
G00 X-0.2431 Y0.3321  
G01 Z-0.0035 F10    
G01 X-0.2431 Y0.3679  F20    
G01 X-0.2179 Y0.3931  
G01 X-0.1821 Y0.3931  
G01 X-0.1569 Y0.3679  
G01 X-0.1569 Y0.3321  
G01 X-0.1821 Y0.3069  
G01 X-0.2179 Y0.3069  
G01 X-0.2431 Y0.3321  
G00 Z0.0500  
G00 X-0.4351 Y0.6336  
G01 Z-0.0035 F10    
G01 X-0.4364 Y0.6323  F20    
G01 X-0.4374 Y0.6317  
G01 X-0.4382 Y0.6310  
G01 X-0.4399 Y0.6303  
G01 X-0.4415 Y0.6294  
G01 X-0.4425 Y0.6291  
G01 X-0.4435 Y0.6286  
G01 X-0.4453 Y0.6283  
G01 X-0.4471 Y0.6279  
G01 X-0.4482 Y0.6279  
G01 X-0.4493 Y0.6277  
G01 X-0.4511 Y0.6279  
G01 X-0.4679 Y0.6279  
G01 X-0.4679 Y0.6208  
G01 X-0.4691 Y0.6146  
G01 X-0.4715 Y0.6088  
G01 X-0.4750 Y0.6035  
G01 X-0.4795 Y0.5990  
G01 X-0.4848 Y0.5955  
G01 X-0.4906 Y0.5931  
G01 X-0.4968 Y0.5919  
G01 X-0.5032 Y0.5919  
G01 X-0.5094 Y0.5931  
G01 X-0.5152 Y0.5955  
G01 X-0.5205 Y0.5990  
G01 X-0.5250 Y0.6035  
G01 X-0.5285 Y0.6088  
G01 X-0.5309 Y0.6146  
G01 X-0.5321 Y0.6208  
G01 X-0.5321 Y0.6792  
G01 X-0.5309 Y0.6854  
G01 X-0.5285 Y0.6912  
G01 X-0.5250 Y0.6965  
G01 X-0.5205 Y0.7010  
G01 X-0.5152 Y0.7045  
G01 X-0.5094 Y0.7069  
G01 X-0.5032 Y0.7081  
G01 X-0.4968 Y0.7081  
G01 X-0.4906 Y0.7069  
G01 X-0.4848 Y0.7045  
G01 X-0.4795 Y0.7010  
G01 X-0.4750 Y0.6965  
G01 X-0.4715 Y0.6912  
G01 X-0.4691 Y0.6854  
G01 X-0.4679 Y0.6792  
G01 X-0.4679 Y0.6721  
G01 X-0.4579 Y0.6721  
G01 X-0.2008 Y0.8825  
G01 X-0.2444 Y1.0130  
G01 X-0.2894 Y1.0581  
G01 X-0.2899 Y1.0579  
G01 X-0.2966 Y1.0569  
G01 X-0.3034 Y1.0569  
G01 X-0.3101 Y1.0579  
G01 X-0.3166 Y1.0600  
G01 X-0.3226 Y1.0631  
G01 X-0.3281 Y1.0671  
G01 X-0.3329 Y1.0719  
G01 X-0.3369 Y1.0774  
G01 X-0.3400 Y1.0834  
G01 X-0.3421 Y1.0899  
G01 X-0.3431 Y1.0966  
G01 X-0.3431 Y1.1034  
G01 X-0.3421 Y1.1101  
G01 X-0.3400 Y1.1166  
G01 X-0.3371 Y1.1222  
G01 X-0.3535 Y1.1526  
G01 X-0.3539 Y1.1531  
G01 X-0.3548 Y1.1551  
G01 X-0.3559 Y1.1571  
G01 X-0.3561 Y1.1578  
G01 X-0.3564 Y1.1584  
G01 X-0.3567 Y1.1606  
G01 X-0.3572 Y1.1627  
G01 X-0.3572 Y1.1635  
G01 X-0.3573 Y1.1642  
G01 X-0.3571 Y1.1664  
G01 X-0.3571 Y1.1686  
G01 X-0.3568 Y1.1693  
G01 X-0.3472 Y1.2706  
G01 X-0.3473 Y1.2720  
G01 X-0.3469 Y1.2735  
G01 X-0.3468 Y1.2750  
G01 X-0.3463 Y1.2763  
G01 X-0.3271 Y1.3624  
G01 X-0.3271 Y1.4940  
G01 X-0.3564 Y1.5038  
G01 X-0.3585 Y1.5044  
G01 X-0.3591 Y1.5047  
G01 X-0.3598 Y1.5049  
G01 X-0.3616 Y1.5061  
G01 X-0.3636 Y1.5073  
G01 X-0.3641 Y1.5078  
G01 X-0.3646 Y1.5081  
G01 X-0.3661 Y1.5098  
G01 X-0.3666 Y1.5100  
G01 X-0.3726 Y1.5131  
G01 X-0.3781 Y1.5171  
G01 X-0.3829 Y1.5219  
G01 X-0.3869 Y1.5274  
G01 X-0.3900 Y1.5334  
G01 X-0.3921 Y1.5399  
G01 X-0.3931 Y1.5466  
G01 X-0.3931 Y1.5534  
G01 X-0.3921 Y1.5601  
G01 X-0.3900 Y1.5666  
G01 X-0.3869 Y1.5726  
G01 X-0.3829 Y1.5781  
G01 X-0.3781 Y1.5829  
G01 X-0.3726 Y1.5869  
G01 X-0.3666 Y1.5900  
G01 X-0.3601 Y1.5921  
G01 X-0.3534 Y1.5931  
G01 X-0.3466 Y1.5931  
G01 X-0.3399 Y1.5921  
G01 X-0.3334 Y1.5900  
G01 X-0.3274 Y1.5869  
G01 X-0.3219 Y1.5829  
G01 X-0.3171 Y1.5781  
G01 X-0.3131 Y1.5726  
G01 X-0.3100 Y1.5666  
G01 X-0.3079 Y1.5601  
G01 X-0.3069 Y1.5534  
G01 X-0.3069 Y1.5466  
G01 X-0.3079 Y1.5399  
G01 X-0.3095 Y1.5349  
G01 X-0.2986 Y1.5312  
G01 X-0.2965 Y1.5306  
G01 X-0.2959 Y1.5303  
G01 X-0.2952 Y1.5301  
G01 X-0.2934 Y1.5289  
G01 X-0.2914 Y1.5277  
G01 X-0.2909 Y1.5272  
G01 X-0.2904 Y1.5269  
G01 X-0.2889 Y1.5252  
G01 X-0.2873 Y1.5236  
G01 X-0.2869 Y1.5230  
G01 X-0.2865 Y1.5225  
G01 X-0.2855 Y1.5205  
G01 X-0.2844 Y1.5185  
G01 X-0.2842 Y1.5179  
G01 X-0.2839 Y1.5173  
G01 X-0.2834 Y1.5151  
G01 X-0.2829 Y1.5129  
G01 X-0.2829 Y1.5122  
G01 X-0.2827 Y1.5116  
G01 X-0.2829 Y1.5093  
G01 X-0.2829 Y1.3605  
G01 X-0.2827 Y1.3580  
G01 X-0.2829 Y1.3576  
G01 X-0.2829 Y1.3571  
G01 X-0.2835 Y1.3547  
G01 X-0.3031 Y1.2665  
G01 X-0.3123 Y1.1696  
G01 X-0.2981 Y1.1431  
G01 X-0.2966 Y1.1431  
G01 X-0.2899 Y1.1421  
G01 X-0.2834 Y1.1400  
G01 X-0.2774 Y1.1369  
G01 X-0.2719 Y1.1329  
G01 X-0.2671 Y1.1281  
G01 X-0.2631 Y1.1226  
G01 X-0.2600 Y1.1166  
G01 X-0.2579 Y1.1101  
G01 X-0.2569 Y1.1034  
G01 X-0.2569 Y1.0966  
G01 X-0.2579 Y1.0899  
G01 X-0.2581 Y1.0894  
G01 X-0.2098 Y1.0411  
G01 X-0.2081 Y1.0396  
G01 X-0.2078 Y1.0391  
G01 X-0.2073 Y1.0386  
G01 X-0.2061 Y1.0366  
G01 X-0.2049 Y1.0348  
G01 X-0.2047 Y1.0341  
G01 X-0.2044 Y1.0335  
G01 X-0.2038 Y1.0314  
G01 X-0.1543 Y0.8831  
G01 X-0.1536 Y0.8815  
G01 X-0.1534 Y0.8803  
G01 X-0.1531 Y0.8792  
G01 X-0.1530 Y0.8775  
G01 X-0.1527 Y0.8757  
G01 X-0.1528 Y0.8746  
G01 X-0.1527 Y0.8734  
G01 X-0.1531 Y0.8717  
G01 X-0.1533 Y0.8699  
G01 X-0.1537 Y0.8688  
G01 X-0.1539 Y0.8677  
G01 X-0.1547 Y0.8661  
G01 X-0.1553 Y0.8644  
G01 X-0.1560 Y0.8635  
G01 X-0.1565 Y0.8625  
G01 X-0.1577 Y0.8612  
G01 X-0.1587 Y0.8597  
G01 X-0.1596 Y0.8590  
G01 X-0.1604 Y0.8581  
G01 X-0.1618 Y0.8571  
G01 X-0.4351 Y0.6336  
G00 Z0.0500  
G00 X-0.6679 Y0.6208  
G01 Z-0.0035 F10    
G01 X-0.6691 Y0.6146  F20    
G01 X-0.6715 Y0.6088  
G01 X-0.6750 Y0.6035  
G01 X-0.6795 Y0.5990  
G01 X-0.6848 Y0.5955  
G01 X-0.6906 Y0.5931  
G01 X-0.6968 Y0.5919  
G01 X-0.7032 Y0.5919  
G01 X-0.7094 Y0.5931  
G01 X-0.7152 Y0.5955  
G01 X-0.7205 Y0.5990  
G01 X-0.7250 Y0.6035  
G01 X-0.7285 Y0.6088  
G01 X-0.7309 Y0.6146  
G01 X-0.7321 Y0.6208  
G01 X-0.7321 Y0.6279  
G01 X-0.9920 Y0.6279  
G01 X-1.1974 Y0.4567  
G01 X-1.1969 Y0.4534  
G01 X-1.1969 Y0.4466  
G01 X-1.1979 Y0.4399  
G01 X-1.2000 Y0.4334  
G01 X-1.2031 Y0.4274  
G01 X-1.2071 Y0.4219  
G01 X-1.2119 Y0.4171  
G01 X-1.2174 Y0.4131  
G01 X-1.2234 Y0.4100  
G01 X-1.2299 Y0.4079  
G01 X-1.2366 Y0.4069  
G01 X-1.2434 Y0.4069  
G01 X-1.2501 Y0.4079  
G01 X-1.2566 Y0.4100  
G01 X-1.2626 Y0.4131  
G01 X-1.2681 Y0.4171  
G01 X-1.2729 Y0.4219  
G01 X-1.2769 Y0.4274  
G01 X-1.2800 Y0.4334  
G01 X-1.2821 Y0.4399  
G01 X-1.2831 Y0.4466  
G01 X-1.2831 Y0.4534  
G01 X-1.2821 Y0.4601  
G01 X-1.2800 Y0.4666  
G01 X-1.2769 Y0.4726  
G01 X-1.2729 Y0.4781  
G01 X-1.2681 Y0.4829  
G01 X-1.2626 Y0.4869  
G01 X-1.2566 Y0.4900  
G01 X-1.2501 Y0.4921  
G01 X-1.2434 Y0.4931  
G01 X-1.2366 Y0.4931  
G01 X-1.2299 Y0.4921  
G01 X-1.2257 Y0.4907  
G01 X-1.0150 Y0.6664  
G01 X-1.0136 Y0.6677  
G01 X-1.0127 Y0.6682  
G01 X-1.0119 Y0.6689  
G01 X-1.0102 Y0.6697  
G01 X-1.0085 Y0.6706  
G01 X-1.0076 Y0.6709  
G01 X-1.0066 Y0.6713  
G01 X-1.0048 Y0.6717  
G01 X-1.0029 Y0.6721  
G01 X-1.0019 Y0.6721  
G01 X-1.0009 Y0.6723  
G01 X-0.9990 Y0.6721  
G01 X-0.7321 Y0.6721  
G01 X-0.7321 Y0.6792  
G01 X-0.7309 Y0.6854  
G01 X-0.7285 Y0.6912  
G01 X-0.7250 Y0.6965  
G01 X-0.7205 Y0.7010  
G01 X-0.7152 Y0.7045  
G01 X-0.7094 Y0.7069  
G01 X-0.7032 Y0.7081  
G01 X-0.6968 Y0.7081  
G01 X-0.6906 Y0.7069  
G01 X-0.6848 Y0.7045  
G01 X-0.6795 Y0.7010  
G01 X-0.6750 Y0.6965  
G01 X-0.6715 Y0.6912  
G01 X-0.6691 Y0.6854  
G01 X-0.6679 Y0.6792  
G01 X-0.6679 Y0.6208  
G00 Z0.0500  
G00 X-0.8671 Y0.7219  
G01 Z-0.0035 F10    
G01 X-0.8719 Y0.7171  F20    
G01 X-0.8774 Y0.7131  
G01 X-0.8834 Y0.7100  
G01 X-0.8899 Y0.7079  
G01 X-0.8966 Y0.7069  
G01 X-0.9034 Y0.7069  
G01 X-0.9101 Y0.7079  
G01 X-0.9166 Y0.7100  
G01 X-0.9226 Y0.7131  
G01 X-0.9281 Y0.7171  
G01 X-0.9329 Y0.7219  
G01 X-0.9369 Y0.7274  
G01 X-0.9400 Y0.7334  
G01 X-0.9421 Y0.7399  
G01 X-0.9431 Y0.7466  
G01 X-0.9431 Y0.7534  
G01 X-0.9421 Y0.7601  
G01 X-0.9400 Y0.7666  
G01 X-0.9369 Y0.7726  
G01 X-0.9329 Y0.7781  
G01 X-0.9281 Y0.7829  
G01 X-0.9226 Y0.7869  
G01 X-0.9221 Y0.7871  
G01 X-0.9221 Y0.9908  
G01 X-0.9886 Y1.0573  
G01 X-0.9927 Y1.0614  
G01 X-0.9956 Y1.0665  
G01 X-0.9971 Y1.0721  
G01 X-0.9971 Y1.3279  
G01 X-0.9956 Y1.3335  
G01 X-0.9927 Y1.3386  
G01 X-0.9321 Y1.3992  
G01 X-0.9321 Y1.4032  
G01 X-0.9309 Y1.4094  
G01 X-0.9285 Y1.4152  
G01 X-0.9250 Y1.4205  
G01 X-0.9205 Y1.4250  
G01 X-0.9152 Y1.4285  
G01 X-0.9094 Y1.4309  
G01 X-0.9032 Y1.4321  
G01 X-0.8992 Y1.4321  
G01 X-0.7677 Y1.5636  
G01 X-0.7636 Y1.5677  
G01 X-0.7585 Y1.5706  
G01 X-0.7529 Y1.5721  
G01 X-0.6871 Y1.5721  
G01 X-0.6869 Y1.5726  
G01 X-0.6829 Y1.5781  
G01 X-0.6781 Y1.5829  
G01 X-0.6726 Y1.5869  
G01 X-0.6666 Y1.5900  
G01 X-0.6601 Y1.5921  
G01 X-0.6534 Y1.5931  
G01 X-0.6466 Y1.5931  
G01 X-0.6399 Y1.5921  
G01 X-0.6334 Y1.5900  
G01 X-0.6274 Y1.5869  
G01 X-0.6219 Y1.5829  
G01 X-0.6171 Y1.5781  
G01 X-0.6131 Y1.5726  
G01 X-0.6100 Y1.5666  
G01 X-0.6079 Y1.5601  
G01 X-0.6069 Y1.5534  
G01 X-0.6069 Y1.5466  
G01 X-0.6079 Y1.5399  
G01 X-0.6100 Y1.5334  
G01 X-0.6131 Y1.5274  
G01 X-0.6171 Y1.5219  
G01 X-0.6219 Y1.5171  
G01 X-0.6274 Y1.5131  
G01 X-0.6334 Y1.5100  
G01 X-0.6399 Y1.5079  
G01 X-0.6466 Y1.5069  
G01 X-0.6534 Y1.5069  
G01 X-0.6601 Y1.5079  
G01 X-0.6666 Y1.5100  
G01 X-0.6726 Y1.5131  
G01 X-0.6781 Y1.5171  
G01 X-0.6829 Y1.5219  
G01 X-0.6869 Y1.5274  
G01 X-0.6871 Y1.5279  
G01 X-0.7408 Y1.5279  
G01 X-0.8679 Y1.4008  
G01 X-0.8679 Y1.3968  
G01 X-0.8691 Y1.3906  
G01 X-0.8715 Y1.3848  
G01 X-0.8750 Y1.3795  
G01 X-0.8795 Y1.3750  
G01 X-0.8848 Y1.3715  
G01 X-0.8906 Y1.3691  
G01 X-0.8968 Y1.3679  
G01 X-0.9008 Y1.3679  
G01 X-0.9529 Y1.3158  
G01 X-0.9529 Y1.0842  
G01 X-0.8823 Y1.0136  
G01 X-0.8794 Y1.0085  
G01 X-0.8779 Y1.0029  
G01 X-0.8779 Y0.7871  
G01 X-0.8774 Y0.7869  
G01 X-0.8719 Y0.7829  
G01 X-0.8671 Y0.7781  
G01 X-0.8631 Y0.7726  
G01 X-0.8600 Y0.7666  
G01 X-0.8579 Y0.7601  
G01 X-0.8569 Y0.7534  
G01 X-0.8569 Y0.7466  
G01 X-0.8579 Y0.7399  
G01 X-0.8600 Y0.7334  
G01 X-0.8631 Y0.7274  
G01 X-0.8671 Y0.7219  
G00 Z0.0500  
G00 X-1.1671 Y0.7219  
G01 Z-0.0035 F10    
G01 X-1.1719 Y0.7171  F20    
G01 X-1.1774 Y0.7131  
G01 X-1.1834 Y0.7100  
G01 X-1.1899 Y0.7079  
G01 X-1.1966 Y0.7069  
G01 X-1.2034 Y0.7069  
G01 X-1.2101 Y0.7079  
G01 X-1.2166 Y0.7100  
G01 X-1.2226 Y0.7131  
G01 X-1.2281 Y0.7171  
G01 X-1.2329 Y0.7219  
G01 X-1.2369 Y0.7274  
G01 X-1.2400 Y0.7334  
G01 X-1.2421 Y0.7399  
G01 X-1.2431 Y0.7466  
G01 X-1.2431 Y0.7534  
G01 X-1.2421 Y0.7601  
G01 X-1.2419 Y0.7606  
G01 X-1.4236 Y0.9423  
G01 X-1.4244 Y0.9431  
G01 X-1.4253 Y0.9437  
G01 X-1.4264 Y0.9451  
G01 X-1.6739 Y1.1926  
G01 X-1.6743 Y1.1929  
G01 X-1.6760 Y1.1947  
G01 X-1.6777 Y1.1964  
G01 X-1.6780 Y1.1968  
G01 X-1.6783 Y1.1971  
G01 X-1.6794 Y1.1993  
G01 X-1.6806 Y1.2015  
G01 X-1.6808 Y1.2019  
G01 X-1.6810 Y1.2023  
G01 X-1.6815 Y1.2047  
G01 X-1.6821 Y1.2071  
G01 X-1.6821 Y1.2076  
G01 X-1.6823 Y1.2080  
G01 X-1.6821 Y1.2105  
G01 X-1.6821 Y1.2129  
G01 X-1.6820 Y1.2134  
G01 X-1.6741 Y1.4027  
G01 X-1.6750 Y1.4035  
G01 X-1.6785 Y1.4088  
G01 X-1.6809 Y1.4146  
G01 X-1.6821 Y1.4208  
G01 X-1.6821 Y1.4792  
G01 X-1.6809 Y1.4854  
G01 X-1.6785 Y1.4912  
G01 X-1.6750 Y1.4965  
G01 X-1.6705 Y1.5010  
G01 X-1.6652 Y1.5045  
G01 X-1.6594 Y1.5069  
G01 X-1.6532 Y1.5081  
G01 X-1.6468 Y1.5081  
G01 X-1.6406 Y1.5069  
G01 X-1.6348 Y1.5045  
G01 X-1.6295 Y1.5010  
G01 X-1.6250 Y1.4965  
G01 X-1.6215 Y1.4912  
G01 X-1.6191 Y1.4854  
G01 X-1.6179 Y1.4792  
G01 X-1.6179 Y1.4208  
G01 X-1.6191 Y1.4146  
G01 X-1.6215 Y1.4088  
G01 X-1.6250 Y1.4035  
G01 X-1.6295 Y1.3990  
G01 X-1.6300 Y1.3987  
G01 X-1.6375 Y1.2188  
G01 X-1.4085 Y0.9898  
G01 X-1.3427 Y1.0437  
G01 X-1.3431 Y1.0466  
G01 X-1.3431 Y1.0534  
G01 X-1.3421 Y1.0601  
G01 X-1.3400 Y1.0666  
G01 X-1.3369 Y1.0726  
G01 X-1.3329 Y1.0781  
G01 X-1.3281 Y1.0829  
G01 X-1.3226 Y1.0869  
G01 X-1.3166 Y1.0900  
G01 X-1.3101 Y1.0921  
G01 X-1.3034 Y1.0931  
G01 X-1.2966 Y1.0931  
G01 X-1.2899 Y1.0921  
G01 X-1.2834 Y1.0900  
G01 X-1.2774 Y1.0869  
G01 X-1.2719 Y1.0829  
G01 X-1.2671 Y1.0781  
G01 X-1.2631 Y1.0726  
G01 X-1.2600 Y1.0666  
G01 X-1.2579 Y1.0601  
G01 X-1.2569 Y1.0534  
G01 X-1.2569 Y1.0466  
G01 X-1.2579 Y1.0399  
G01 X-1.2600 Y1.0334  
G01 X-1.2631 Y1.0274  
G01 X-1.2671 Y1.0219  
G01 X-1.2719 Y1.0171  
G01 X-1.2774 Y1.0131  
G01 X-1.2834 Y1.0100  
G01 X-1.2899 Y1.0079  
G01 X-1.2966 Y1.0069  
G01 X-1.3034 Y1.0069  
G01 X-1.3101 Y1.0079  
G01 X-1.3147 Y1.0094  
G01 X-1.3770 Y0.9584  
G01 X-1.2106 Y0.7919  
G01 X-1.2101 Y0.7921  
G01 X-1.2034 Y0.7931  
G01 X-1.1966 Y0.7931  
G01 X-1.1899 Y0.7921  
G01 X-1.1834 Y0.7900  
G01 X-1.1774 Y0.7869  
G01 X-1.1719 Y0.7829  
G01 X-1.1671 Y0.7781  
G01 X-1.1631 Y0.7726  
G01 X-1.1600 Y0.7666  
G01 X-1.1579 Y0.7601  
G01 X-1.1569 Y0.7534  
G01 X-1.1569 Y0.7466  
G01 X-1.1579 Y0.7399  
G01 X-1.1600 Y0.7334  
G01 X-1.1631 Y0.7274  
G01 X-1.1671 Y0.7219  
G00 Z0.0500  
G00 X-1.1666 Y0.8600  
G01 Z-0.0035 F10    
G01 X-1.1726 Y0.8631  F20    
G01 X-1.1781 Y0.8671  
G01 X-1.1829 Y0.8719  
G01 X-1.1869 Y0.8774  
G01 X-1.1900 Y0.8834  
G01 X-1.1921 Y0.8899  
G01 X-1.1931 Y0.8966  
G01 X-1.1931 Y0.9034  
G01 X-1.1921 Y0.9101  
G01 X-1.1919 Y0.9106  
G01 X-1.2177 Y0.9364  
G01 X-1.2206 Y0.9415  
G01 X-1.2221 Y0.9471  
G01 X-1.2221 Y1.0767  
G01 X-1.2233 Y1.0779  
G01 X-1.2529 Y1.0779  
G01 X-1.2585 Y1.0794  
G01 X-1.2636 Y1.0823  
G01 X-1.3337 Y1.1524  
G01 X-1.5215 Y1.1430  
G01 X-1.5221 Y1.1429  
G01 X-1.5244 Y1.1429  
G01 X-1.5268 Y1.1427  
G01 X-1.5274 Y1.1429  
G01 X-1.5279 Y1.1429  
G01 X-1.5302 Y1.1435  
G01 X-1.5325 Y1.1440  
G01 X-1.5330 Y1.1442  
G01 X-1.5335 Y1.1444  
G01 X-1.5356 Y1.1455  
G01 X-1.5377 Y1.1466  
G01 X-1.5381 Y1.1470  
G01 X-1.5386 Y1.1473  
G01 X-1.5403 Y1.1489  
G01 X-1.5420 Y1.1505  
G01 X-1.5423 Y1.1510  
G01 X-1.5989 Y1.2076  
G01 X-1.5992 Y1.2078  
G01 X-1.6009 Y1.2096  
G01 X-1.6027 Y1.2114  
G01 X-1.6029 Y1.2118  
G01 X-1.6032 Y1.2121  
G01 X-1.6044 Y1.2143  
G01 X-1.6056 Y1.2165  
G01 X-1.6057 Y1.2168  
G01 X-1.6059 Y1.2172  
G01 X-1.6065 Y1.2197  
G01 X-1.6071 Y1.2221  
G01 X-1.6071 Y1.2225  
G01 X-1.6072 Y1.2229  
G01 X-1.6071 Y1.2254  
G01 X-1.6071 Y1.2279  
G01 X-1.6070 Y1.2283  
G01 X-1.5975 Y1.4912  
G01 X-1.7092 Y1.6029  
G01 X-1.8828 Y1.6029  
G01 X-1.9874 Y1.4362  
G01 X-1.9814 Y1.4302  
G01 X-1.9814 Y1.3898  
G01 X-2.0098 Y1.3614  
G01 X-2.0141 Y1.3614  
G01 X-2.0231 Y1.2938  
G01 X-2.0219 Y1.2929  
G01 X-2.0171 Y1.2881  
G01 X-2.0131 Y1.2826  
G01 X-2.0100 Y1.2766  
G01 X-2.0079 Y1.2701  
G01 X-2.0069 Y1.2634  
G01 X-2.0069 Y1.2566  
G01 X-2.0079 Y1.2499  
G01 X-2.0100 Y1.2434  
G01 X-2.0131 Y1.2374  
G01 X-2.0171 Y1.2319  
G01 X-2.0219 Y1.2271  
G01 X-2.0274 Y1.2231  
G01 X-2.0334 Y1.2200  
G01 X-2.0399 Y1.2179  
G01 X-2.0466 Y1.2169  
G01 X-2.0534 Y1.2169  
G01 X-2.0601 Y1.2179  
G01 X-2.0666 Y1.2200  
G01 X-2.0726 Y1.2231  
G01 X-2.0781 Y1.2271  
G01 X-2.0829 Y1.2319  
G01 X-2.0869 Y1.2374  
G01 X-2.0900 Y1.2434  
G01 X-2.0921 Y1.2499  
G01 X-2.0931 Y1.2566  
G01 X-2.0931 Y1.2634  
G01 X-2.0921 Y1.2701  
G01 X-2.0900 Y1.2766  
G01 X-2.0869 Y1.2826  
G01 X-2.0829 Y1.2881  
G01 X-2.0781 Y1.2929  
G01 X-2.0726 Y1.2969  
G01 X-2.0670 Y1.2997  
G01 X-2.0578 Y1.3690  
G01 X-2.0786 Y1.3898  
G01 X-2.0786 Y1.4302  
G01 X-2.0502 Y1.4586  
G01 X-2.0256 Y1.4586  
G01 X-1.9140 Y1.6364  
G01 X-1.9127 Y1.6386  
G01 X-1.9124 Y1.6389  
G01 X-1.9122 Y1.6392  
G01 X-1.9104 Y1.6410  
G01 X-1.9086 Y1.6427  
G01 X-1.9082 Y1.6429  
G01 X-1.9079 Y1.6432  
G01 X-1.9057 Y1.6444  
G01 X-1.9035 Y1.6456  
G01 X-1.9031 Y1.6457  
G01 X-1.9028 Y1.6459  
G01 X-1.9003 Y1.6465  
G01 X-1.8979 Y1.6471  
G01 X-1.8975 Y1.6471  
G01 X-1.8971 Y1.6472  
G01 X-1.8946 Y1.6471  
G01 X-1.6971 Y1.6471  
G01 X-1.6915 Y1.6456  
G01 X-1.6864 Y1.6427  
G01 X-1.6823 Y1.6386  
G01 X-1.5611 Y1.5174  
G01 X-1.5608 Y1.5172  
G01 X-1.5591 Y1.5154  
G01 X-1.5573 Y1.5136  
G01 X-1.5571 Y1.5132  
G01 X-1.5568 Y1.5129  
G01 X-1.5556 Y1.5107  
G01 X-1.5544 Y1.5085  
G01 X-1.5543 Y1.5082  
G01 X-1.5541 Y1.5078  
G01 X-1.5535 Y1.5053  
G01 X-1.5529 Y1.5029  
G01 X-1.5529 Y1.5025  
G01 X-1.5528 Y1.5021  
G01 X-1.5529 Y1.4996  
G01 X-1.5529 Y1.4971  
G01 X-1.5530 Y1.4967  
G01 X-1.5625 Y1.2338  
G01 X-1.5163 Y1.1876  
G01 X-1.3285 Y1.1970  
G01 X-1.3279 Y1.1971  
G01 X-1.3256 Y1.1971  
G01 X-1.3232 Y1.1973  
G01 X-1.3226 Y1.1971  
G01 X-1.3221 Y1.1971  
G01 X-1.3198 Y1.1965  
G01 X-1.3175 Y1.1960  
G01 X-1.3170 Y1.1958  
G01 X-1.3165 Y1.1956  
G01 X-1.3144 Y1.1945  
G01 X-1.3123 Y1.1934  
G01 X-1.3119 Y1.1930  
G01 X-1.3114 Y1.1927  
G01 X-1.3097 Y1.1911  
G01 X-1.3080 Y1.1895  
G01 X-1.3077 Y1.1890  
G01 X-1.2408 Y1.1221  
G01 X-1.2233 Y1.1221  
G01 X-1.2205 Y1.1250  
G01 X-1.2152 Y1.1285  
G01 X-1.2094 Y1.1309  
G01 X-1.2032 Y1.1321  
G01 X-1.1968 Y1.1321  
G01 X-1.1906 Y1.1309  
G01 X-1.1848 Y1.1285  
G01 X-1.1795 Y1.1250  
G01 X-1.1750 Y1.1205  
G01 X-1.1715 Y1.1152  
G01 X-1.1691 Y1.1094  
G01 X-1.1679 Y1.1032  
G01 X-1.1679 Y1.0968  
G01 X-1.1691 Y1.0906  
G01 X-1.1715 Y1.0848  
G01 X-1.1750 Y1.0795  
G01 X-1.1779 Y1.0767  
G01 X-1.1779 Y0.9592  
G01 X-1.1606 Y0.9419  
G01 X-1.1601 Y0.9421  
G01 X-1.1534 Y0.9431  
G01 X-1.1466 Y0.9431  
G01 X-1.1399 Y0.9421  
G01 X-1.1334 Y0.9400  
G01 X-1.1274 Y0.9369  
G01 X-1.1219 Y0.9329  
G01 X-1.1171 Y0.9281  
G01 X-1.1131 Y0.9226  
G01 X-1.1100 Y0.9166  
G01 X-1.1079 Y0.9101  
G01 X-1.1069 Y0.9034  
G01 X-1.1069 Y0.8966  
G01 X-1.1079 Y0.8899  
G01 X-1.1100 Y0.8834  
G01 X-1.1131 Y0.8774  
G01 X-1.1171 Y0.8719  
G01 X-1.1219 Y0.8671  
G01 X-1.1274 Y0.8631  
G01 X-1.1334 Y0.8600  
G01 X-1.1399 Y0.8579  
G01 X-1.1466 Y0.8569  
G01 X-1.1534 Y0.8569  
G01 X-1.1601 Y0.8579  
G01 X-1.1666 Y0.8600  
G00 Z0.0500  
G00 X-1.1750 Y1.1795  
G01 Z-0.0035 F10    
G01 X-1.1795 Y1.1750  F20    
G01 X-1.1848 Y1.1715  
G01 X-1.1906 Y1.1691  
G01 X-1.1968 Y1.1679  
G01 X-1.2032 Y1.1679  
G01 X-1.2094 Y1.1691  
G01 X-1.2152 Y1.1715  
G01 X-1.2205 Y1.1750  
G01 X-1.2233 Y1.1779  
G01 X-1.2529 Y1.1779  
G01 X-1.2585 Y1.1794  
G01 X-1.2636 Y1.1823  
G01 X-1.3433 Y1.2619  
G01 X-1.3462 Y1.2614  
G01 X-1.3538 Y1.2614  
G01 X-1.3613 Y1.2628  
G01 X-1.3683 Y1.2657  
G01 X-1.3746 Y1.2700  
G01 X-1.3800 Y1.2754  
G01 X-1.3817 Y1.2779  
G01 X-1.4669 Y1.2779  
G01 X-1.4631 Y1.2726  
G01 X-1.4600 Y1.2666  
G01 X-1.4579 Y1.2601  
G01 X-1.4569 Y1.2534  
G01 X-1.4569 Y1.2466  
G01 X-1.4579 Y1.2399  
G01 X-1.4600 Y1.2334  
G01 X-1.4631 Y1.2274  
G01 X-1.4671 Y1.2219  
G01 X-1.4719 Y1.2171  
G01 X-1.4774 Y1.2131  
G01 X-1.4834 Y1.2100  
G01 X-1.4899 Y1.2079  
G01 X-1.4966 Y1.2069  
G01 X-1.5034 Y1.2069  
G01 X-1.5101 Y1.2079  
G01 X-1.5166 Y1.2100  
G01 X-1.5226 Y1.2131  
G01 X-1.5281 Y1.2171  
G01 X-1.5329 Y1.2219  
G01 X-1.5369 Y1.2274  
G01 X-1.5400 Y1.2334  
G01 X-1.5421 Y1.2399  
G01 X-1.5431 Y1.2466  
G01 X-1.5431 Y1.2534  
G01 X-1.5421 Y1.2601  
G01 X-1.5400 Y1.2666  
G01 X-1.5369 Y1.2726  
G01 X-1.5329 Y1.2781  
G01 X-1.5281 Y1.2829  
G01 X-1.5226 Y1.2869  
G01 X-1.5221 Y1.2871  
G01 X-1.5221 Y1.5208  
G01 X-1.6842 Y1.6829  
G01 X-1.9145 Y1.6829  
G01 X-2.1229 Y1.4271  
G01 X-2.1229 Y1.2386  
G01 X-2.1090 Y1.1971  
G01 X-1.8721 Y1.1971  
G01 X-1.8665 Y1.1956  
G01 X-1.8614 Y1.1927  
G01 X-1.8573 Y1.1886  
G01 X-1.8073 Y1.1386  
G01 X-1.8044 Y1.1335  
G01 X-1.8040 Y1.1321  
G01 X-1.7967 Y1.1321  
G01 X-1.7779 Y1.1133  
G01 X-1.7779 Y1.0867  
G01 X-1.7967 Y1.0679  
G01 X-1.8233 Y1.0679  
G01 X-1.8366 Y1.0811  
G01 X-1.8386 Y1.0823  
G01 X-1.8427 Y1.0864  
G01 X-1.8456 Y1.0915  
G01 X-1.8471 Y1.0971  
G01 X-1.8471 Y1.1158  
G01 X-1.8842 Y1.1529  
G01 X-2.1243 Y1.1529  
G01 X-2.1266 Y1.1527  
G01 X-2.1272 Y1.1529  
G01 X-2.1279 Y1.1529  
G01 X-2.1301 Y1.1534  
G01 X-2.1323 Y1.1539  
G01 X-2.1329 Y1.1542  
G01 X-2.1335 Y1.1544  
G01 X-2.1355 Y1.1555  
G01 X-2.1375 Y1.1565  
G01 X-2.1380 Y1.1569  
G01 X-2.1386 Y1.1573  
G01 X-2.1402 Y1.1589  
G01 X-2.1419 Y1.1604  
G01 X-2.1422 Y1.1609  
G01 X-2.1427 Y1.1614  
G01 X-2.1439 Y1.1634  
G01 X-2.1451 Y1.1652  
G01 X-2.1453 Y1.1659  
G01 X-2.1456 Y1.1665  
G01 X-2.1462 Y1.1686  
G01 X-2.1653 Y1.2259  
G01 X-2.1656 Y1.2265  
G01 X-2.1662 Y1.2286  
G01 X-2.1669 Y1.2308  
G01 X-2.1670 Y1.2314  
G01 X-2.1671 Y1.2321  
G01 X-2.1671 Y1.2343  
G01 X-2.1673 Y1.2366  
G01 X-2.1671 Y1.2372  
G01 X-2.1671 Y1.4339  
G01 X-2.1673 Y1.4357  
G01 X-2.1671 Y1.4368  
G01 X-2.1671 Y1.4379  
G01 X-2.1667 Y1.4396  
G01 X-2.1664 Y1.4414  
G01 X-2.1659 Y1.4424  
G01 X-2.1656 Y1.4435  
G01 X-2.1647 Y1.4451  
G01 X-2.1640 Y1.4467  
G01 X-2.1633 Y1.4476  
G01 X-2.1627 Y1.4486  
G01 X-2.1615 Y1.4499  
G01 X-1.9433 Y1.7176  
G01 X-1.9427 Y1.7186  
G01 X-1.9415 Y1.7199  
G01 X-1.9403 Y1.7213  
G01 X-1.9394 Y1.7219  
G01 X-1.9386 Y1.7227  
G01 X-1.9371 Y1.7236  
G01 X-1.9356 Y1.7247  
G01 X-1.9345 Y1.7251  
G01 X-1.9335 Y1.7256  
G01 X-1.9318 Y1.7261  
G01 X-1.9301 Y1.7267  
G01 X-1.9290 Y1.7269  
G01 X-1.9279 Y1.7271  
G01 X-1.9261 Y1.7271  
G01 X-1.9243 Y1.7273  
G01 X-1.9232 Y1.7271  
G01 X-1.6721 Y1.7271  
G01 X-1.6665 Y1.7256  
G01 X-1.6614 Y1.7227  
G01 X-1.4864 Y1.5477  
G01 X-1.4823 Y1.5436  
G01 X-1.4794 Y1.5385  
G01 X-1.4779 Y1.5329  
G01 X-1.4779 Y1.3221  
G01 X-1.3817 Y1.3221  
G01 X-1.3800 Y1.3246  
G01 X-1.3746 Y1.3300  
G01 X-1.3683 Y1.3343  
G01 X-1.3613 Y1.3372  
G01 X-1.3538 Y1.3386  
G01 X-1.3462 Y1.3386  
G01 X-1.3387 Y1.3372  
G01 X-1.3317 Y1.3343  
G01 X-1.3254 Y1.3300  
G01 X-1.3200 Y1.3246  
G01 X-1.3157 Y1.3183  
G01 X-1.3128 Y1.3113  
G01 X-1.3114 Y1.3038  
G01 X-1.3114 Y1.2962  
G01 X-1.3119 Y1.2933  
G01 X-1.2408 Y1.2221  
G01 X-1.2233 Y1.2221  
G01 X-1.2205 Y1.2250  
G01 X-1.2152 Y1.2285  
G01 X-1.2094 Y1.2309  
G01 X-1.2032 Y1.2321  
G01 X-1.1968 Y1.2321  
G01 X-1.1906 Y1.2309  
G01 X-1.1848 Y1.2285  
G01 X-1.1795 Y1.2250  
G01 X-1.1750 Y1.2205  
G01 X-1.1715 Y1.2152  
G01 X-1.1691 Y1.2094  
G01 X-1.1679 Y1.2032  
G01 X-1.1679 Y1.1968  
G01 X-1.1691 Y1.1906  
G01 X-1.1715 Y1.1848  
G01 X-1.1750 Y1.1795  
G00 Z0.0500  
G00 X-1.1750 Y1.2795  
G01 Z-0.0035 F10    
G01 X-1.1795 Y1.2750  F20    
G01 X-1.1848 Y1.2715  
G01 X-1.1906 Y1.2691  
G01 X-1.1968 Y1.2679  
G01 X-1.2032 Y1.2679  
G01 X-1.2094 Y1.2691  
G01 X-1.2152 Y1.2715  
G01 X-1.2205 Y1.2750  
G01 X-1.2250 Y1.2795  
G01 X-1.2285 Y1.2848  
G01 X-1.2309 Y1.2906  
G01 X-1.2321 Y1.2968  
G01 X-1.2321 Y1.3008  
G01 X-1.3092 Y1.3779  
G01 X-1.3183 Y1.3779  
G01 X-1.3200 Y1.3754  
G01 X-1.3254 Y1.3700  
G01 X-1.3317 Y1.3657  
G01 X-1.3387 Y1.3628  
G01 X-1.3462 Y1.3614  
G01 X-1.3538 Y1.3614  
G01 X-1.3613 Y1.3628  
G01 X-1.3683 Y1.3657  
G01 X-1.3746 Y1.3700  
G01 X-1.3800 Y1.3754  
G01 X-1.3843 Y1.3817  
G01 X-1.3872 Y1.3887  
G01 X-1.3886 Y1.3962  
G01 X-1.3886 Y1.4038  
G01 X-1.3872 Y1.4113  
G01 X-1.3843 Y1.4183  
G01 X-1.3800 Y1.4246  
G01 X-1.3746 Y1.4300  
G01 X-1.3721 Y1.4317  
G01 X-1.3721 Y1.7465  
G01 X-1.4581 Y1.6606  
G01 X-1.4579 Y1.6601  
G01 X-1.4569 Y1.6534  
G01 X-1.4569 Y1.6466  
G01 X-1.4579 Y1.6399  
G01 X-1.4600 Y1.6334  
G01 X-1.4631 Y1.6274  
G01 X-1.4671 Y1.6219  
G01 X-1.4719 Y1.6171  
G01 X-1.4774 Y1.6131  
G01 X-1.4834 Y1.6100  
G01 X-1.4899 Y1.6079  
G01 X-1.4966 Y1.6069  
G01 X-1.5034 Y1.6069  
G01 X-1.5101 Y1.6079  
G01 X-1.5166 Y1.6100  
G01 X-1.5226 Y1.6131  
G01 X-1.5281 Y1.6171  
G01 X-1.5329 Y1.6219  
G01 X-1.5369 Y1.6274  
G01 X-1.5400 Y1.6334  
G01 X-1.5421 Y1.6399  
G01 X-1.5431 Y1.6466  
G01 X-1.5431 Y1.6534  
G01 X-1.5421 Y1.6601  
G01 X-1.5400 Y1.6666  
G01 X-1.5369 Y1.6726  
G01 X-1.5329 Y1.6781  
G01 X-1.5281 Y1.6829  
G01 X-1.5226 Y1.6869  
G01 X-1.5166 Y1.6900  
G01 X-1.5101 Y1.6921  
G01 X-1.5034 Y1.6931  
G01 X-1.4966 Y1.6931  
G01 X-1.4899 Y1.6921  
G01 X-1.4894 Y1.6919  
G01 X-1.3677 Y1.8136  
G01 X-1.3636 Y1.8177  
G01 X-1.2886 Y1.8927  
G01 X-1.2835 Y1.8956  
G01 X-1.2779 Y1.8971  
G01 X-0.7575 Y1.8971  
G01 X-0.7571 Y1.8972  
G01 X-0.7546 Y1.8971  
G01 X-0.7521 Y1.8971  
G01 X-0.7517 Y1.8970  
G01 X-0.7513 Y1.8970  
G01 X-0.7489 Y1.8963  
G01 X-0.7465 Y1.8956  
G01 X-0.7461 Y1.8954  
G01 X-0.7457 Y1.8953  
G01 X-0.7436 Y1.8940  
G01 X-0.7414 Y1.8927  
G01 X-0.7411 Y1.8924  
G01 X-0.7408 Y1.8922  
G01 X-0.7390 Y1.8904  
G01 X-0.7373 Y1.8886  
G01 X-0.7371 Y1.8882  
G01 X-0.3490 Y1.4704  
G01 X-0.3473 Y1.4686  
G01 X-0.3471 Y1.4682  
G01 X-0.3468 Y1.4679  
G01 X-0.3456 Y1.4657  
G01 X-0.3444 Y1.4635  
G01 X-0.3443 Y1.4631  
G01 X-0.3441 Y1.4628  
G01 X-0.3435 Y1.4603  
G01 X-0.3429 Y1.4579  
G01 X-0.3429 Y1.4575  
G01 X-0.3428 Y1.4571  
G01 X-0.3429 Y1.4546  
G01 X-0.3429 Y1.3467  
G01 X-0.3427 Y1.3456  
G01 X-0.3429 Y1.3438  
G01 X-0.3429 Y1.3421  
G01 X-0.3432 Y1.3409  
G01 X-0.3433 Y1.3398  
G01 X-0.3439 Y1.3381  
G01 X-0.3444 Y1.3365  
G01 X-0.3449 Y1.3354  
G01 X-0.3454 Y1.3343  
G01 X-0.3464 Y1.3329  
G01 X-0.3473 Y1.3314  
G01 X-0.3481 Y1.3306  
G01 X-0.3488 Y1.3296  
G01 X-0.3502 Y1.3285  
G01 X-0.3514 Y1.3273  
G01 X-0.3524 Y1.3267  
G01 X-0.5529 Y1.1644  
G01 X-0.5529 Y0.8971  
G01 X-0.5544 Y0.8915  
G01 X-0.5573 Y0.8864  
G01 X-0.5614 Y0.8823  
G01 X-0.5643 Y0.8806  
G01 X-0.5650 Y0.8795  
G01 X-0.5695 Y0.8750  
G01 X-0.5748 Y0.8715  
G01 X-0.5806 Y0.8691  
G01 X-0.5868 Y0.8679  
G01 X-0.5932 Y0.8679  
G01 X-0.5994 Y0.8691  
G01 X-0.6052 Y0.8715  
G01 X-0.6105 Y0.8750  
G01 X-0.6150 Y0.8795  
G01 X-0.6185 Y0.8848  
G01 X-0.6209 Y0.8906  
G01 X-0.6221 Y0.8968  
G01 X-0.6221 Y0.9032  
G01 X-0.6209 Y0.9094  
G01 X-0.6185 Y0.9152  
G01 X-0.6150 Y0.9205  
G01 X-0.6105 Y0.9250  
G01 X-0.6052 Y0.9285  
G01 X-0.5994 Y0.9309  
G01 X-0.5971 Y0.9314  
G01 X-0.5971 Y1.1733  
G01 X-0.5973 Y1.1744  
G01 X-0.5971 Y1.1762  
G01 X-0.5971 Y1.1779  
G01 X-0.5968 Y1.1791  
G01 X-0.5967 Y1.1802  
G01 X-0.5961 Y1.1819  
G01 X-0.5956 Y1.1835  
G01 X-0.5951 Y1.1846  
G01 X-0.5946 Y1.1857  
G01 X-0.5936 Y1.1871  
G01 X-0.5927 Y1.1886  
G01 X-0.5919 Y1.1894  
G01 X-0.5912 Y1.1904  
G01 X-0.5898 Y1.1915  
G01 X-0.5886 Y1.1927  
G01 X-0.5876 Y1.1933  
G01 X-0.3871 Y1.3556  
G01 X-0.3871 Y1.4463  
G01 X-0.7647 Y1.8529  
G01 X-1.2658 Y1.8529  
G01 X-1.3279 Y1.7908  
G01 X-1.3279 Y1.4317  
G01 X-1.3254 Y1.4300  
G01 X-1.3200 Y1.4246  
G01 X-1.3183 Y1.4221  
G01 X-1.2971 Y1.4221  
G01 X-1.2915 Y1.4206  
G01 X-1.2864 Y1.4177  
G01 X-1.2823 Y1.4136  
G01 X-1.2008 Y1.3321  
G01 X-1.1968 Y1.3321  
G01 X-1.1906 Y1.3309  
G01 X-1.1848 Y1.3285  
G01 X-1.1795 Y1.3250  
G01 X-1.1750 Y1.3205  
G01 X-1.1715 Y1.3152  
G01 X-1.1691 Y1.3094  
G01 X-1.1679 Y1.3032  
G01 X-1.1679 Y1.2968  
G01 X-1.1691 Y1.2906  
G01 X-1.1715 Y1.2848  
G01 X-1.1750 Y1.2795  
G00 Z0.0500  
G00 X-0.9250 Y1.2795  
G01 Z-0.0035 F10    
G01 X-0.9285 Y1.2848  F20    
G01 X-0.9309 Y1.2906  
G01 X-0.9321 Y1.2968  
G01 X-0.9321 Y1.3032  
G01 X-0.9309 Y1.3094  
G01 X-0.9285 Y1.3152  
G01 X-0.9250 Y1.3205  
G01 X-0.9205 Y1.3250  
G01 X-0.9152 Y1.3285  
G01 X-0.9094 Y1.3309  
G01 X-0.9032 Y1.3321  
G01 X-0.8992 Y1.3321  
G01 X-0.7386 Y1.4927  
G01 X-0.7335 Y1.4956  
G01 X-0.7279 Y1.4971  
G01 X-0.6330 Y1.4971  
G01 X-0.5871 Y1.5354  
G01 X-0.5871 Y1.5646  
G01 X-0.6330 Y1.6029  
G01 X-0.7658 Y1.6029  
G01 X-0.8073 Y1.5614  
G01 X-0.8114 Y1.5573  
G01 X-0.8165 Y1.5544  
G01 X-0.8221 Y1.5529  
G01 X-0.8779 Y1.5529  
G01 X-0.8835 Y1.5544  
G01 X-0.8886 Y1.5573  
G01 X-0.9433 Y1.6119  
G01 X-0.9462 Y1.6114  
G01 X-0.9538 Y1.6114  
G01 X-0.9613 Y1.6128  
G01 X-0.9683 Y1.6157  
G01 X-0.9746 Y1.6200  
G01 X-0.9800 Y1.6254  
G01 X-0.9843 Y1.6317  
G01 X-0.9872 Y1.6387  
G01 X-0.9886 Y1.6462  
G01 X-0.9886 Y1.6538  
G01 X-0.9881 Y1.6567  
G01 X-1.1092 Y1.7779  
G01 X-1.1629 Y1.7779  
G01 X-1.1631 Y1.7774  
G01 X-1.1671 Y1.7719  
G01 X-1.1719 Y1.7671  
G01 X-1.1774 Y1.7631  
G01 X-1.1834 Y1.7600  
G01 X-1.1899 Y1.7579  
G01 X-1.1966 Y1.7569  
G01 X-1.2034 Y1.7569  
G01 X-1.2101 Y1.7579  
G01 X-1.2166 Y1.7600  
G01 X-1.2226 Y1.7631  
G01 X-1.2281 Y1.7671  
G01 X-1.2329 Y1.7719  
G01 X-1.2369 Y1.7774  
G01 X-1.2400 Y1.7834  
G01 X-1.2421 Y1.7899  
G01 X-1.2431 Y1.7966  
G01 X-1.2431 Y1.8034  
G01 X-1.2421 Y1.8101  
G01 X-1.2400 Y1.8166  
G01 X-1.2369 Y1.8226  
G01 X-1.2329 Y1.8281  
G01 X-1.2281 Y1.8329  
G01 X-1.2226 Y1.8369  
G01 X-1.2166 Y1.8400  
G01 X-1.2101 Y1.8421  
G01 X-1.2034 Y1.8431  
G01 X-1.1966 Y1.8431  
G01 X-1.1899 Y1.8421  
G01 X-1.1834 Y1.8400  
G01 X-1.1774 Y1.8369  
G01 X-1.1719 Y1.8329  
G01 X-1.1671 Y1.8281  
G01 X-1.1631 Y1.8226  
G01 X-1.1629 Y1.8221  
G01 X-1.0971 Y1.8221  
G01 X-1.0915 Y1.8206  
G01 X-1.0864 Y1.8177  
G01 X-0.9567 Y1.6881  
G01 X-0.9538 Y1.6886  
G01 X-0.9462 Y1.6886  
G01 X-0.9387 Y1.6872  
G01 X-0.9317 Y1.6843  
G01 X-0.9254 Y1.6800  
G01 X-0.9200 Y1.6746  
G01 X-0.9157 Y1.6683  
G01 X-0.9128 Y1.6613  
G01 X-0.9114 Y1.6538  
G01 X-0.9114 Y1.6462  
G01 X-0.9119 Y1.6433  
G01 X-0.8658 Y1.5971  
G01 X-0.8342 Y1.5971  
G01 X-0.7886 Y1.6427  
G01 X-0.7835 Y1.6456  
G01 X-0.7779 Y1.6471  
G01 X-0.6260 Y1.6471  
G01 X-0.6241 Y1.6473  
G01 X-0.6231 Y1.6471  
G01 X-0.6221 Y1.6471  
G01 X-0.6202 Y1.6467  
G01 X-0.6184 Y1.6463  
G01 X-0.6174 Y1.6459  
G01 X-0.6165 Y1.6456  
G01 X-0.6148 Y1.6447  
G01 X-0.6131 Y1.6439  
G01 X-0.6123 Y1.6432  
G01 X-0.6114 Y1.6427  
G01 X-0.6100 Y1.6414  
G01 X-0.5523 Y1.5932  
G01 X-0.5514 Y1.5927  
G01 X-0.5500 Y1.5914  
G01 X-0.5486 Y1.5901  
G01 X-0.5480 Y1.5893  
G01 X-0.5473 Y1.5886  
G01 X-0.5463 Y1.5869  
G01 X-0.5452 Y1.5854  
G01 X-0.5449 Y1.5844  
G01 X-0.5444 Y1.5835  
G01 X-0.5439 Y1.5817  
G01 X-0.5432 Y1.5799  
G01 X-0.5431 Y1.5789  
G01 X-0.5429 Y1.5779  
G01 X-0.5429 Y1.5760  
G01 X-0.5427 Y1.5741  
G01 X-0.5429 Y1.5731  
G01 X-0.5429 Y1.5269  
G01 X-0.5427 Y1.5259  
G01 X-0.5429 Y1.5240  
G01 X-0.5429 Y1.5221  
G01 X-0.5431 Y1.5211  
G01 X-0.5432 Y1.5201  
G01 X-0.5439 Y1.5183  
G01 X-0.5444 Y1.5165  
G01 X-0.5449 Y1.5156  
G01 X-0.5452 Y1.5146  
G01 X-0.5463 Y1.5131  
G01 X-0.5473 Y1.5114  
G01 X-0.5480 Y1.5107  
G01 X-0.5486 Y1.5099  
G01 X-0.5500 Y1.5086  
G01 X-0.5514 Y1.5073  
G01 X-0.5523 Y1.5068  
G01 X-0.6100 Y1.4586  
G01 X-0.6114 Y1.4573  
G01 X-0.6123 Y1.4568  
G01 X-0.6131 Y1.4561  
G01 X-0.6148 Y1.4553  
G01 X-0.6165 Y1.4544  
G01 X-0.6174 Y1.4541  
G01 X-0.6184 Y1.4537  
G01 X-0.6202 Y1.4533  
G01 X-0.6221 Y1.4529  
G01 X-0.6231 Y1.4529  
G01 X-0.6241 Y1.4527  
G01 X-0.6260 Y1.4529  
G01 X-0.7158 Y1.4529  
G01 X-0.8679 Y1.3008  
G01 X-0.8679 Y1.2968  
G01 X-0.8691 Y1.2906  
G01 X-0.8715 Y1.2848  
G01 X-0.8750 Y1.2795  
G01 X-0.8795 Y1.2750  
G01 X-0.8848 Y1.2715  
G01 X-0.8906 Y1.2691  
G01 X-0.8968 Y1.2679  
G01 X-0.9032 Y1.2679  
G01 X-0.9094 Y1.2691  
G01 X-0.9152 Y1.2715  
G01 X-0.9205 Y1.2750  
G01 X-0.9250 Y1.2795  
G00 Z0.0500  
G00 X-0.9250 Y1.2205  
G01 Z-0.0035 F10    
G01 X-0.9205 Y1.2250  F20    
G01 X-0.9152 Y1.2285  
G01 X-0.9094 Y1.2309  
G01 X-0.9032 Y1.2321  
G01 X-0.8992 Y1.2321  
G01 X-0.7910 Y1.3403  
G01 X-0.7894 Y1.3421  
G01 X-0.7890 Y1.3424  
G01 X-0.7886 Y1.3427  
G01 X-0.7381 Y1.3933  
G01 X-0.7386 Y1.3962  
G01 X-0.7386 Y1.4038  
G01 X-0.7372 Y1.4113  
G01 X-0.7343 Y1.4183  
G01 X-0.7300 Y1.4246  
G01 X-0.7246 Y1.4300  
G01 X-0.7183 Y1.4343  
G01 X-0.7113 Y1.4372  
G01 X-0.7038 Y1.4386  
G01 X-0.6962 Y1.4386  
G01 X-0.6887 Y1.4372  
G01 X-0.6817 Y1.4343  
G01 X-0.6754 Y1.4300  
G01 X-0.6700 Y1.4246  
G01 X-0.6657 Y1.4183  
G01 X-0.6628 Y1.4113  
G01 X-0.6614 Y1.4038  
G01 X-0.6614 Y1.3962  
G01 X-0.6628 Y1.3887  
G01 X-0.6657 Y1.3817  
G01 X-0.6700 Y1.3754  
G01 X-0.6754 Y1.3700  
G01 X-0.6817 Y1.3657  
G01 X-0.6887 Y1.3628  
G01 X-0.6962 Y1.3614  
G01 X-0.7038 Y1.3614  
G01 X-0.7067 Y1.3619  
G01 X-0.7380 Y1.3307  
G01 X-0.6728 Y1.2968  
G01 X-0.6726 Y1.2969  
G01 X-0.6666 Y1.3000  
G01 X-0.6601 Y1.3021  
G01 X-0.6534 Y1.3031  
G01 X-0.6466 Y1.3031  
G01 X-0.6399 Y1.3021  
G01 X-0.6334 Y1.3000  
G01 X-0.6274 Y1.2969  
G01 X-0.6219 Y1.2929  
G01 X-0.6171 Y1.2881  
G01 X-0.6131 Y1.2826  
G01 X-0.6100 Y1.2766  
G01 X-0.6079 Y1.2701  
G01 X-0.6069 Y1.2634  
G01 X-0.6069 Y1.2566  
G01 X-0.6079 Y1.2499  
G01 X-0.6100 Y1.2434  
G01 X-0.6131 Y1.2374  
G01 X-0.6171 Y1.2319  
G01 X-0.6219 Y1.2271  
G01 X-0.6274 Y1.2231  
G01 X-0.6334 Y1.2200  
G01 X-0.6399 Y1.2179  
G01 X-0.6466 Y1.2169  
G01 X-0.6534 Y1.2169  
G01 X-0.6601 Y1.2179  
G01 X-0.6666 Y1.2200  
G01 X-0.6726 Y1.2231  
G01 X-0.6781 Y1.2271  
G01 X-0.6829 Y1.2319  
G01 X-0.6869 Y1.2374  
G01 X-0.6900 Y1.2434  
G01 X-0.6921 Y1.2499  
G01 X-0.6931 Y1.2566  
G01 X-0.6931 Y1.2575  
G01 X-0.7708 Y1.2979  
G01 X-0.8679 Y1.2008  
G01 X-0.8679 Y1.1968  
G01 X-0.8691 Y1.1906  
G01 X-0.8715 Y1.1848  
G01 X-0.8750 Y1.1795  
G01 X-0.8795 Y1.1750  
G01 X-0.8848 Y1.1715  
G01 X-0.8906 Y1.1691  
G01 X-0.8968 Y1.1679  
G01 X-0.9032 Y1.1679  
G01 X-0.9094 Y1.1691  
G01 X-0.9152 Y1.1715  
G01 X-0.9205 Y1.1750  
G01 X-0.9250 Y1.1795  
G01 X-0.9285 Y1.1848  
G01 X-0.9309 Y1.1906  
G01 X-0.9321 Y1.1968  
G01 X-0.9321 Y1.2032  
G01 X-0.9309 Y1.2094  
G01 X-0.9285 Y1.2152  
G01 X-0.9250 Y1.2205  
G00 Z0.0500  
G00 X-0.8746 Y1.6200  
G01 Z-0.0035 F10    
G01 X-0.8800 Y1.6254  F20    
G01 X-0.8843 Y1.6317  
G01 X-0.8872 Y1.6387  
G01 X-0.8886 Y1.6462  
G01 X-0.8886 Y1.6538  
G01 X-0.8872 Y1.6613  
G01 X-0.8843 Y1.6683  
G01 X-0.8800 Y1.6746  
G01 X-0.8746 Y1.6800  
G01 X-0.8683 Y1.6843  
G01 X-0.8613 Y1.6872  
G01 X-0.8538 Y1.6886  
G01 X-0.8462 Y1.6886  
G01 X-0.8433 Y1.6881  
G01 X-0.7919 Y1.7394  
G01 X-0.7921 Y1.7399  
G01 X-0.7931 Y1.7466  
G01 X-0.7931 Y1.7534  
G01 X-0.7921 Y1.7601  
G01 X-0.7900 Y1.7666  
G01 X-0.7869 Y1.7726  
G01 X-0.7829 Y1.7781  
G01 X-0.7781 Y1.7829  
G01 X-0.7726 Y1.7869  
G01 X-0.7666 Y1.7900  
G01 X-0.7601 Y1.7921  
G01 X-0.7534 Y1.7931  
G01 X-0.7466 Y1.7931  
G01 X-0.7399 Y1.7921  
G01 X-0.7334 Y1.7900  
G01 X-0.7274 Y1.7869  
G01 X-0.7219 Y1.7829  
G01 X-0.7171 Y1.7781  
G01 X-0.7131 Y1.7726  
G01 X-0.7100 Y1.7666  
G01 X-0.7079 Y1.7601  
G01 X-0.7069 Y1.7534  
G01 X-0.7069 Y1.7466  
G01 X-0.7079 Y1.7399  
G01 X-0.7100 Y1.7334  
G01 X-0.7131 Y1.7274  
G01 X-0.7171 Y1.7219  
G01 X-0.7219 Y1.7171  
G01 X-0.7274 Y1.7131  
G01 X-0.7334 Y1.7100  
G01 X-0.7399 Y1.7079  
G01 X-0.7466 Y1.7069  
G01 X-0.7534 Y1.7069  
G01 X-0.7601 Y1.7079  
G01 X-0.7606 Y1.7081  
G01 X-0.8119 Y1.6567  
G01 X-0.8114 Y1.6538  
G01 X-0.8114 Y1.6462  
G01 X-0.8128 Y1.6387  
G01 X-0.8157 Y1.6317  
G01 X-0.8200 Y1.6254  
G01 X-0.8254 Y1.6200  
G01 X-0.8317 Y1.6157  
G01 X-0.8387 Y1.6128  
G01 X-0.8462 Y1.6114  
G01 X-0.8538 Y1.6114  
G01 X-0.8613 Y1.6128  
G01 X-0.8683 Y1.6157  
G01 X-0.8746 Y1.6200  
G00 Z0.0500  
G00 X-1.0014 Y1.9298  
G01 Z-0.0035 F10    
G01 X-1.0298 Y1.9014  F20    
G01 X-1.0702 Y1.9014  
G01 X-1.0967 Y1.9279  
G01 X-1.1629 Y1.9279  
G01 X-1.1631 Y1.9274  
G01 X-1.1671 Y1.9219  
G01 X-1.1719 Y1.9171  
G01 X-1.1774 Y1.9131  
G01 X-1.1834 Y1.9100  
G01 X-1.1899 Y1.9079  
G01 X-1.1966 Y1.9069  
G01 X-1.2034 Y1.9069  
G01 X-1.2101 Y1.9079  
G01 X-1.2166 Y1.9100  
G01 X-1.2226 Y1.9131  
G01 X-1.2281 Y1.9171  
G01 X-1.2329 Y1.9219  
G01 X-1.2369 Y1.9274  
G01 X-1.2400 Y1.9334  
G01 X-1.2421 Y1.9399  
G01 X-1.2431 Y1.9466  
G01 X-1.2431 Y1.9534  
G01 X-1.2421 Y1.9601  
G01 X-1.2400 Y1.9666  
G01 X-1.2369 Y1.9726  
G01 X-1.2329 Y1.9781  
G01 X-1.2281 Y1.9829  
G01 X-1.2226 Y1.9869  
G01 X-1.2166 Y1.9900  
G01 X-1.2101 Y1.9921  
G01 X-1.2034 Y1.9931  
G01 X-1.1966 Y1.9931  
G01 X-1.1899 Y1.9921  
G01 X-1.1834 Y1.9900  
G01 X-1.1774 Y1.9869  
G01 X-1.1719 Y1.9829  
G01 X-1.1671 Y1.9781  
G01 X-1.1631 Y1.9726  
G01 X-1.1629 Y1.9721  
G01 X-1.0967 Y1.9721  
G01 X-1.0702 Y1.9986  
G01 X-1.0298 Y1.9986  
G01 X-1.0014 Y1.9702  
G01 X-1.0014 Y1.9298  
G00 Z0.0500  
G00 X-1.5600 Y1.9334  
G01 Z-0.0035 F10    
G01 X-1.5631 Y1.9274  F20    
G01 X-1.5671 Y1.9219  
G01 X-1.5719 Y1.9171  
G01 X-1.5774 Y1.9131  
G01 X-1.5779 Y1.9129  
G01 X-1.5779 Y1.8371  
G01 X-1.5774 Y1.8369  
G01 X-1.5719 Y1.8329  
G01 X-1.5671 Y1.8281  
G01 X-1.5631 Y1.8226  
G01 X-1.5600 Y1.8166  
G01 X-1.5579 Y1.8101  
G01 X-1.5569 Y1.8034  
G01 X-1.5569 Y1.7966  
G01 X-1.5579 Y1.7899  
G01 X-1.5600 Y1.7834  
G01 X-1.5631 Y1.7774  
G01 X-1.5671 Y1.7719  
G01 X-1.5719 Y1.7671  
G01 X-1.5774 Y1.7631  
G01 X-1.5834 Y1.7600  
G01 X-1.5899 Y1.7579  
G01 X-1.5966 Y1.7569  
G01 X-1.6034 Y1.7569  
G01 X-1.6101 Y1.7579  
G01 X-1.6166 Y1.7600  
G01 X-1.6226 Y1.7631  
G01 X-1.6281 Y1.7671  
G01 X-1.6329 Y1.7719  
G01 X-1.6369 Y1.7774  
G01 X-1.6400 Y1.7834  
G01 X-1.6421 Y1.7899  
G01 X-1.6431 Y1.7966  
G01 X-1.6431 Y1.8034  
G01 X-1.6421 Y1.8101  
G01 X-1.6400 Y1.8166  
G01 X-1.6369 Y1.8226  
G01 X-1.6329 Y1.8281  
G01 X-1.6281 Y1.8329  
G01 X-1.6226 Y1.8369  
G01 X-1.6221 Y1.8371  
G01 X-1.6221 Y1.9129  
G01 X-1.6226 Y1.9131  
G01 X-1.6281 Y1.9171  
G01 X-1.6329 Y1.9219  
G01 X-1.6369 Y1.9274  
G01 X-1.6371 Y1.9279  
G01 X-1.8129 Y1.9279  
G01 X-1.8131 Y1.9274  
G01 X-1.8171 Y1.9219  
G01 X-1.8219 Y1.9171  
G01 X-1.8274 Y1.9131  
G01 X-1.8334 Y1.9100  
G01 X-1.8399 Y1.9079  
G01 X-1.8466 Y1.9069  
G01 X-1.8534 Y1.9069  
G01 X-1.8601 Y1.9079  
G01 X-1.8630 Y1.9089  
G01 X-2.1829 Y1.6250  
G01 X-2.1829 Y0.9402  
G01 X-2.1113 Y0.7971  
G01 X-2.0760 Y0.7971  
G01 X-2.0740 Y0.7973  
G01 X-2.0731 Y0.7971  
G01 X-2.0721 Y0.7971  
G01 X-2.0702 Y0.7966  
G01 X-2.0683 Y0.7963  
G01 X-2.0674 Y0.7959  
G01 X-2.0665 Y0.7956  
G01 X-2.0648 Y0.7947  
G01 X-2.0630 Y0.7938  
G01 X-2.0622 Y0.7932  
G01 X-2.0614 Y0.7927  
G01 X-2.0600 Y0.7913  
G01 X-1.6904 Y0.4809  
G01 X-1.6730 Y0.4780  
G01 X-1.6729 Y0.4781  
G01 X-1.6681 Y0.4829  
G01 X-1.6626 Y0.4869  
G01 X-1.6566 Y0.4900  
G01 X-1.6501 Y0.4921  
G01 X-1.6434 Y0.4931  
G01 X-1.6366 Y0.4931  
G01 X-1.6299 Y0.4921  
G01 X-1.6234 Y0.4900  
G01 X-1.6174 Y0.4869  
G01 X-1.6119 Y0.4829  
G01 X-1.6071 Y0.4781  
G01 X-1.6031 Y0.4726  
G01 X-1.6000 Y0.4666  
G01 X-1.5979 Y0.4601  
G01 X-1.5969 Y0.4534  
G01 X-1.5969 Y0.4466  
G01 X-1.5979 Y0.4399  
G01 X-1.6000 Y0.4334  
G01 X-1.6031 Y0.4274  
G01 X-1.6071 Y0.4219  
G01 X-1.6119 Y0.4171  
G01 X-1.6174 Y0.4131  
G01 X-1.6234 Y0.4100  
G01 X-1.6299 Y0.4079  
G01 X-1.6366 Y0.4069  
G01 X-1.6434 Y0.4069  
G01 X-1.6501 Y0.4079  
G01 X-1.6566 Y0.4100  
G01 X-1.6626 Y0.4131  
G01 X-1.6681 Y0.4171  
G01 X-1.6729 Y0.4219  
G01 X-1.6769 Y0.4274  
G01 X-1.6800 Y0.4334  
G01 X-1.6803 Y0.4343  
G01 X-1.7009 Y0.4377  
G01 X-1.7010 Y0.4377  
G01 X-1.7037 Y0.4382  
G01 X-1.7065 Y0.4386  
G01 X-1.7066 Y0.4387  
G01 X-1.7067 Y0.4387  
G01 X-1.7093 Y0.4399  
G01 X-1.7118 Y0.4410  
G01 X-1.7120 Y0.4412  
G01 X-1.7142 Y0.4430  
G01 X-1.7163 Y0.4448  
G01 X-2.0831 Y0.7529  
G01 X-2.1228 Y0.7529  
G01 X-2.1234 Y0.7527  
G01 X-2.1257 Y0.7529  
G01 X-2.1279 Y0.7529  
G01 X-2.1286 Y0.7530  
G01 X-2.1292 Y0.7531  
G01 X-2.1314 Y0.7538  
G01 X-2.1335 Y0.7544  
G01 X-2.1341 Y0.7547  
G01 X-2.1348 Y0.7549  
G01 X-2.1366 Y0.7561  
G01 X-2.1386 Y0.7573  
G01 X-2.1391 Y0.7578  
G01 X-2.1396 Y0.7581  
G01 X-2.1411 Y0.7598  
G01 X-2.1427 Y0.7614  
G01 X-2.1431 Y0.7620  
G01 X-2.1435 Y0.7625  
G01 X-2.1445 Y0.7645  
G01 X-2.1456 Y0.7665  
G01 X-2.1458 Y0.7671  
G01 X-2.2245 Y0.9245  
G01 X-2.2256 Y0.9265  
G01 X-2.2258 Y0.9271  
G01 X-2.2261 Y0.9277  
G01 X-2.2266 Y0.9299  
G01 X-2.2271 Y0.9321  
G01 X-2.2271 Y0.9328  
G01 X-2.2273 Y0.9334  
G01 X-2.2271 Y0.9357  
G01 X-2.2271 Y1.6328  
G01 X-2.2273 Y1.6334  
G01 X-2.2271 Y1.6357  
G01 X-2.2271 Y1.6379  
G01 X-2.2270 Y1.6386  
G01 X-2.2269 Y1.6392  
G01 X-2.2262 Y1.6414  
G01 X-2.2256 Y1.6435  
G01 X-2.2253 Y1.6441  
G01 X-2.2251 Y1.6448  
G01 X-2.2239 Y1.6466  
G01 X-2.2227 Y1.6486  
G01 X-2.2223 Y1.6491  
G01 X-2.2219 Y1.6496  
G01 X-2.2202 Y1.6511  
G01 X-2.2186 Y1.6527  
G01 X-2.2180 Y1.6531  
G01 X-1.8924 Y1.9420  
G01 X-1.8931 Y1.9466  
G01 X-1.8931 Y1.9534  
G01 X-1.8921 Y1.9601  
G01 X-1.8900 Y1.9666  
G01 X-1.8869 Y1.9726  
G01 X-1.8829 Y1.9781  
G01 X-1.8781 Y1.9829  
G01 X-1.8726 Y1.9869  
G01 X-1.8666 Y1.9900  
G01 X-1.8601 Y1.9921  
G01 X-1.8534 Y1.9931  
G01 X-1.8466 Y1.9931  
G01 X-1.8399 Y1.9921  
G01 X-1.8334 Y1.9900  
G01 X-1.8274 Y1.9869  
G01 X-1.8219 Y1.9829  
G01 X-1.8171 Y1.9781  
G01 X-1.8131 Y1.9726  
G01 X-1.8129 Y1.9721  
G01 X-1.6371 Y1.9721  
G01 X-1.6369 Y1.9726  
G01 X-1.6329 Y1.9781  
G01 X-1.6281 Y1.9829  
G01 X-1.6226 Y1.9869  
G01 X-1.6166 Y1.9900  
G01 X-1.6101 Y1.9921  
G01 X-1.6034 Y1.9931  
G01 X-1.5966 Y1.9931  
G01 X-1.5899 Y1.9921  
G01 X-1.5834 Y1.9900  
G01 X-1.5774 Y1.9869  
G01 X-1.5719 Y1.9829  
G01 X-1.5671 Y1.9781  
G01 X-1.5631 Y1.9726  
G01 X-1.5600 Y1.9666  
G01 X-1.5579 Y1.9601  
G01 X-1.5569 Y1.9534  
G01 X-1.5569 Y1.9466  
G01 X-1.5579 Y1.9399  
G01 X-1.5600 Y1.9334  
G00 Z0.0500  
G00 X-1.8219 Y1.5829  
G01 Z-0.0035 F10    
G01 X-1.8171 Y1.5781  F20    
G01 X-1.8131 Y1.5726  
G01 X-1.8100 Y1.5666  
G01 X-1.8079 Y1.5601  
G01 X-1.8069 Y1.5534  
G01 X-1.8069 Y1.5466  
G01 X-1.8079 Y1.5399  
G01 X-1.8100 Y1.5334  
G01 X-1.8131 Y1.5274  
G01 X-1.8171 Y1.5219  
G01 X-1.8219 Y1.5171  
G01 X-1.8274 Y1.5131  
G01 X-1.8279 Y1.5129  
G01 X-1.8279 Y1.4993  
G01 X-1.8250 Y1.4965  
G01 X-1.8215 Y1.4912  
G01 X-1.8191 Y1.4854  
G01 X-1.8179 Y1.4792  
G01 X-1.8179 Y1.4208  
G01 X-1.8191 Y1.4146  
G01 X-1.8215 Y1.4088  
G01 X-1.8250 Y1.4035  
G01 X-1.8295 Y1.3990  
G01 X-1.8348 Y1.3955  
G01 X-1.8406 Y1.3931  
G01 X-1.8468 Y1.3919  
G01 X-1.8532 Y1.3919  
G01 X-1.8594 Y1.3931  
G01 X-1.8652 Y1.3955  
G01 X-1.8705 Y1.3990  
G01 X-1.8750 Y1.4035  
G01 X-1.8785 Y1.4088  
G01 X-1.8809 Y1.4146  
G01 X-1.8821 Y1.4208  
G01 X-1.8821 Y1.4792  
G01 X-1.8809 Y1.4854  
G01 X-1.8785 Y1.4912  
G01 X-1.8750 Y1.4965  
G01 X-1.8721 Y1.4993  
G01 X-1.8721 Y1.5129  
G01 X-1.8726 Y1.5131  
G01 X-1.8781 Y1.5171  
G01 X-1.8829 Y1.5219  
G01 X-1.8869 Y1.5274  
G01 X-1.8900 Y1.5334  
G01 X-1.8921 Y1.5399  
G01 X-1.8931 Y1.5466  
G01 X-1.8931 Y1.5534  
G01 X-1.8921 Y1.5601  
G01 X-1.8900 Y1.5666  
G01 X-1.8869 Y1.5726  
G01 X-1.8829 Y1.5781  
G01 X-1.8781 Y1.5829  
G01 X-1.8726 Y1.5869  
G01 X-1.8666 Y1.5900  
G01 X-1.8601 Y1.5921  
G01 X-1.8534 Y1.5931  
G01 X-1.8466 Y1.5931  
G01 X-1.8399 Y1.5921  
G01 X-1.8334 Y1.5900  
G01 X-1.8274 Y1.5869  
G01 X-1.8219 Y1.5829  
G00 Z0.0500  
G00 X-1.8695 Y1.1250  
G01 Z-0.0035 F10    
G01 X-1.8650 Y1.1205  F20    
G01 X-1.8615 Y1.1152  
G01 X-1.8591 Y1.1094  
G01 X-1.8579 Y1.1032  
G01 X-1.8579 Y1.0968  
G01 X-1.8591 Y1.0906  
G01 X-1.8615 Y1.0848  
G01 X-1.8650 Y1.0795  
G01 X-1.8695 Y1.0750  
G01 X-1.8748 Y1.0715  
G01 X-1.8779 Y1.0702  
G01 X-1.8779 Y0.9371  
G01 X-1.8774 Y0.9369  
G01 X-1.8719 Y0.9329  
G01 X-1.8671 Y0.9281  
G01 X-1.8631 Y0.9226  
G01 X-1.8600 Y0.9166  
G01 X-1.8579 Y0.9101  
G01 X-1.8569 Y0.9034  
G01 X-1.8569 Y0.8966  
G01 X-1.8579 Y0.8899  
G01 X-1.8600 Y0.8834  
G01 X-1.8631 Y0.8774  
G01 X-1.8671 Y0.8719  
G01 X-1.8719 Y0.8671  
G01 X-1.8774 Y0.8631  
G01 X-1.8834 Y0.8600  
G01 X-1.8899 Y0.8579  
G01 X-1.8966 Y0.8569  
G01 X-1.9034 Y0.8569  
G01 X-1.9101 Y0.8579  
G01 X-1.9166 Y0.8600  
G01 X-1.9226 Y0.8631  
G01 X-1.9281 Y0.8671  
G01 X-1.9329 Y0.8719  
G01 X-1.9369 Y0.8774  
G01 X-1.9400 Y0.8834  
G01 X-1.9421 Y0.8899  
G01 X-1.9431 Y0.8966  
G01 X-1.9431 Y0.9034  
G01 X-1.9421 Y0.9101  
G01 X-1.9400 Y0.9166  
G01 X-1.9369 Y0.9226  
G01 X-1.9329 Y0.9281  
G01 X-1.9281 Y0.9329  
G01 X-1.9226 Y0.9369  
G01 X-1.9221 Y0.9371  
G01 X-1.9221 Y1.1032  
G01 X-1.9209 Y1.1094  
G01 X-1.9185 Y1.1152  
G01 X-1.9150 Y1.1205  
G01 X-1.9105 Y1.1250  
G01 X-1.9052 Y1.1285  
G01 X-1.8994 Y1.1309  
G01 X-1.8932 Y1.1321  
G01 X-1.8868 Y1.1321  
G01 X-1.8806 Y1.1309  
G01 X-1.8748 Y1.1285  
G01 X-1.8695 Y1.1250  
G00 Z0.0500  
G00 X-1.5829 Y0.9281  
G01 Z-0.0035 F10    
G01 X-1.5781 Y0.9329  F20    
G01 X-1.5726 Y0.9369  
G01 X-1.5666 Y0.9400  
G01 X-1.5601 Y0.9421  
G01 X-1.5534 Y0.9431  
G01 X-1.5466 Y0.9431  
G01 X-1.5399 Y0.9421  
G01 X-1.5334 Y0.9400  
G01 X-1.5274 Y0.9369  
G01 X-1.5219 Y0.9329  
G01 X-1.5171 Y0.9281  
G01 X-1.5131 Y0.9226  
G01 X-1.5100 Y0.9166  
G01 X-1.5079 Y0.9101  
G01 X-1.5069 Y0.9034  
G01 X-1.5069 Y0.8966  
G01 X-1.5079 Y0.8899  
G01 X-1.5100 Y0.8834  
G01 X-1.5131 Y0.8774  
G01 X-1.5171 Y0.8719  
G01 X-1.5219 Y0.8671  
G01 X-1.5274 Y0.8631  
G01 X-1.5279 Y0.8629  
G01 X-1.5279 Y0.7817  
G01 X-1.5254 Y0.7800  
G01 X-1.5200 Y0.7746  
G01 X-1.5157 Y0.7683  
G01 X-1.5128 Y0.7613  
G01 X-1.5114 Y0.7538  
G01 X-1.5114 Y0.7462  
G01 X-1.5128 Y0.7387  
G01 X-1.5157 Y0.7317  
G01 X-1.5200 Y0.7254  
G01 X-1.5254 Y0.7200  
G01 X-1.5317 Y0.7157  
G01 X-1.5387 Y0.7128  
G01 X-1.5462 Y0.7114  
G01 X-1.5538 Y0.7114  
G01 X-1.5613 Y0.7128  
G01 X-1.5683 Y0.7157  
G01 X-1.5746 Y0.7200  
G01 X-1.5800 Y0.7254  
G01 X-1.5843 Y0.7317  
G01 X-1.5872 Y0.7387  
G01 X-1.5886 Y0.7462  
G01 X-1.5886 Y0.7538  
G01 X-1.5872 Y0.7613  
G01 X-1.5843 Y0.7683  
G01 X-1.5800 Y0.7746  
G01 X-1.5746 Y0.7800  
G01 X-1.5721 Y0.7817  
G01 X-1.5721 Y0.8629  
G01 X-1.5726 Y0.8631  
G01 X-1.5781 Y0.8671  
G01 X-1.5829 Y0.8719  
G01 X-1.5869 Y0.8774  
G01 X-1.5900 Y0.8834  
G01 X-1.5921 Y0.8899  
G01 X-1.5931 Y0.8966  
G01 X-1.5931 Y0.9034  
G01 X-1.5921 Y0.9101  
G01 X-1.5900 Y0.9166  
G01 X-1.5869 Y0.9226  
G01 X-1.5829 Y0.9281  
G00 Z0.0500  
G00 X-0.5421 Y0.9133  
G01 Z-0.0035 F10    
G01 X-0.5233 Y0.9321  F20    
G01 X-0.4967 Y0.9321  
G01 X-0.4867 Y0.9221  
G01 X-0.3467 Y0.9221  
G01 X-0.3202 Y0.9486  
G01 X-0.2798 Y0.9486  
G01 X-0.2514 Y0.9202  
G01 X-0.2514 Y0.8798  
G01 X-0.2798 Y0.8514  
G01 X-0.3202 Y0.8514  
G01 X-0.3467 Y0.8779  
G01 X-0.4867 Y0.8779  
G01 X-0.4967 Y0.8679  
G01 X-0.5233 Y0.8679  
G01 X-0.5421 Y0.8867  
G01 X-0.5421 Y0.9133  
G00 Z0.0500  
G00 X-0.5700 Y1.3754  
G01 Z-0.0035 F10    
G01 X-0.5754 Y1.3700  F20    
G01 X-0.5817 Y1.3657  
G01 X-0.5887 Y1.3628  
G01 X-0.5962 Y1.3614  
G01 X-0.6038 Y1.3614  
G01 X-0.6113 Y1.3628  
G01 X-0.6183 Y1.3657  
G01 X-0.6246 Y1.3700  
G01 X-0.6300 Y1.3754  
G01 X-0.6343 Y1.3817  
G01 X-0.6372 Y1.3887  
G01 X-0.6386 Y1.3962  
G01 X-0.6386 Y1.4038  
G01 X-0.6372 Y1.4113  
G01 X-0.6343 Y1.4183  
G01 X-0.6300 Y1.4246  
G01 X-0.6246 Y1.4300  
G01 X-0.6183 Y1.4343  
G01 X-0.6113 Y1.4372  
G01 X-0.6038 Y1.4386  
G01 X-0.5962 Y1.4386  
G01 X-0.5887 Y1.4372  
G01 X-0.5817 Y1.4343  
G01 X-0.5754 Y1.4300  
G01 X-0.5700 Y1.4246  
G01 X-0.5683 Y1.4221  
G01 X-0.4967 Y1.4221  
G01 X-0.4702 Y1.4486  
G01 X-0.4298 Y1.4486  
G01 X-0.4014 Y1.4202  
G01 X-0.4014 Y1.3798  
G01 X-0.4298 Y1.3514  
G01 X-0.4702 Y1.3514  
G01 X-0.4967 Y1.3779  
G01 X-0.5683 Y1.3779  
G01 X-0.5700 Y1.3754  
G00 Z0.0500  
G00 X-0.1039 Y0.0882  
G01 Z-0.0035 F10    
G01 X-0.1047 Y0.0875  F20    
G01 X-0.1055 Y0.0868  
G01 X-0.1065 Y0.0861  
G01 X-0.1075 Y0.0854  
G01 X-0.1084 Y0.0849  
G01 X-0.1093 Y0.0844  
G01 X-0.1105 Y0.0839  
G01 X-0.1116 Y0.0833  
G01 X-0.1126 Y0.0830  
G01 X-0.1135 Y0.0827  
G01 X-0.1148 Y0.0824  
G01 X-0.1160 Y0.0821  
G01 X-0.1170 Y0.0820  
G01 X-0.1180 Y0.0818  
G01 X-0.1193 Y0.0818  
G01 X-0.1205 Y0.0817  
G01 X-0.1216 Y0.0819  
G01 X-0.9392 Y0.0918  
G01 X-0.9405 Y0.0917  
G01 X-0.9415 Y0.0919  
G01 X-0.9426 Y0.0919  
G01 X-0.9438 Y0.0921  
G01 X-0.9450 Y0.0923  
G01 X-0.9460 Y0.0926  
G01 X-0.9470 Y0.0928  
G01 X-0.9482 Y0.0933  
G01 X-0.9493 Y0.0937  
G01 X-0.9503 Y0.0942  
G01 X-0.9512 Y0.0946  
G01 X-0.9522 Y0.0953  
G01 X-0.9533 Y0.0959  
G01 X-0.9541 Y0.0966  
G01 X-0.9550 Y0.0972  
G01 X-0.9558 Y0.0981  
G01 X-0.9568 Y0.0989  
G01 X-0.9574 Y0.0997  
G01 X-0.9582 Y0.1005  
G01 X-0.9588 Y0.1015  
G01 X-1.1271 Y0.3152  
G01 X-1.1820 Y0.2602  
G01 X-1.1852 Y0.2570  
G01 X-1.1890 Y0.2545  
G01 X-1.1932 Y0.2527  
G01 X-1.1977 Y0.2519  
G01 X-1.2981 Y0.2519  
G01 X-1.2984 Y0.2518  
G01 X-1.3004 Y0.2519  
G01 X-1.3023 Y0.2519  
G01 X-1.3026 Y0.2519  
G01 X-1.3030 Y0.2519  
G01 X-1.3049 Y0.2524  
G01 X-1.3068 Y0.2527  
G01 X-1.3071 Y0.2529  
G01 X-1.3074 Y0.2530  
G01 X-1.3092 Y0.2538  
G01 X-1.3110 Y0.2545  
G01 X-1.3113 Y0.2547  
G01 X-1.3116 Y0.2548  
G01 X-1.3132 Y0.2560  
G01 X-1.3148 Y0.2570  
G01 X-1.3150 Y0.2573  
G01 X-1.3774 Y0.3019  
G01 X-1.7273 Y0.3019  
G01 X-1.7318 Y0.3027  
G01 X-1.7360 Y0.3045  
G01 X-1.7398 Y0.3070  
G01 X-1.7430 Y0.3102  
G01 X-1.8897 Y0.4569  
G01 X-1.8965 Y0.4559  
G01 X-1.9035 Y0.4559  
G01 X-1.9103 Y0.4569  
G01 X-1.9169 Y0.4591  
G01 X-1.9231 Y0.4622  
G01 X-1.9288 Y0.4663  
G01 X-1.9337 Y0.4712  
G01 X-1.9378 Y0.4769  
G01 X-2.0023 Y0.4769  
G01 X-2.0068 Y0.4777  
G01 X-2.0110 Y0.4795  
G01 X-2.0148 Y0.4820  
G01 X-2.1331 Y0.6004  
G01 X-2.1706 Y0.6004  
G01 X-2.1996 Y0.6294  
G01 X-2.1996 Y0.6706  
G01 X-2.1706 Y0.6996  
G01 X-2.1294 Y0.6996  
G01 X-2.1004 Y0.6706  
G01 X-2.1004 Y0.6331  
G01 X-1.9904 Y0.5231  
G01 X-1.9378 Y0.5231  
G01 X-1.9337 Y0.5288  
G01 X-1.9288 Y0.5337  
G01 X-1.9231 Y0.5378  
G01 X-1.9169 Y0.5409  
G01 X-1.9103 Y0.5431  
G01 X-1.9035 Y0.5441  
G01 X-1.8965 Y0.5441  
G01 X-1.8897 Y0.5431  
G01 X-1.8831 Y0.5409  
G01 X-1.8769 Y0.5378  
G01 X-1.8712 Y0.5337  
G01 X-1.8663 Y0.5288  
G01 X-1.8622 Y0.5231  
G01 X-1.8591 Y0.5169  
G01 X-1.8569 Y0.5103  
G01 X-1.8559 Y0.5035  
G01 X-1.8559 Y0.4965  
G01 X-1.8569 Y0.4897  
G01 X-1.7154 Y0.3481  
G01 X-1.4235 Y0.3481  
G01 X-1.6850 Y0.6269  
G01 X-1.7523 Y0.6269  
G01 X-1.7568 Y0.6277  
G01 X-1.7610 Y0.6295  
G01 X-1.7648 Y0.6320  
G01 X-1.9605 Y0.8278  
G01 X-2.0149 Y0.8332  
G01 X-2.0163 Y0.8312  
G01 X-2.0212 Y0.8263  
G01 X-2.0269 Y0.8222  
G01 X-2.0331 Y0.8191  
G01 X-2.0397 Y0.8169  
G01 X-2.0465 Y0.8159  
G01 X-2.0535 Y0.8159  
G01 X-2.0603 Y0.8169  
G01 X-2.0669 Y0.8191  
G01 X-2.0731 Y0.8222  
G01 X-2.0788 Y0.8263  
G01 X-2.0837 Y0.8312  
G01 X-2.0878 Y0.8369  
G01 X-2.0909 Y0.8431  
G01 X-2.0931 Y0.8497  
G01 X-2.0941 Y0.8565  
G01 X-2.0941 Y0.8635  
G01 X-2.0931 Y0.8703  
G01 X-2.0909 Y0.8769  
G01 X-2.0878 Y0.8831  
G01 X-2.0837 Y0.8888  
G01 X-2.0788 Y0.8937  
G01 X-2.0731 Y0.8978  
G01 X-2.0669 Y0.9009  
G01 X-2.0603 Y0.9031  
G01 X-2.0535 Y0.9041  
G01 X-2.0465 Y0.9041  
G01 X-2.0397 Y0.9031  
G01 X-2.0331 Y0.9009  
G01 X-2.0269 Y0.8978  
G01 X-2.0212 Y0.8937  
G01 X-2.0163 Y0.8888  
G01 X-2.0122 Y0.8831  
G01 X-2.0103 Y0.8793  
G01 X-1.9488 Y0.8731  
G01 X-1.9477 Y0.8731  
G01 X-1.9466 Y0.8729  
G01 X-1.9454 Y0.8728  
G01 X-1.9444 Y0.8725  
G01 X-1.9432 Y0.8723  
G01 X-1.9422 Y0.8718  
G01 X-1.9411 Y0.8715  
G01 X-1.9401 Y0.8709  
G01 X-1.9390 Y0.8705  
G01 X-1.9381 Y0.8699  
G01 X-1.9370 Y0.8693  
G01 X-1.9362 Y0.8686  
G01 X-1.9352 Y0.8680  
G01 X-1.9344 Y0.8672  
G01 X-1.9335 Y0.8664  
G01 X-1.9328 Y0.8656  
G01 X-1.7404 Y0.6731  
G01 X-1.6769 Y0.6731  
G01 X-1.6765 Y0.6732  
G01 X-1.6746 Y0.6731  
G01 X-1.5822 Y0.6731  
G01 X-1.5808 Y0.6753  
G01 X-1.5753 Y0.6808  
G01 X-1.5688 Y0.6851  
G01 X-1.5616 Y0.6881  
G01 X-1.5539 Y0.6896  
G01 X-1.5461 Y0.6896  
G01 X-1.5384 Y0.6881  
G01 X-1.5312 Y0.6851  
G01 X-1.5247 Y0.6808  
G01 X-1.5192 Y0.6753  
G01 X-1.5178 Y0.6731  
G01 X-1.4477 Y0.6731  
G01 X-1.4432 Y0.6723  
G01 X-1.4390 Y0.6705  
G01 X-1.4352 Y0.6680  
G01 X-1.4169 Y0.6496  
G01 X-1.3794 Y0.6496  
G01 X-1.3504 Y0.6206  
G01 X-1.3504 Y0.5794  
G01 X-1.3794 Y0.5504  
G01 X-1.4206 Y0.5504  
G01 X-1.4496 Y0.5794  
G01 X-1.4496 Y0.6169  
G01 X-1.4596 Y0.6269  
G01 X-1.5178 Y0.6269  
G01 X-1.5192 Y0.6247  
G01 X-1.5247 Y0.6192  
G01 X-1.5312 Y0.6149  
G01 X-1.5384 Y0.6119  
G01 X-1.5461 Y0.6104  
G01 X-1.5539 Y0.6104  
G01 X-1.5616 Y0.6119  
G01 X-1.5688 Y0.6149  
G01 X-1.5753 Y0.6192  
G01 X-1.5808 Y0.6247  
G01 X-1.5822 Y0.6269  
G01 X-1.6215 Y0.6269  
G01 X-1.3547 Y0.3425  
G01 X-1.2926 Y0.2981  
G01 X-1.2096 Y0.2981  
G01 X-1.1430 Y0.3648  
G01 X-1.1420 Y0.3657  
G01 X-1.1411 Y0.3668  
G01 X-1.1404 Y0.3673  
G01 X-1.0648 Y0.4430  
G01 X-1.0610 Y0.4455  
G01 X-1.0568 Y0.4473  
G01 X-1.0523 Y0.4481  
G01 X-0.8467 Y0.4481  
G01 X-0.8462 Y0.4482  
G01 X-0.8444 Y0.4481  
G01 X-0.8427 Y0.4481  
G01 X-0.8422 Y0.4480  
G01 X-0.8416 Y0.4480  
G01 X-0.8399 Y0.4476  
G01 X-0.8382 Y0.4473  
G01 X-0.8377 Y0.4470  
G01 X-0.8372 Y0.4469  
G01 X-0.8356 Y0.4462  
G01 X-0.8340 Y0.4455  
G01 X-0.8336 Y0.4452  
G01 X-0.8331 Y0.4450  
G01 X-0.8317 Y0.4439  
G01 X-0.8302 Y0.4430  
G01 X-0.8298 Y0.4426  
G01 X-0.8294 Y0.4422  
G01 X-0.8282 Y0.4410  
G01 X-0.8270 Y0.4398  
G01 X-0.8267 Y0.4393  
G01 X-0.8263 Y0.4389  
G01 X-0.8254 Y0.4374  
G01 X-0.8245 Y0.4360  
G01 X-0.8243 Y0.4354  
G01 X-0.7995 Y0.3941  
G01 X-0.7817 Y0.3941  
G01 X-0.7607 Y0.3731  
G01 X-0.7393 Y0.3731  
G01 X-0.7183 Y0.3941  
G01 X-0.6817 Y0.3941  
G01 X-0.6607 Y0.3731  
G01 X-0.6393 Y0.3731  
G01 X-0.6183 Y0.3941  
G01 X-0.5817 Y0.3941  
G01 X-0.5559 Y0.3683  
G01 X-0.5559 Y0.3317  
G01 X-0.5769 Y0.3107  
G01 X-0.5769 Y0.2893  
G01 X-0.5559 Y0.2683  
G01 X-0.5559 Y0.2317  
G01 X-0.5817 Y0.2059  
G01 X-0.6183 Y0.2059  
G01 X-0.6393 Y0.2269  
G01 X-0.6607 Y0.2269  
G01 X-0.6817 Y0.2059  
G01 X-0.7183 Y0.2059  
G01 X-0.7393 Y0.2269  
G01 X-0.7607 Y0.2269  
G01 X-0.7817 Y0.2059  
G01 X-0.8183 Y0.2059  
G01 X-0.8441 Y0.2317  
G01 X-0.8441 Y0.2683  
G01 X-0.8183 Y0.2941  
G01 X-0.7817 Y0.2941  
G01 X-0.7607 Y0.2731  
G01 X-0.7393 Y0.2731  
G01 X-0.7183 Y0.2941  
G01 X-0.6817 Y0.2941  
G01 X-0.6607 Y0.2731  
G01 X-0.6393 Y0.2731  
G01 X-0.6231 Y0.2893  
G01 X-0.6231 Y0.3107  
G01 X-0.6393 Y0.3269  
G01 X-0.6607 Y0.3269  
G01 X-0.6817 Y0.3059  
G01 X-0.7183 Y0.3059  
G01 X-0.7393 Y0.3269  
G01 X-0.7607 Y0.3269  
G01 X-0.7817 Y0.3059  
G01 X-0.8183 Y0.3059  
G01 X-0.8441 Y0.3317  
G01 X-0.8441 Y0.3683  
G01 X-0.8403 Y0.3722  
G01 X-0.8581 Y0.4019  
G01 X-1.0404 Y0.4019  
G01 X-1.0941 Y0.3482  
G01 X-0.9287 Y0.1380  
G01 X-0.1334 Y0.1283  
G01 X-0.0783 Y0.2258  
G01 X-0.0980 Y0.9678  
G01 X-0.2631 Y1.2178  
G01 X-0.2669 Y1.2191  
G01 X-0.2731 Y1.2222  
G01 X-0.2788 Y1.2263  
G01 X-0.2837 Y1.2312  
G01 X-0.2878 Y1.2369  
G01 X-0.2909 Y1.2431  
G01 X-0.2931 Y1.2497  
G01 X-0.2941 Y1.2565  
G01 X-0.2941 Y1.2635  
G01 X-0.2931 Y1.2703  
G01 X-0.2909 Y1.2769  
G01 X-0.2878 Y1.2831  
G01 X-0.2837 Y1.2888  
G01 X-0.2788 Y1.2937  
G01 X-0.2731 Y1.2978  
G01 X-0.2669 Y1.3009  
G01 X-0.2653 Y1.3014  
G01 X-0.2629 Y1.3137  
G01 X-0.2627 Y1.3152  
G01 X-0.2624 Y1.3160  
G01 X-0.2623 Y1.3168  
G01 X-0.2617 Y1.3181  
G01 X-0.2581 Y1.3288  
G01 X-0.2581 Y1.6625  
G01 X-0.3311 Y1.7101  
G01 X-0.3331 Y1.7091  
G01 X-0.3397 Y1.7069  
G01 X-0.3465 Y1.7059  
G01 X-0.3535 Y1.7059  
G01 X-0.3603 Y1.7069  
G01 X-0.3669 Y1.7091  
G01 X-0.3731 Y1.7122  
G01 X-0.3788 Y1.7163  
G01 X-0.3837 Y1.7212  
G01 X-0.3878 Y1.7269  
G01 X-0.3909 Y1.7331  
G01 X-0.3931 Y1.7397  
G01 X-0.3941 Y1.7465  
G01 X-0.3941 Y1.7535  
G01 X-0.3931 Y1.7603  
G01 X-0.5331 Y1.9004  
G01 X-0.5706 Y1.9004  
G01 X-0.5996 Y1.9294  
G01 X-0.5996 Y1.9706  
G01 X-0.5706 Y1.9996  
G01 X-0.5294 Y1.9996  
G01 X-0.5004 Y1.9706  
G01 X-0.5004 Y1.9331  
G01 X-0.3603 Y1.7931  
G01 X-0.3535 Y1.7941  
G01 X-0.3465 Y1.7941  
G01 X-0.3397 Y1.7931  
G01 X-0.3331 Y1.7909  
G01 X-0.3269 Y1.7878  
G01 X-0.3212 Y1.7837  
G01 X-0.3163 Y1.7788  
G01 X-0.3122 Y1.7731  
G01 X-0.3091 Y1.7669  
G01 X-0.3069 Y1.7603  
G01 X-0.3059 Y1.7535  
G01 X-0.3059 Y1.7488  
G01 X-0.2242 Y1.6956  
G01 X-0.2240 Y1.6955  
G01 X-0.2222 Y1.6943  
G01 X-0.2204 Y1.6931  
G01 X-0.2202 Y1.6930  
G01 X-0.2187 Y1.6915  
G01 X-0.2172 Y1.6900  
G01 X-0.2171 Y1.6898  
G01 X-0.2158 Y1.6880  
G01 X-0.2146 Y1.6862  
G01 X-0.2146 Y1.6861  
G01 X-0.2145 Y1.6860  
G01 X-0.2137 Y1.6840  
G01 X-0.2128 Y1.6820  
G01 X-0.2128 Y1.6819  
G01 X-0.2127 Y1.6818  
G01 X-0.2123 Y1.6796  
G01 X-0.2119 Y1.6775  
G01 X-0.2119 Y1.6774  
G01 X-0.2119 Y1.6773  
G01 X-0.2119 Y1.6751  
G01 X-0.2118 Y1.6730  
G01 X-0.2119 Y1.6729  
G01 X-0.2119 Y1.3258  
G01 X-0.2117 Y1.3244  
G01 X-0.2119 Y1.3235  
G01 X-0.2119 Y1.3227  
G01 X-0.2121 Y1.3213  
G01 X-0.2123 Y1.3198  
G01 X-0.2126 Y1.3191  
G01 X-0.2127 Y1.3182  
G01 X-0.2133 Y1.3169  
G01 X-0.2176 Y1.3040  
G01 X-0.2199 Y1.2924  
G01 X-0.2163 Y1.2888  
G01 X-0.2122 Y1.2831  
G01 X-0.2091 Y1.2769  
G01 X-0.2069 Y1.2703  
G01 X-0.2059 Y1.2635  
G01 X-0.2059 Y1.2565  
G01 X-0.2069 Y1.2497  
G01 X-0.2091 Y1.2431  
G01 X-0.2122 Y1.2369  
G01 X-0.2163 Y1.2312  
G01 X-0.0559 Y0.9881  
G01 X-0.0548 Y0.9865  
G01 X-0.0546 Y0.9862  
G01 X-0.0544 Y0.9859  
G01 X-0.0537 Y0.9841  
G01 X-0.0529 Y0.9823  
G01 X-0.0528 Y0.9820  
G01 X-0.0527 Y0.9816  
G01 X-0.0523 Y0.9798  
G01 X-0.0519 Y0.9779  
G01 X-0.0519 Y0.9775  
G01 X-0.0518 Y0.9772  
G01 X-0.0518 Y0.9752  
G01 X-0.0319 Y0.2212  
G01 X-0.0317 Y0.2195  
G01 X-0.0318 Y0.2189  
G01 X-0.0318 Y0.2183  
G01 X-0.0321 Y0.2166  
G01 X-0.0323 Y0.2149  
G01 X-0.0325 Y0.2144  
G01 X-0.0326 Y0.2138  
G01 X-0.0332 Y0.2122  
G01 X-0.0337 Y0.2106  
G01 X-0.0340 Y0.2101  
G01 X-0.0342 Y0.2096  
G01 X-0.0351 Y0.2081  
G01 X-0.0992 Y0.0947  
G01 X-0.0996 Y0.0938  
G01 X-0.1003 Y0.0927  
G01 X-0.1010 Y0.0916  
G01 X-0.1016 Y0.0909  
G01 X-0.1022 Y0.0900  
G01 X-0.1031 Y0.0891  
G01 X-0.1039 Y0.0882  
G00 Z0.0500  
G00 X-0.1572 Y0.1500  
G01 Z-0.0035 F10    
G01 X-0.1587 Y0.1485  F20    
G01 X-0.1602 Y0.1470  
G01 X-0.1604 Y0.1469  
G01 X-0.1605 Y0.1468  
G01 X-0.1623 Y0.1457  
G01 X-0.1640 Y0.1445  
G01 X-0.1642 Y0.1444  
G01 X-0.1643 Y0.1443  
G01 X-0.1663 Y0.1435  
G01 X-0.1682 Y0.1427  
G01 X-0.1684 Y0.1427  
G01 X-0.1686 Y0.1426  
G01 X-0.1707 Y0.1423  
G01 X-0.1727 Y0.1419  
G01 X-0.1729 Y0.1419  
G01 X-0.1731 Y0.1418  
G01 X-0.1752 Y0.1419  
G01 X-0.1773 Y0.1419  
G01 X-0.1774 Y0.1419  
G01 X-0.8535 Y0.1518  
G01 X-0.8538 Y0.1518  
G01 X-0.8557 Y0.1519  
G01 X-0.8576 Y0.1519  
G01 X-0.8580 Y0.1520  
G01 X-0.8584 Y0.1520  
G01 X-0.8602 Y0.1524  
G01 X-0.8621 Y0.1528  
G01 X-0.8624 Y0.1530  
G01 X-0.8628 Y0.1531  
G01 X-0.8645 Y0.1539  
G01 X-0.8663 Y0.1546  
G01 X-0.8666 Y0.1549  
G01 X-0.8669 Y0.1550  
G01 X-0.8685 Y0.1562  
G01 X-0.8700 Y0.1572  
G01 X-0.8703 Y0.1575  
G01 X-0.8706 Y0.1578  
G01 X-0.8719 Y0.1592  
G01 X-0.8732 Y0.1605  
G01 X-0.8734 Y0.1608  
G01 X-0.8737 Y0.1611  
G01 X-0.8746 Y0.1628  
G01 X-0.8757 Y0.1643  
G01 X-0.8758 Y0.1647  
G01 X-0.9005 Y0.2059  
G01 X-0.9183 Y0.2059  
G01 X-0.9441 Y0.2317  
G01 X-0.9441 Y0.2683  
G01 X-0.9231 Y0.2893  
G01 X-0.9231 Y0.3107  
G01 X-0.9441 Y0.3317  
G01 X-0.9441 Y0.3683  
G01 X-0.9183 Y0.3941  
G01 X-0.8817 Y0.3941  
G01 X-0.8559 Y0.3683  
G01 X-0.8559 Y0.3317  
G01 X-0.8769 Y0.3107  
G01 X-0.8769 Y0.2893  
G01 X-0.8559 Y0.2683  
G01 X-0.8559 Y0.2317  
G01 X-0.8597 Y0.2278  
G01 X-0.8418 Y0.1980  
G01 X-0.1844 Y0.1883  
G01 X-0.1381 Y0.2346  
G01 X-0.1381 Y0.3850  
G01 X-0.3083 Y0.5460  
G01 X-0.5217 Y0.5271  
G01 X-0.5227 Y0.5269  
G01 X-0.5240 Y0.5269  
G01 X-0.5252 Y0.5267  
G01 X-0.5262 Y0.5269  
G01 X-0.5273 Y0.5269  
G01 X-0.5285 Y0.5271  
G01 X-0.5298 Y0.5272  
G01 X-0.5307 Y0.5275  
G01 X-0.5318 Y0.5277  
G01 X-0.5329 Y0.5282  
G01 X-0.5341 Y0.5286  
G01 X-0.5350 Y0.5291  
G01 X-0.5360 Y0.5295  
G01 X-0.5370 Y0.5302  
G01 X-0.5381 Y0.5308  
G01 X-0.5389 Y0.5314  
G01 X-0.5398 Y0.5320  
G01 X-0.5406 Y0.5329  
G01 X-0.5416 Y0.5337  
G01 X-0.5423 Y0.5345  
G01 X-0.5986 Y0.5909  
G01 X-0.6033 Y0.5909  
G01 X-0.6097 Y0.5921  
G01 X-0.6157 Y0.5946  
G01 X-0.6211 Y0.5983  
G01 X-0.6257 Y0.6029  
G01 X-0.6294 Y0.6083  
G01 X-0.6319 Y0.6143  
G01 X-0.6331 Y0.6207  
G01 X-0.6331 Y0.6793  
G01 X-0.6319 Y0.6857  
G01 X-0.6294 Y0.6917  
G01 X-0.6257 Y0.6971  
G01 X-0.6231 Y0.6997  
G01 X-0.6231 Y0.7904  
G01 X-0.8148 Y0.9820  
G01 X-0.8180 Y0.9852  
G01 X-0.8996 Y1.0669  
G01 X-0.9033 Y1.0669  
G01 X-0.9097 Y1.0681  
G01 X-0.9157 Y1.0706  
G01 X-0.9211 Y1.0743  
G01 X-0.9257 Y1.0789  
G01 X-0.9294 Y1.0843  
G01 X-0.9319 Y1.0903  
G01 X-0.9331 Y1.0967  
G01 X-0.9331 Y1.1033  
G01 X-0.9319 Y1.1097  
G01 X-0.9294 Y1.1157  
G01 X-0.9257 Y1.1211  
G01 X-0.9211 Y1.1257  
G01 X-0.9157 Y1.1294  
G01 X-0.9097 Y1.1319  
G01 X-0.9033 Y1.1331  
G01 X-0.8967 Y1.1331  
G01 X-0.8903 Y1.1319  
G01 X-0.8843 Y1.1294  
G01 X-0.8789 Y1.1257  
G01 X-0.8743 Y1.1211  
G01 X-0.8706 Y1.1157  
G01 X-0.8681 Y1.1097  
G01 X-0.8669 Y1.1033  
G01 X-0.8669 Y1.0996  
G01 X-0.8000 Y1.0327  
G01 X-0.7431 Y1.0897  
G01 X-0.7441 Y1.0965  
G01 X-0.7441 Y1.1035  
G01 X-0.7431 Y1.1103  
G01 X-0.7409 Y1.1169  
G01 X-0.7378 Y1.1231  
G01 X-0.7337 Y1.1288  
G01 X-0.7288 Y1.1337  
G01 X-0.7231 Y1.1378  
G01 X-0.7169 Y1.1409  
G01 X-0.7103 Y1.1431  
G01 X-0.7035 Y1.1441  
G01 X-0.6965 Y1.1441  
G01 X-0.6897 Y1.1431  
G01 X-0.6831 Y1.1409  
G01 X-0.6769 Y1.1378  
G01 X-0.6712 Y1.1337  
G01 X-0.6663 Y1.1288  
G01 X-0.6622 Y1.1231  
G01 X-0.6591 Y1.1169  
G01 X-0.6569 Y1.1103  
G01 X-0.6559 Y1.1035  
G01 X-0.6559 Y1.0965  
G01 X-0.6569 Y1.0897  
G01 X-0.6591 Y1.0831  
G01 X-0.6622 Y1.0769  
G01 X-0.6663 Y1.0712  
G01 X-0.6712 Y1.0663  
G01 X-0.6769 Y1.0622  
G01 X-0.6831 Y1.0591  
G01 X-0.6897 Y1.0569  
G01 X-0.6965 Y1.0559  
G01 X-0.7035 Y1.0559  
G01 X-0.7103 Y1.0569  
G01 X-0.7673 Y1.0000  
G01 X-0.5820 Y0.8148  
G01 X-0.5795 Y0.8110  
G01 X-0.5777 Y0.8068  
G01 X-0.5769 Y0.8023  
G01 X-0.5769 Y0.6997  
G01 X-0.5743 Y0.6971  
G01 X-0.5706 Y0.6917  
G01 X-0.5681 Y0.6857  
G01 X-0.5669 Y0.6793  
G01 X-0.5669 Y0.6246  
G01 X-0.5163 Y0.5740  
G01 X-0.3036 Y0.5929  
G01 X-0.3029 Y0.5931  
G01 X-0.3013 Y0.5931  
G01 X-0.2998 Y0.5933  
G01 X-0.2991 Y0.5932  
G01 X-0.2984 Y0.5932  
G01 X-0.2968 Y0.5929  
G01 X-0.2952 Y0.5928  
G01 X-0.2946 Y0.5926  
G01 X-0.2939 Y0.5924  
G01 X-0.2924 Y0.5919  
G01 X-0.2909 Y0.5914  
G01 X-0.2903 Y0.5911  
G01 X-0.2896 Y0.5908  
G01 X-0.2883 Y0.5900  
G01 X-0.2869 Y0.5892  
G01 X-0.2863 Y0.5888  
G01 X-0.2857 Y0.5884  
G01 X-0.2846 Y0.5873  
G01 X-0.2834 Y0.5863  
G01 X-0.2830 Y0.5857  
G01 X-0.1005 Y0.4132  
G01 X-0.1002 Y0.4130  
G01 X-0.0989 Y0.4116  
G01 X-0.0974 Y0.4103  
G01 X-0.0972 Y0.4100  
G01 X-0.0970 Y0.4098  
G01 X-0.0959 Y0.4081  
G01 X-0.0948 Y0.4065  
G01 X-0.0947 Y0.4062  
G01 X-0.0945 Y0.4060  
G01 X-0.0937 Y0.4042  
G01 X-0.0929 Y0.4024  
G01 X-0.0929 Y0.4021  
G01 X-0.0927 Y0.4018  
G01 X-0.0924 Y0.3998  
G01 X-0.0919 Y0.3979  
G01 X-0.0919 Y0.3976  
G01 X-0.0919 Y0.3973  
G01 X-0.0919 Y0.3953  
G01 X-0.0918 Y0.3934  
G01 X-0.0919 Y0.3930  
G01 X-0.0919 Y0.2227  
G01 X-0.0927 Y0.2182  
G01 X-0.0945 Y0.2140  
G01 X-0.0970 Y0.2102  
G01 X-0.1002 Y0.2070  
G01 X-0.1571 Y0.1501  
G01 X-0.1572 Y0.1500  
G00 Z0.0500  
G00 X-0.1817 Y0.2059  
G01 Z-0.0035 F10    
G01 X-0.2183 Y0.2059  F20    
G01 X-0.2441 Y0.2317  
G01 X-0.2441 Y0.2683  
G01 X-0.2183 Y0.2941  
G01 X-0.1817 Y0.2941  
G01 X-0.1559 Y0.2683  
G01 X-0.1559 Y0.2317  
G01 X-0.1817 Y0.2059  
G00 Z0.0500  
G00 X-0.2559 Y0.2317  
G01 Z-0.0035 F10    
G01 X-0.2817 Y0.2059  F20    
G01 X-0.3183 Y0.2059  
G01 X-0.3441 Y0.2317  
G01 X-0.3441 Y0.2683  
G01 X-0.3183 Y0.2941  
G01 X-0.2817 Y0.2941  
G01 X-0.2559 Y0.2683  
G01 X-0.2559 Y0.2317  
G00 Z0.0500  
G00 X-0.3559 Y0.2317  
G01 Z-0.0035 F10    
G01 X-0.3817 Y0.2059  F20    
G01 X-0.4183 Y0.2059  
G01 X-0.4441 Y0.2317  
G01 X-0.4441 Y0.2683  
G01 X-0.4183 Y0.2941  
G01 X-0.3817 Y0.2941  
G01 X-0.3559 Y0.2683  
G01 X-0.3559 Y0.2317  
G00 Z0.0500  
G00 X-0.4559 Y0.2317  
G01 Z-0.0035 F10    
G01 X-0.4817 Y0.2059  F20    
G01 X-0.5183 Y0.2059  
G01 X-0.5441 Y0.2317  
G01 X-0.5441 Y0.2683  
G01 X-0.5231 Y0.2893  
G01 X-0.5231 Y0.3107  
G01 X-0.5441 Y0.3317  
G01 X-0.5441 Y0.3683  
G01 X-0.5376 Y0.3749  
G01 X-0.5700 Y0.4427  
G01 X-1.0565 Y0.4713  
G01 X-1.1889 Y0.3483  
G01 X-1.1902 Y0.3470  
G01 X-1.1906 Y0.3468  
G01 X-1.1909 Y0.3465  
G01 X-1.1925 Y0.3455  
G01 X-1.1940 Y0.3445  
G01 X-1.1944 Y0.3443  
G01 X-1.1948 Y0.3441  
G01 X-1.1965 Y0.3434  
G01 X-1.1982 Y0.3427  
G01 X-1.1987 Y0.3427  
G01 X-1.1991 Y0.3425  
G01 X-1.2009 Y0.3422  
G01 X-1.2027 Y0.3419  
G01 X-1.2032 Y0.3419  
G01 X-1.2036 Y0.3418  
G01 X-1.2054 Y0.3419  
G01 X-1.2544 Y0.3419  
G01 X-1.2560 Y0.3418  
G01 X-1.2566 Y0.3419  
G01 X-1.2573 Y0.3419  
G01 X-1.2589 Y0.3422  
G01 X-1.3269 Y0.3519  
G01 X-1.3279 Y0.3519  
G01 X-1.3292 Y0.3522  
G01 X-1.3305 Y0.3524  
G01 X-1.3314 Y0.3527  
G01 X-1.3323 Y0.3529  
G01 X-1.3335 Y0.3535  
G01 X-1.3348 Y0.3539  
G01 X-1.3356 Y0.3544  
G01 X-1.3365 Y0.3548  
G01 X-1.3376 Y0.3555  
G01 X-1.3388 Y0.3562  
G01 X-1.3394 Y0.3569  
G01 X-1.3402 Y0.3574  
G01 X-1.3411 Y0.3584  
G01 X-1.3422 Y0.3593  
G01 X-1.3427 Y0.3600  
G01 X-1.3433 Y0.3607  
G01 X-1.3441 Y0.3618  
G01 X-1.3449 Y0.3629  
G01 X-1.3453 Y0.3638  
G01 X-1.3458 Y0.3646  
G01 X-1.3463 Y0.3658  
G01 X-1.3469 Y0.3670  
G01 X-1.3471 Y0.3679  
G01 X-1.3474 Y0.3688  
G01 X-1.3477 Y0.3701  
G01 X-1.3480 Y0.3715  
G01 X-1.3480 Y0.3724  
G01 X-1.3482 Y0.3733  
G01 X-1.3482 Y0.3747  
G01 X-1.3482 Y0.3760  
G01 X-1.3481 Y0.3769  
G01 X-1.3384 Y0.7657  
G01 X-1.6086 Y1.0359  
G01 X-1.6603 Y1.0307  
G01 X-1.6622 Y1.0269  
G01 X-1.6663 Y1.0212  
G01 X-1.6712 Y1.0163  
G01 X-1.6769 Y1.0122  
G01 X-1.6831 Y1.0091  
G01 X-1.6897 Y1.0069  
G01 X-1.6965 Y1.0059  
G01 X-1.7035 Y1.0059  
G01 X-1.7103 Y1.0069  
G01 X-1.7169 Y1.0091  
G01 X-1.7231 Y1.0122  
G01 X-1.7288 Y1.0163  
G01 X-1.7337 Y1.0212  
G01 X-1.7378 Y1.0269  
G01 X-1.7409 Y1.0331  
G01 X-1.7431 Y1.0397  
G01 X-1.7441 Y1.0465  
G01 X-1.7441 Y1.0535  
G01 X-1.7431 Y1.0603  
G01 X-1.7680 Y1.0852  
G01 X-1.7705 Y1.0890  
G01 X-1.7723 Y1.0932  
G01 X-1.7731 Y1.0977  
G01 X-1.7731 Y1.4003  
G01 X-1.7757 Y1.4029  
G01 X-1.7794 Y1.4083  
G01 X-1.7819 Y1.4143  
G01 X-1.7831 Y1.4207  
G01 X-1.7831 Y1.4793  
G01 X-1.7819 Y1.4857  
G01 X-1.7794 Y1.4917  
G01 X-1.7757 Y1.4971  
G01 X-1.7711 Y1.5017  
G01 X-1.7657 Y1.5054  
G01 X-1.7597 Y1.5079  
G01 X-1.7533 Y1.5091  
G01 X-1.7467 Y1.5091  
G01 X-1.7403 Y1.5079  
G01 X-1.7343 Y1.5054  
G01 X-1.7289 Y1.5017  
G01 X-1.7243 Y1.4971  
G01 X-1.7206 Y1.4917  
G01 X-1.7181 Y1.4857  
G01 X-1.7169 Y1.4793  
G01 X-1.7169 Y1.4207  
G01 X-1.7181 Y1.4143  
G01 X-1.7206 Y1.4083  
G01 X-1.7243 Y1.4029  
G01 X-1.7269 Y1.4003  
G01 X-1.7269 Y1.1096  
G01 X-1.7103 Y1.0931  
G01 X-1.7035 Y1.0941  
G01 X-1.6965 Y1.0941  
G01 X-1.6897 Y1.0931  
G01 X-1.6831 Y1.0909  
G01 X-1.6769 Y1.0878  
G01 X-1.6712 Y1.0837  
G01 X-1.6663 Y1.0788  
G01 X-1.6649 Y1.0768  
G01 X-1.6034 Y1.0829  
G01 X-1.6023 Y1.0831  
G01 X-1.6012 Y1.0831  
G01 X-1.6000 Y1.0833  
G01 X-1.5989 Y1.0831  
G01 X-1.5977 Y1.0831  
G01 X-1.5966 Y1.0829  
G01 X-1.5955 Y1.0828  
G01 X-1.5944 Y1.0825  
G01 X-1.5932 Y1.0823  
G01 X-1.5922 Y1.0818  
G01 X-1.5911 Y1.0815  
G01 X-1.5901 Y1.0810  
G01 X-1.5890 Y1.0805  
G01 X-1.5881 Y1.0799  
G01 X-1.5871 Y1.0794  
G01 X-1.5862 Y1.0786  
G01 X-1.5852 Y1.0780  
G01 X-1.5844 Y1.0772  
G01 X-1.5836 Y1.0765  
G01 X-1.5828 Y1.0756  
G01 X-1.3000 Y0.7928  
G01 X-1.2998 Y0.7926  
G01 X-1.2987 Y0.7915  
G01 X-1.2976 Y0.7905  
G01 X-1.2973 Y0.7901  
G01 X-1.2970 Y0.7898  
G01 X-1.2969 Y0.7895  
G01 X-1.2967 Y0.7893  
G01 X-1.2958 Y0.7880  
G01 X-1.2232 Y0.6881  
G01 X-1.1668 Y0.6881  
G01 X-1.0981 Y0.7825  
G01 X-1.0981 Y1.2654  
G01 X-1.1996 Y1.3669  
G01 X-1.2033 Y1.3669  
G01 X-1.2097 Y1.3681  
G01 X-1.2157 Y1.3706  
G01 X-1.2211 Y1.3743  
G01 X-1.2257 Y1.3789  
G01 X-1.2294 Y1.3843  
G01 X-1.2319 Y1.3903  
G01 X-1.2331 Y1.3967  
G01 X-1.2331 Y1.4033  
G01 X-1.2319 Y1.4097  
G01 X-1.2294 Y1.4157  
G01 X-1.2257 Y1.4211  
G01 X-1.2211 Y1.4257  
G01 X-1.2157 Y1.4294  
G01 X-1.2097 Y1.4319  
G01 X-1.2033 Y1.4331  
G01 X-1.1967 Y1.4331  
G01 X-1.1903 Y1.4319  
G01 X-1.1843 Y1.4294  
G01 X-1.1789 Y1.4257  
G01 X-1.1743 Y1.4211  
G01 X-1.1706 Y1.4157  
G01 X-1.1681 Y1.4097  
G01 X-1.1669 Y1.4033  
G01 X-1.1669 Y1.3996  
G01 X-1.0602 Y1.2930  
G01 X-1.0570 Y1.2898  
G01 X-1.0545 Y1.2860  
G01 X-1.0527 Y1.2818  
G01 X-1.0519 Y1.2773  
G01 X-1.0519 Y0.7768  
G01 X-1.0518 Y0.7764  
G01 X-1.0519 Y0.7745  
G01 X-1.0519 Y0.7727  
G01 X-1.0519 Y0.7723  
G01 X-1.0520 Y0.7718  
G01 X-1.0524 Y0.7700  
G01 X-1.0527 Y0.7682  
G01 X-1.0529 Y0.7678  
G01 X-1.0530 Y0.7674  
G01 X-1.0538 Y0.7657  
G01 X-1.0545 Y0.7640  
G01 X-1.0547 Y0.7636  
G01 X-1.0549 Y0.7632  
G01 X-1.0560 Y0.7618  
G01 X-1.0570 Y0.7602  
G01 X-1.0573 Y0.7599  
G01 X-1.1360 Y0.6518  
G01 X-1.1370 Y0.6502  
G01 X-1.1373 Y0.6499  
G01 X-1.1376 Y0.6495  
G01 X-1.1390 Y0.6483  
G01 X-1.1402 Y0.6470  
G01 X-1.1406 Y0.6468  
G01 X-1.1410 Y0.6464  
G01 X-1.1425 Y0.6455  
G01 X-1.1440 Y0.6445  
G01 X-1.1445 Y0.6443  
G01 X-1.1449 Y0.6441  
G01 X-1.1466 Y0.6434  
G01 X-1.1482 Y0.6427  
G01 X-1.1487 Y0.6426  
G01 X-1.1491 Y0.6425  
G01 X-1.1509 Y0.6422  
G01 X-1.1527 Y0.6419  
G01 X-1.1532 Y0.6419  
G01 X-1.1536 Y0.6418  
G01 X-1.1555 Y0.6419  
G01 X-1.2345 Y0.6419  
G01 X-1.2364 Y0.6418  
G01 X-1.2368 Y0.6419  
G01 X-1.2373 Y0.6419  
G01 X-1.2391 Y0.6422  
G01 X-1.2409 Y0.6425  
G01 X-1.2413 Y0.6426  
G01 X-1.2418 Y0.6427  
G01 X-1.2434 Y0.6434  
G01 X-1.2451 Y0.6441  
G01 X-1.2455 Y0.6443  
G01 X-1.2460 Y0.6445  
G01 X-1.2475 Y0.6455  
G01 X-1.2490 Y0.6464  
G01 X-1.2494 Y0.6468  
G01 X-1.2498 Y0.6470  
G01 X-1.2510 Y0.6483  
G01 X-1.2524 Y0.6495  
G01 X-1.2527 Y0.6499  
G01 X-1.2530 Y0.6502  
G01 X-1.2540 Y0.6518  
G01 X-1.2936 Y0.7062  
G01 X-1.3013 Y0.3950  
G01 X-1.2534 Y0.3881  
G01 X-1.2141 Y0.3881  
G01 X-1.0822 Y0.5106  
G01 X-1.0821 Y0.5108  
G01 X-1.0806 Y0.5121  
G01 X-1.0791 Y0.5135  
G01 X-1.0789 Y0.5136  
G01 X-1.0787 Y0.5138  
G01 X-1.0769 Y0.5148  
G01 X-1.0752 Y0.5159  
G01 X-1.0750 Y0.5160  
G01 X-1.0747 Y0.5161  
G01 X-1.0728 Y0.5168  
G01 X-1.0709 Y0.5175  
G01 X-1.0707 Y0.5175  
G01 X-1.0704 Y0.5176  
G01 X-1.0684 Y0.5179  
G01 X-1.0664 Y0.5182  
G01 X-1.0662 Y0.5182  
G01 X-1.0659 Y0.5182  
G01 X-1.0639 Y0.5181  
G01 X-1.0619 Y0.5180  
G01 X-1.0616 Y0.5180  
G01 X-0.5549 Y0.4882  
G01 X-0.5540 Y0.4882  
G01 X-0.5527 Y0.4881  
G01 X-0.5514 Y0.4880  
G01 X-0.5504 Y0.4877  
G01 X-0.5494 Y0.4876  
G01 X-0.5482 Y0.4872  
G01 X-0.5470 Y0.4868  
G01 X-0.5461 Y0.4864  
G01 X-0.5451 Y0.4861  
G01 X-0.5440 Y0.4854  
G01 X-0.5428 Y0.4848  
G01 X-0.5421 Y0.4842  
G01 X-0.5412 Y0.4837  
G01 X-0.5403 Y0.4829  
G01 X-0.5392 Y0.4821  
G01 X-0.5386 Y0.4814  
G01 X-0.5378 Y0.4807  
G01 X-0.5370 Y0.4797  
G01 X-0.5362 Y0.4787  
G01 X-0.5357 Y0.4778  
G01 X-0.5351 Y0.4770  
G01 X-0.5345 Y0.4759  
G01 X-0.5339 Y0.4747  
G01 X-0.5336 Y0.4738  
G01 X-0.4955 Y0.3941  
G01 X-0.4817 Y0.3941  
G01 X-0.4559 Y0.3683  
G01 X-0.4559 Y0.3317  
G01 X-0.4769 Y0.3107  
G01 X-0.4769 Y0.2893  
G01 X-0.4559 Y0.2683  
G01 X-0.4559 Y0.2317  
G00 Z0.0500  
G00 X-0.4441 Y0.3317  
G01 Z-0.0035 F10    
G01 X-0.4441 Y0.3683  F20    
G01 X-0.4183 Y0.3941  
G01 X-0.3817 Y0.3941  
G01 X-0.3559 Y0.3683  
G01 X-0.3559 Y0.3317  
G01 X-0.3817 Y0.3059  
G01 X-0.4183 Y0.3059  
G01 X-0.4441 Y0.3317  
G00 Z0.0500  
G00 X-0.3441 Y0.3317  
G01 Z-0.0035 F10    
G01 X-0.3441 Y0.3683  F20    
G01 X-0.3183 Y0.3941  
G01 X-0.2817 Y0.3941  
G01 X-0.2559 Y0.3683  
G01 X-0.2559 Y0.3317  
G01 X-0.2817 Y0.3059  
G01 X-0.3183 Y0.3059  
G01 X-0.3441 Y0.3317  
G00 Z0.0500  
G00 X-0.2441 Y0.3317  
G01 Z-0.0035 F10    
G01 X-0.2441 Y0.3683  F20    
G01 X-0.2183 Y0.3941  
G01 X-0.1817 Y0.3941  
G01 X-0.1559 Y0.3683  
G01 X-0.1559 Y0.3317  
G01 X-0.1817 Y0.3059  
G01 X-0.2183 Y0.3059  
G01 X-0.2441 Y0.3317  
G00 Z0.0500  
G00 X-0.4344 Y0.6328  
G01 Z-0.0035 F10    
G01 X-0.4352 Y0.6320  F20    
G01 X-0.4362 Y0.6314  
G01 X-0.4371 Y0.6306  
G01 X-0.4381 Y0.6301  
G01 X-0.4390 Y0.6295  
G01 X-0.4401 Y0.6290  
G01 X-0.4411 Y0.6285  
G01 X-0.4422 Y0.6282  
G01 X-0.4432 Y0.6277  
G01 X-0.4444 Y0.6275  
G01 X-0.4455 Y0.6272  
G01 X-0.4466 Y0.6271  
G01 X-0.4477 Y0.6269  
G01 X-0.4489 Y0.6269  
G01 X-0.4500 Y0.6267  
G01 X-0.4512 Y0.6269  
G01 X-0.4669 Y0.6269  
G01 X-0.4669 Y0.6207  
G01 X-0.4681 Y0.6143  
G01 X-0.4706 Y0.6083  
G01 X-0.4743 Y0.6029  
G01 X-0.4789 Y0.5983  
G01 X-0.4843 Y0.5946  
G01 X-0.4903 Y0.5921  
G01 X-0.4967 Y0.5909  
G01 X-0.5033 Y0.5909  
G01 X-0.5097 Y0.5921  
G01 X-0.5157 Y0.5946  
G01 X-0.5211 Y0.5983  
G01 X-0.5257 Y0.6029  
G01 X-0.5294 Y0.6083  
G01 X-0.5319 Y0.6143  
G01 X-0.5331 Y0.6207  
G01 X-0.5331 Y0.6793  
G01 X-0.5319 Y0.6857  
G01 X-0.5294 Y0.6917  
G01 X-0.5257 Y0.6971  
G01 X-0.5211 Y0.7017  
G01 X-0.5157 Y0.7054  
G01 X-0.5097 Y0.7079  
G01 X-0.5033 Y0.7091  
G01 X-0.4967 Y0.7091  
G01 X-0.4903 Y0.7079  
G01 X-0.4843 Y0.7054  
G01 X-0.4789 Y0.7017  
G01 X-0.4743 Y0.6971  
G01 X-0.4706 Y0.6917  
G01 X-0.4681 Y0.6857  
G01 X-0.4669 Y0.6793  
G01 X-0.4669 Y0.6731  
G01 X-0.4583 Y0.6731  
G01 X-0.2020 Y0.8828  
G01 X-0.2452 Y1.0125  
G01 X-0.2897 Y1.0569  
G01 X-0.2965 Y1.0559  
G01 X-0.3035 Y1.0559  
G01 X-0.3103 Y1.0569  
G01 X-0.3169 Y1.0591  
G01 X-0.3231 Y1.0622  
G01 X-0.3288 Y1.0663  
G01 X-0.3337 Y1.0712  
G01 X-0.3378 Y1.0769  
G01 X-0.3409 Y1.0831  
G01 X-0.3431 Y1.0897  
G01 X-0.3441 Y1.0965  
G01 X-0.3441 Y1.1035  
G01 X-0.3431 Y1.1103  
G01 X-0.3409 Y1.1169  
G01 X-0.3382 Y1.1222  
G01 X-0.3551 Y1.1535  
G01 X-0.3565 Y1.1560  
G01 X-0.3570 Y1.1577  
G01 X-0.3578 Y1.1604  
G01 X-0.3580 Y1.1627  
G01 X-0.3583 Y1.1649  
G01 X-0.3580 Y1.1678  
G01 X-0.3481 Y1.2714  
G01 X-0.3481 Y1.2728  
G01 X-0.3479 Y1.2736  
G01 X-0.3478 Y1.2745  
G01 X-0.3474 Y1.2758  
G01 X-0.3281 Y1.3625  
G01 X-0.3281 Y1.4933  
G01 X-0.3559 Y1.5026  
G01 X-0.3568 Y1.5027  
G01 X-0.3581 Y1.5033  
G01 X-0.3595 Y1.5038  
G01 X-0.3602 Y1.5042  
G01 X-0.3610 Y1.5045  
G01 X-0.3622 Y1.5053  
G01 X-0.3634 Y1.5060  
G01 X-0.3641 Y1.5066  
G01 X-0.3648 Y1.5070  
G01 X-0.3658 Y1.5080  
G01 X-0.3669 Y1.5090  
G01 X-0.3731 Y1.5122  
G01 X-0.3788 Y1.5163  
G01 X-0.3837 Y1.5212  
G01 X-0.3878 Y1.5269  
G01 X-0.3909 Y1.5331  
G01 X-0.3931 Y1.5397  
G01 X-0.3941 Y1.5465  
G01 X-0.3941 Y1.5535  
G01 X-0.3931 Y1.5603  
G01 X-0.3909 Y1.5669  
G01 X-0.3878 Y1.5731  
G01 X-0.3837 Y1.5788  
G01 X-0.3788 Y1.5837  
G01 X-0.3731 Y1.5878  
G01 X-0.3669 Y1.5909  
G01 X-0.3603 Y1.5931  
G01 X-0.3535 Y1.5941  
G01 X-0.3465 Y1.5941  
G01 X-0.3397 Y1.5931  
G01 X-0.3331 Y1.5909  
G01 X-0.3269 Y1.5878  
G01 X-0.3212 Y1.5837  
G01 X-0.3163 Y1.5788  
G01 X-0.3122 Y1.5731  
G01 X-0.3091 Y1.5669  
G01 X-0.3069 Y1.5603  
G01 X-0.3059 Y1.5535  
G01 X-0.3059 Y1.5465  
G01 X-0.3069 Y1.5397  
G01 X-0.3083 Y1.5355  
G01 X-0.2991 Y1.5324  
G01 X-0.2982 Y1.5323  
G01 X-0.2969 Y1.5317  
G01 X-0.2955 Y1.5312  
G01 X-0.2948 Y1.5308  
G01 X-0.2940 Y1.5305  
G01 X-0.2928 Y1.5297  
G01 X-0.2916 Y1.5290  
G01 X-0.2909 Y1.5284  
G01 X-0.2902 Y1.5280  
G01 X-0.2892 Y1.5270  
G01 X-0.2881 Y1.5260  
G01 X-0.2876 Y1.5253  
G01 X-0.2870 Y1.5248  
G01 X-0.2862 Y1.5235  
G01 X-0.2853 Y1.5224  
G01 X-0.2849 Y1.5217  
G01 X-0.2845 Y1.5210  
G01 X-0.2839 Y1.5196  
G01 X-0.2833 Y1.5183  
G01 X-0.2831 Y1.5175  
G01 X-0.2827 Y1.5168  
G01 X-0.2825 Y1.5153  
G01 X-0.2821 Y1.5139  
G01 X-0.2820 Y1.5131  
G01 X-0.2819 Y1.5123  
G01 X-0.2819 Y1.5108  
G01 X-0.2817 Y1.5094  
G01 X-0.2819 Y1.5085  
G01 X-0.2819 Y1.3620  
G01 X-0.2818 Y1.3618  
G01 X-0.2819 Y1.3597  
G01 X-0.2819 Y1.3577  
G01 X-0.2819 Y1.3575  
G01 X-0.2819 Y1.3572  
G01 X-0.2823 Y1.3552  
G01 X-0.2827 Y1.3532  
G01 X-0.2828 Y1.3530  
G01 X-0.3021 Y1.2664  
G01 X-0.3113 Y1.1698  
G01 X-0.2975 Y1.1441  
G01 X-0.2965 Y1.1441  
G01 X-0.2897 Y1.1431  
G01 X-0.2831 Y1.1409  
G01 X-0.2769 Y1.1378  
G01 X-0.2712 Y1.1337  
G01 X-0.2663 Y1.1288  
G01 X-0.2622 Y1.1231  
G01 X-0.2591 Y1.1169  
G01 X-0.2569 Y1.1103  
G01 X-0.2559 Y1.1035  
G01 X-0.2559 Y1.0965  
G01 X-0.2569 Y1.0897  
G01 X-0.2097 Y1.0424  
G01 X-0.2090 Y1.0419  
G01 X-0.2080 Y1.0408  
G01 X-0.2070 Y1.0398  
G01 X-0.2066 Y1.0391  
G01 X-0.2060 Y1.0384  
G01 X-0.2053 Y1.0372  
G01 X-0.2045 Y1.0360  
G01 X-0.2042 Y1.0352  
G01 X-0.2038 Y1.0345  
G01 X-0.2033 Y1.0331  
G01 X-0.2027 Y1.0318  
G01 X-0.2026 Y1.0309  
G01 X-0.1537 Y0.8842  
G01 X-0.1535 Y0.8839  
G01 X-0.1529 Y0.8820  
G01 X-0.1523 Y0.8802  
G01 X-0.1523 Y0.8798  
G01 X-0.1522 Y0.8795  
G01 X-0.1520 Y0.8776  
G01 X-0.1517 Y0.8756  
G01 X-0.1518 Y0.8753  
G01 X-0.1517 Y0.8750  
G01 X-0.1519 Y0.8730  
G01 X-0.1521 Y0.8711  
G01 X-0.1522 Y0.8708  
G01 X-0.1522 Y0.8704  
G01 X-0.1528 Y0.8686  
G01 X-0.1533 Y0.8667  
G01 X-0.1534 Y0.8664  
G01 X-0.1535 Y0.8661  
G01 X-0.1544 Y0.8643  
G01 X-0.1553 Y0.8626  
G01 X-0.1555 Y0.8623  
G01 X-0.1557 Y0.8620  
G01 X-0.1569 Y0.8605  
G01 X-0.1581 Y0.8590  
G01 X-0.1584 Y0.8588  
G01 X-0.1586 Y0.8585  
G01 X-0.1601 Y0.8573  
G01 X-0.1616 Y0.8560  
G01 X-0.1618 Y0.8559  
G01 X-0.4344 Y0.6328  
G00 Z0.0500  
G00 X-0.6669 Y0.6207  
G01 Z-0.0035 F10    
G01 X-0.6681 Y0.6143  F20    
G01 X-0.6706 Y0.6083  
G01 X-0.6743 Y0.6029  
G01 X-0.6789 Y0.5983  
G01 X-0.6843 Y0.5946  
G01 X-0.6903 Y0.5921  
G01 X-0.6967 Y0.5909  
G01 X-0.7033 Y0.5909  
G01 X-0.7097 Y0.5921  
G01 X-0.7157 Y0.5946  
G01 X-0.7211 Y0.5983  
G01 X-0.7257 Y0.6029  
G01 X-0.7294 Y0.6083  
G01 X-0.7319 Y0.6143  
G01 X-0.7331 Y0.6207  
G01 X-0.7331 Y0.6269  
G01 X-0.9916 Y0.6269  
G01 X-1.1963 Y0.4563  
G01 X-1.1959 Y0.4535  
G01 X-1.1959 Y0.4465  
G01 X-1.1969 Y0.4397  
G01 X-1.1991 Y0.4331  
G01 X-1.2022 Y0.4269  
G01 X-1.2063 Y0.4212  
G01 X-1.2112 Y0.4163  
G01 X-1.2169 Y0.4122  
G01 X-1.2231 Y0.4091  
G01 X-1.2297 Y0.4069  
G01 X-1.2365 Y0.4059  
G01 X-1.2435 Y0.4059  
G01 X-1.2503 Y0.4069  
G01 X-1.2569 Y0.4091  
G01 X-1.2631 Y0.4122  
G01 X-1.2688 Y0.4163  
G01 X-1.2737 Y0.4212  
G01 X-1.2778 Y0.4269  
G01 X-1.2809 Y0.4331  
G01 X-1.2831 Y0.4397  
G01 X-1.2841 Y0.4465  
G01 X-1.2841 Y0.4535  
G01 X-1.2831 Y0.4603  
G01 X-1.2809 Y0.4669  
G01 X-1.2778 Y0.4731  
G01 X-1.2737 Y0.4788  
G01 X-1.2688 Y0.4837  
G01 X-1.2631 Y0.4878  
G01 X-1.2569 Y0.4909  
G01 X-1.2503 Y0.4931  
G01 X-1.2435 Y0.4941  
G01 X-1.2365 Y0.4941  
G01 X-1.2297 Y0.4931  
G01 X-1.2259 Y0.4919  
G01 X-1.0156 Y0.6671  
G01 X-1.0148 Y0.6680  
G01 X-1.0139 Y0.6686  
G01 X-1.0131 Y0.6692  
G01 X-1.0120 Y0.6698  
G01 X-1.0110 Y0.6705  
G01 X-1.0100 Y0.6709  
G01 X-1.0091 Y0.6714  
G01 X-1.0079 Y0.6718  
G01 X-1.0068 Y0.6723  
G01 X-1.0057 Y0.6725  
G01 X-1.0047 Y0.6728  
G01 X-1.0035 Y0.6729  
G01 X-1.0023 Y0.6731  
G01 X-1.0012 Y0.6731  
G01 X-1.0002 Y0.6733  
G01 X-0.9990 Y0.6731  
G01 X-0.7331 Y0.6731  
G01 X-0.7331 Y0.6793  
G01 X-0.7319 Y0.6857  
G01 X-0.7294 Y0.6917  
G01 X-0.7257 Y0.6971  
G01 X-0.7211 Y0.7017  
G01 X-0.7157 Y0.7054  
G01 X-0.7097 Y0.7079  
G01 X-0.7033 Y0.7091  
G01 X-0.6967 Y0.7091  
G01 X-0.6903 Y0.7079  
G01 X-0.6843 Y0.7054  
G01 X-0.6789 Y0.7017  
G01 X-0.6743 Y0.6971  
G01 X-0.6706 Y0.6917  
G01 X-0.6681 Y0.6857  
G01 X-0.6669 Y0.6793  
G01 X-0.6669 Y0.6207  
G00 Z0.0500  
G00 X-0.8663 Y0.7212  
G01 Z-0.0035 F10    
G01 X-0.8712 Y0.7163  F20    
G01 X-0.8769 Y0.7122  
G01 X-0.8831 Y0.7091  
G01 X-0.8897 Y0.7069  
G01 X-0.8965 Y0.7059  
G01 X-0.9035 Y0.7059  
G01 X-0.9103 Y0.7069  
G01 X-0.9169 Y0.7091  
G01 X-0.9231 Y0.7122  
G01 X-0.9288 Y0.7163  
G01 X-0.9337 Y0.7212  
G01 X-0.9378 Y0.7269  
G01 X-0.9409 Y0.7331  
G01 X-0.9431 Y0.7397  
G01 X-0.9441 Y0.7465  
G01 X-0.9441 Y0.7535  
G01 X-0.9431 Y0.7603  
